oscarkremer/mentor-optimization/data/trajectory_1/adaptative_7_steps/angles.csv
theta1,theta2,theta3,theta4,theta5
0.0,-0.9030865823619687,2.1246196420553805,1.9200589403065884,3.141592
-2.2697379306758636e-05,-0.9031102761813308,2.124226416944259,1.9200002194054213,3.141532352753106
-9.014102067541089e-05,-0.9031807125527037,2.123071089286246,1.9198268374731307,3.1413549910719447
-0.0002013581792785242,-0.9032969238460176,2.1211901805943674,1.9195429656665315,3.1410622850457965
-0.0003553761102886663,-0.9034579424312024,2.118620212381651,1.9191527751424393,3.140656604763942
-0.0005512220688784046,-0.903662800678188,2.1153977061611227,1.9186604370576688,3.1401403203156613
-0.0007879233102203063,-0.9039105309569048,2.1115591834458103,1.9180701225690358,3.139515801790236
-0.0010645070894869397,-0.9042001656372823,2.107141165748739,1.9173860028333556,3.1387854192769455
-0.0013800006618508716,-0.9045307370892511,2.102180174582937,1.916612249007443,3.137951542865071
-0.0017334312824846699,-0.9049012776827409,2.0967127314614307,1.9157530322481138,3.137016542643893
-0.002123826206560902,-0.9053108197876817,2.0907753578972468,1.914812523712183,3.1359827887026914
-0.002550212689252136,-0.9057583957740036,2.084404575403412,1.9137948945564658,3.134852651130748
-0.0030116179857309373,-0.9062430380116366,2.077636905492953,1.9127043159377777,3.133628500017343
-0.0035070693511698764,-0.9067637788705109,2.070508869678897,1.9115449590129339,3.1323127054517554
-0.004035594040741519,-0.9073196507205562,2.06305698947427,1.9103209949387496,3.1309076375232676
-0.0045962193096184345,-0.9079096859317028,2.0553177863920995,1.90903659487204,3.12941566632116
-0.005187972412973188,-0.9085329168738806,2.047327781945412,1.9076959299696206,3.127839161934712
-0.0058098806059783455,-0.9091883759170197,2.0391234976472337,1.9063031713883065,3.1261804944532052
-0.006460971143806481,-0.9098750954310499,2.0307414550105927,1.9048624902849132,3.1244420339659196
-0.007140271281630153,-0.9105921077859016,2.022218175548514,1.9033780578162556,3.122626150562136
-0.007846808274621943,-0.9113384453515047,2.013590180774026,1.9018540451391492,3.120735214331135
-0.008579609377954402,-0.912113140497789,2.0048939922001545,1.9002946234104094,3.1187715953621966
-0.00933770184680011,-0.9129152255946847,1.996166131339927,1.8987039637868512,3.1167376637446025
-0.010120112936331624,-0.9137437330121219,1.9874431197063696,1.8970862374252904,3.1146357895676324
-0.01092586990172152,-0.9145976951200304,1.9787614788125092,1.8954456154825414,3.1124683429205664
-0.011753999998142363,-0.9154761442883405,1.9701577301713726,1.8937862691154201,3.110237693892686
-0.012603530480766723,-0.916378112886982,1.961668395295987,1.8921123694807418,3.107946212573272
-0.013473488604767166,-0.9173026332858851,1.9533299956993786,1.8904280877353214,3.1055962690516035
-0.014362901625316251,-0.9182487378549796,1.9451790528945745,1.8887375950359744,3.1031902334169623
-0.015270796797586556,-0.9192154589641958,1.9372520883946014,1.8870450625395159,3.1007304757586285
-0.016196201376750652,-0.9202018289834636,1.929585623712486,1.8853546614027616,3.098219366165883
-0.01713814261798109,-0.9212068802827129,1.9222161803612547,1.8836705627825265,3.0956592747280056
-0.018095647776450452,-0.922229645231874,1.915180279853935,1.8819969378356258,3.0930525715342774
-0.0190677441073313,-0.9232691562008767,1.9085144437035533,1.8803379577188748,3.090401626673979
-0.0200534588657962,-0.924324445559651,1.9022551934231364,1.878697793589089,3.087708810236391
-0.02105181930701773,-0.9253945456781271,1.896439050525711,1.8770806166030833,3.0849764923107936
-0.02206185268616845,-0.9264784889262351,1.891102536524304,1.8754905979176733,3.0822070429864676
-0.023082586258420912,-0.9275753076739046,1.8862821729319421,1.8739319086896742,3.0794028323526934
-0.024113047278947707,-0.9286840342910662,1.882014481261652,1.872408720075901,3.0765662304987518
-0.025152263002921414,-0.9298037011476493,1.8783359830264608,1.8709252032331694,3.073699607513923
-0.026199260685514557,-0.9309333406135845,1.8752831997393948,1.8694855293182944,3.070805333487488
-0.02725306758189973,-0.9320719850588015,1.8728926529134808,1.8680938694880913,3.0678857785087272
-0.0283127109472495,-0.9332186668532304,1.8712008640617461,1.8667543948993757,3.0649433126669208
-0.029377218036736423,-0.9343724183668012,1.8702443546972167,1.8654712767089623,3.0619803060513497
-0.030445616105533098,-0.935532271969444,1.87005964633292,1.8642486860736665,3.058999128751294
-0.03151693240881206,-0.9366972600310888,1.8706832604818828,1.8630907941503039,3.056002150856035
-0.03259019420174589,-0.9378664149216657,1.8721517186571313,1.8620017720956898,3.0529917424548527
-0.033664428739507146,-0.9390387690111044,1.8745015423716929,1.8609857910666392,3.049970273637028
-0.03473866327726839,-0.9402133546693353,1.8777692531385939,1.8600470222199674,3.046940114491841
-0.03581192507020223,-0.9413892042662882,1.8819913724708608,1.8591896367124896,3.043903635108573
-0.036883241373481174,-0.9425653501718934,1.8872044218815214,1.8584178057010217,3.0408632055765037
-0.03795163944227785,-0.9437408247560807,1.8934449228836017,1.857735700342378,3.0378211959849137
-0.03901614653176478,-0.94491466038878,1.9007493969901286,1.8571474917933743,3.0347799764230845
-0.04007578989711454,-0.9460858894399217,1.9081669477450227,1.856657351210826,3.031741916980296
-0.041129596793499736,-0.9472535442794354,1.9147760632853457,1.8562694497515484,3.0287093877458284
-0.04217659447609288,-0.9484166572772514,1.9206074336491756,1.8559879585723562,3.0256847588089633
-0.04321581020006657,-0.9495742608032998,1.9256917488745928,1.8558170488300654,3.0226704002589795
-0.04424627122059337,-0.9507253872275104,1.9300596989996768,1.8557608916814905,3.0196686821851593
-0.04526700479284584,-0.9518690689198134,1.9337419740625106,1.8558236582834475,3.0166819746767826
-0.04627703817199655,-0.9530043382501387,1.9367692641011716,1.8560095197927513,3.01371264782313
-0.04727539861321808,-0.9541302275884163,1.9391722591537426,1.8563226473662175,3.010763071713482
-0.04826111337168297,-0.9552457693045764,1.9409816492583025,1.856767212160661,3.007835616437119
-0.04923320970256383,-0.9563499957685488,1.9422281244529322,1.857347385332897,3.004932652083322
-0.050190714861033194,-0.9574419393502638,1.9429423747757137,1.8580673380397412,3.002056548741371
-0.05113265610226364,-0.9585206324196511,1.9431550902647272,1.8589312414380086,2.999209676500547
-0.05205806068142773,-0.9595851073466412,1.9428969609580506,1.8599432666845146,2.9963944054501304
-0.05296595585369803,-0.9606343965011637,1.9421986768937674,1.861107584936074,2.993613105679402
-0.05385536887424713,-0.9616675322531486,1.9410909281099569,1.862428367349503,2.9908681472776415
-0.05472532699824754,-0.9626835469725262,1.9396044046446996,1.8639097850816162,2.98816190033413
-0.05557485748087192,-0.9636814730292265,1.937769796536076,1.8655560092892287,2.9854967349381485
-0.05640298757729275,-0.9646603427931794,1.9356177938221686,1.8673712111291565,2.982875021178977
-0.057208744542682634,-0.9656191886343148,1.9331790865410536,1.8693595617582144,2.980299129145896
-0.057991155632214166,-0.9665570429225628,1.9304843647308165,1.8715252323332174,2.9777714289281865
-0.05874924810105986,-0.9674729380278538,1.9275643184295328,1.8738723940109814,2.9752942906151283
-0.05948204920439233,-0.9683659063201174,1.9244496376752878,1.8764052179483215,2.972870084296003
-0.0601885861973841,-0.9692349801692838,1.921171012506159,1.8791278753020528,2.9705011800600905
-0.06086788633520776,-0.970079191945283,1.917759132960228,1.8820445372289905,2.9681899479966716
-0.06151897687303591,-0.9708975740180452,1.9142446890755762,1.88515937488595,2.9659387581950263
-0.06214088506604111,-0.9716891587575,1.9106583708902818,1.8884765594297468,2.963749980744436
-0.06273263816939582,-0.9724529785335776,1.9070308684424266,1.8920002620171958,2.9616259857341802
-0.06329326343827277,-0.9731880657162082,1.90339287177009,1.8957346538051123,2.9595691432535407
-0.06382178812784438,-0.9738934526753219,1.8997750709113568,1.8996839059503121,2.9575818233917968
-0.06431723949328334,-0.9745681717808483,1.896208155904302,1.9038521896096101,2.95566639623823
-0.06477864478976213,-0.9752112554027179,1.8927228167870096,1.9082436759398211,2.9538252318821208
-0.06520503127245338,-0.9758217359108602,1.8893497435975584,1.9128625360977611,2.952060700412748
-0.0655954261965296,-0.9763986456752057,1.8861196263740285,1.9177129412402452,2.9503751719193954
-0.06594885681716336,-0.9769410170656841,1.883063155154503,1.9227990625240885,2.948771016491341
-0.0662643503895273,-0.9774478824522259,1.8802110199770614,1.9281250711061064,2.9472506042178663
-0.06654093416879396,-0.9779182742047604,1.8775939108797828,1.933695138143114,2.945816305188252
-0.06677763541013586,-0.9783512246932183,1.87524251790075,1.939513434791927,2.944470489491778
-0.06697348136872558,-0.9787457662875294,1.8731875310780408,1.94558413220936,2.943215527217725
-0.06712749929973573,-0.9791009313576233,1.8714596404497361,1.9519114015522288,2.9420537884553744
-0.06723871645833884,-0.9794157522734308,1.8700895360539174,1.9584994139773486,2.9409876432940054
-0.0673061600997075,-0.9796892614048813,1.8691079079286688,1.9653523406415345,2.9400194618228994
-0.06732885747901426,-0.9799204911219053,1.8685454461120665,1.9724743527016022,2.939151614131337
-0.06730583585143168,-0.9801084737944323,1.868432840642189,1.9798696213143663,2.9383864703085987
-0.06723612247213237,-0.9802522417923929,1.8688007815571206,1.9875423176366427,2.937726400443965
-0.06711874459628886,-0.9803508274857167,1.8696799588949418,1.995496612825246,2.9371737746267157
-0.06695272947907371,-0.980403263244334,1.8711010626937314,2.003736678036992,2.936730962946133
-0.06673710437565952,-0.9804085814381744,1.8730947829915712,2.0122666844286963,2.9364003354914954
-0.06647089654121885,-0.9803658144371683,1.8749813544605134,2.0210908031571733,2.9361842623520853
-0.06615313323092417,-0.9802739946112458,1.8760670066113176,2.0329817733040727,2.9360851136171817
-0.0657828416999483,-0.9801321543303365,1.8763811212234947,2.049241461449526,2.936105259376067
-0.06535904920346355,-0.979939325964371,1.875953080076516,2.0680016934246055,2.9362470697180196
-0.06488078299664252,-0.979694541883279,1.8748122649498606,2.087394295051695,2.936512914732322
-0.06434707033465792,-0.9793968344569903,1.8729880576229974,2.105551092153746,2.9369051645082536
-0.06375693847268221,-0.9790452360554353,1.8705098398754059,2.1206039105530863,2.9374261891350946
-0.06310941466588807,-0.9786387790485439,1.8674069934865587,2.1306845760726674,2.9380783587021266
-0.06240352616944789,-0.978176495806246,1.863708900235932,2.13741508338688,2.93886404329863
-0.061638300238534255,-0.9776574186984719,1.8594449419030026,2.143730725961462,2.939785613013885
-0.06081276412831993,-0.9770805800951515,1.8546445002672352,2.1496429991012533,2.9408454379371722
-0.05992594509397739,-0.9764450123662147,1.8493369571081217,2.1551633981203975,2.9420458881577725
-0.05897687039067909,-0.9757497478815919,1.8435516942051144,2.1603034183330485,2.9433893337649657
-0.05796456727359772,-0.9749938190112126,1.837318093337708,2.1650745550533492,2.9448781448480332
-0.05688806299790575,-0.974176258125007,1.8306655362853688,2.1694883035954526,2.9465146914962546
-0.05574638481877581,-0.9732960975929053,1.823623404827571,2.1735561592735024,2.948301343798912
-0.054538559991380575,-0.9723523697848375,1.8162210807437908,2.1772896174016525,2.950240471845284
-0.05326361577089239,-0.9713441070707334,1.808487945813499,2.1807001732940425,2.9523344457246523
-0.05192057941248396,-0.9702703418205232,1.8004533818161796,2.1837993222648273,2.954585635526297
-0.05050847817132781,-0.9691301064041369,1.7921467705313017,2.1865985596281567,2.9569964113394995
-0.04902633930259653,-0.9679224331915047,1.7835974937383394,2.1891093806981714,2.95956914325354
-0.04747319006146267,-0.9666463545525565,1.7748349332167663,2.191343280789027,2.9623062013576984
-0.045848057703098855,-0.965300902857222,1.765888470746054,2.193311755214868,2.9652099557412557
-0.044149969482677576,-0.9638851104754318,1.756787488105692,2.1950262992898426,2.968282776493493
-0.042377952655371365,-0.9623980097771156,1.7475613670751393,2.196498408328101,2.971527033703689
-0.04053103447635292,-0.9608386331322032,1.738239489433882,2.19773957764379,2.9749450974611267
-0.038608242200794785,-0.9592060129106252,1.7288512369613844,2.198761302551059,2.978539337855085
-0.03660860308386943,-0.9574991814823112,1.7194259914371308,2.1995750783640524,2.982312124974845
-0.0345311443807495,-0.9557171712171912,1.709993134640591,2.200192400396923,2.986265828909687
-0.03237489334660748,-0.9538590144851957,1.7005820483512313,2.200624763963819,2.9904028197488928
-0.03013887723661607,-0.9519237436562542,1.6912221143485446,2.2008836643788845,2.9947254675817403
-0.027822123305947744,-0.9499103911002968,1.6819427144119903,2.2009805969562697,2.999236142497513
-0.025423658809775096,-0.9478179891872538,1.6727732303210558,2.2009270570101265,3.0039372145854895
-0.022942511003270605,-0.945645570287055,1.6637430438552006,2.200734539854597,3.0088310539349514
-0.020377707141607082,-0.9433921667696306,1.6548815367939191,2.2004145408038323,3.013920030635178
-0.01772827447995673,-0.9410568110049106,1.6462180909166655,2.1999785551719837,3.019206514775451
-0.01499324027349247,-0.9386385353628248,1.6377820880029326,2.199438078273195,3.024692876445051
-0.012171631777386782,-0.9361363722133033,1.629602909832176,2.198804605421614,3.0303814857332583
-0.00926247624681209,-0.9335493539262762,1.6217099381838853,2.198089631931392,3.0362747127293526
-0.006264800936940984,-0.9308765128716738,1.614132554837541,2.197304653116678,3.0423749275226157
-0.003177633102946109,-0.9281168814194255,1.6069001415725932,2.196461164291617,3.0486845002023273
-5.551115123125783e-17,-0.925269491939462,1.6000420801685262,2.1955706607703585,3.0552058008577685
0.0030494579474193984,-0.9223333768017128,1.5935877524048365,2.194644637867052,3.0619411995782198
0.005542369762267185,-0.9193075683761083,1.587566540060978,2.1936945908958405,3.0688930664529614
0.0075181821363337065,-0.916191099032578,1.582007824916431,2.192732015170882,3.076063771571274
0.009016341761395097,-0.9129830011410527,1.5769409887506605,2.1917684060063145,3.0834556850224386
0.01007629532921328,-0.9096823070714618,1.5723954133431466,2.190815258716291,3.091071176895735
0.010737489531596367,-0.9062880491937357,1.5684004804733824,2.189884068614962,3.098912617280444
0.01103937106029207,-0.902799259877804,1.564985571920813,2.1889863310164683,3.1069823762658464
0.011021386607062311,-0.8992149714935973,1.5621800694649366,2.1881335412349667,3.1152828239412225
0.010722982863700992,-0.8955342164110449,1.560013354885207,2.1873371945846003,3.1238163303958535
0.010183606522002009,-0.8917560270000776,1.558514809961121,2.1866087863795185,3.132585265719019
0.00944270427369176,-0.887879435630625,1.5577138164721411,2.1859598119338726,3.141592
0.008539722810574801,-0.8839034746726171,1.5576397561977409,2.1854017665618075,3.150555402966374
0.007514108824441479,-0.8798271764959843,1.5524473539817336,2.184946145577464,3.1592053766497643
0.0064053090070430585,-0.8756495734706561,1.5376110755989885,2.184604444295008,3.167545804952888
0.0052527700501379115,-0.8713696979665627,1.5151507451537327,2.1843881580285744,3.1755805717784633
0.0040959386455448055,-0.8669865823536343,1.4870861867484564,2.184308782092317,3.183313561029213
0.0029742614850079008,-0.8624992590018007,1.4554372244867864,2.1843778118003785,3.1907486566078553
0.001927185260306885,-0.8579067602809921,1.4222236824712127,2.1846067424669133,3.197889742417114
0.0009941566632392096,-0.8532081185611387,1.3894653848049074,2.185007069406062,3.2047407023597083
0.0002146223855525875,-0.84840236621217,1.3591821555919523,2.185590287931986,3.21130542033836
-0.00037197088099105713,-0.8434885356040166,1.3333938189350647,2.1863678933588204,3.217587780255789
-0.0007261764445871677,-0.8384656591066083,1.314120198936962,2.187351381000717,3.22359166601471
-0.0008085476134738201,-0.8333327690898747,1.3033811197010436,2.188552246171829,3.2293209615178537
-0.0005796376958571159,-0.8280888979237466,1.3031964053309366,2.189981984186298,3.2347795506679367
1.4210854715202004e-14,-0.8227330779781534,1.308758911054013,2.191652090358277,3.239971317367677
0.0004329104859408517,-0.8176030673740087,1.3141545913878996,2.1935740600019162,3.2449001455197997
0.00027229084703606077,-0.8132559789253762,1.3193848620472088,2.1957593884313535,3.249569919027021
-0.00035012678900159244,-0.80964089691183,1.3244511387470073,2.198219570960749,3.253984521792066
-0.001302610294033002,-0.8067069056126002,1.3293548372023665,2.2009661029042427,3.2581478377176523
-0.002453427540302755,-0.8044030893071223,1.3340973731283516,2.20401047957599,3.262063750706502
-0.003670846399728589,-0.8026785322746477,1.3386801622400286,2.2073641962901274,3.2657361446613353
-0.004823134744526669,-0.8014823187945979,1.3431046202524695,2.2110387483608154,3.269168903484871
-0.005778560446671577,-0.8007635331461742,1.3473721628807365,2.215045631102198,3.272365911079831
-0.0064053913782231575,-0.8004712596088268,1.3514842058399024,2.2193963398284193,3.2753310513489398
-0.006571895411269679,-0.800554582461821,1.3554421648450332,2.223747793015125,3.278068208194908
-0.006146340417956253,-0.80096258598455,1.3592474556111946,2.227706638626632,3.280581265520468
-0.004996994270243249,-0.8016443544562648,1.3629014938534572,2.2312920224296953,3.282874107228335
-0.002992124840218935,-0.8025489721563517,1.3664056952868873,2.2345230901909545,3.2849506172212304
-5.684341886080802e-14,-0.8036255233641469,1.369761475626551,2.2374189876770387,3.2868146794018753
0.003254199021046844,-0.8048230923589301,1.372970250587519,2.239998860654584,3.2884701776729868
0.006099343237245591,-0.8060907634201016,1.3760334358848578,2.2422818548902548,3.2899209959372886
0.008555291769361872,-0.8073776208269265,1.378952447233633,2.2442871161506446,3.291171018097501
0.010641903738246583,-0.8086327488587983,1.3817287003489156,2.2460337902024037,3.292224128056348
0.012379038264612063,-0.8098052317950106,1.3843636109457718,2.247541022812186,3.293084209716544
0.013786554469316314,-0.810844153914914,1.386858594739269,2.2488279597466168,3.293755146980807
0.014884311473075229,-0.8116985994978165,1.389215067444475,2.249913746772343,3.2942408237518706
0.015692168396757467,-0.8123176528230687,1.3914344447764562,2.2508175296559827,3.2945451239324477
0.01622998436107892,-0.8126503981699926,1.3935181424502834,2.251558454164158,3.294671931425257
0.016517618486901142,-0.8126459198179248,1.395467576181022,2.2521556660635618,3.2946251301330243
0.01657492989495779,-0.8122533020462228,1.3972841616837386,2.2526283111207768,3.2944086039584635
0.016421777706064233,-0.8114216291341663,1.3989693146735054,2.2529955351024604,3.294026236804302
0.016078021041000312,-0.8100999853611484,1.4005244508653856,2.2532764837752595,3.293481912573257
0.01556351902057429,-0.8082374550064202,1.401950985974447,2.253490302905785,3.292779515168048
0.01489813076555535,-0.806144358505628,1.4032503357157613,2.2536561382607125,3.2919229284913962
0.014101715396751757,-0.804086835214434,1.4044239158043923,2.253793135606621,3.2909160364460277
0.013194132034932693,-0.8020646476461357,1.4054731419554074,2.2539204407101927,3.2897627229346567
0.012195239800906421,-0.8000775583142359,1.4063994298838778,2.2540571993380674,3.2884668718600096
0.011124897815445678,-0.7981253297322368,1.4072041953048704,2.254222557256842,3.287032367124798
0.01000296519937649,-0.7962077244136418,1.4078888539334478,2.254435660233181,3.2854630926317556
0.008849301073436067,-0.7943245048719525,1.408454821484684,2.2547156540337348,3.2837629322835884
0.007683764558450434,-0.7924754336206722,1.408903513673644,2.255081684425093,3.281935769983022
0.006526214775192329,-0.7906602731733026,1.4092363462153945,2.255552897173928,3.2799854896327885
0.005396510844480673,-0.7888787860433479,1.4094547348250064,2.2561484380468606,3.277915975135591
0.004314511887073991,-0.7871307347443091,1.4095600952175436,2.256887452810563,3.2757311103941644
0.0033000770237698873,-0.7854158817896899,1.4095538431080752,2.257789087231604,3.273434779311219
0.002373065375365968,-0.7837339896929925,1.4094373942116674,2.258872487076694,3.271030865789484
0.0015533360626420745,-0.7820848209677193,1.4092121642433924,2.2601567981124226,3.268523253731674
0.0008607482063922589,-0.780468138127373,1.408879568918315,2.2616611661054193,3.2659158270405078
0.0003151609274176792,-0.7788837036854563,1.4084410239515037,2.263404736822352,3.263212469618714
-6.356665350892854e-05,-0.7773312801554719,1.4078979450580236,2.2654066560298567,3.260417065369009
-0.0002555754155650902,-0.775810630050922,1.4072517479529445,2.2675080165351935,3.2575334981941104
-0.00024100623802425503,-0.7743215158853094,1.4065038483513357,2.2695946380356764,3.2545656519967476
-3.197442310920451e-14,-0.7728637001721372,1.4056556619682583,2.2716669201638293,3.2515174106796296
0.0003179000066859672,-0.771436945424907,1.4047086045187882,2.273725262552377,3.248392658145483
0.0005608171464031031,-0.7700410141571221,1.4036640917179874,2.275770064834045,3.2451952782970377
0.0007316529650633896,-0.7686756688822853,1.4025235392809283,2.2778017266415578,3.2419291550369964
0.0008333090085814732,-0.7673406721138987,1.4012883629226742,2.27982064760764,3.2385981722680874
0.0008686868228684475,-0.7660357863654651,1.3999599783582948,2.2818272273650173,3.2352062138930355
0.0008406879538380707,-0.7647607741504872,1.398539801302856,2.283821865546413,3.2317571638145566
0.000752213947403213,-0.7635153979824671,1.3970292474714268,2.2858049617845526,3.228254905935379
0.0006061663494705272,-0.7622994203749083,1.3954297325790774,2.287776915712162,3.2247033241582113
0.0004054467059670941,-0.7611126038413123,1.3937426723408732,2.2897381269619643,3.2211063023857847
0.00015295656279246117,-0.7599547108951829,1.3919694824718816,2.2916889951666866,3.2174677245208123
-0.00014840253413606064,-0.7588255040500214,1.3901115786871694,2.2936299199590513,3.2137914744660145
-0.0004957290389064894,-0.7577247458193308,1.3881703767018023,2.2955613009717855,3.2100814361241197
-0.0008861214056095079,-0.7566521987166147,1.386147292230854,2.297483537837611,3.206341493397848
-0.0013166780883180351,-0.7556076252553746,1.3840437409893895,2.2993970301892563,3.20257553018991
-0.00178449754114407,-0.7545907879491139,1.381861138692475,2.3013021776594447,3.198787430403037
-0.0022866782181543144,-0.7536014493113341,1.379600901055181,2.3031993798809003,3.194981077939943
-0.0028203185734376746,-0.7526393718555392,1.377264443792574,2.3050890364863474,3.1911603567033486
-0.0033825170610910504,-0.7517043180952308,1.3748531826197157,2.3069715471085144,3.1873291505959784
-0.003970372135200684,-0.7507960505439114,1.372368533251683,2.3088473113801213,3.1834913435205525
-0.004580982249846599,-0.7499143317150844,1.36981191140354,2.310716728933897,3.179650819379784
-0.005211445859119479,-0.7490589241222517,1.3671847327903546,2.3125801994025634,3.1758114620764104
-0.005858861417103789,-0.7482295902789161,1.3644884131271944,2.314438122418849,3.1719771555131384
-0.006520327377893764,-0.74742609269858,1.3617243681291251,2.316290897615473,3.168151783592691
-0.007192942195575647,-0.7466481938947465,1.358894013511212,2.3181389246251674,3.164339230217786
-0.007873804324227685,-0.7458956563809187,1.3559987649885312,2.31998260308065,3.16054337929115
-0.00856001221795033,-0.7451682426705976,1.3530400382761476,2.3218223326146497,3.156768114715508
-0.009248664330816503,-0.7444657152772871,1.3500192490891254,2.3236585128598906,3.153017320393568
-0.00993685911692932,-0.7437878367144891,1.3469378131425294,2.3254915434490986,3.1492948802280605
-0.010621695030363476,-0.7431343694957068,1.3437971461514375,2.3273218240149953,3.1456046781217015
-0.011300270525207878,-0.7425050761344423,1.340598663830912,2.3291497541903095,3.141950597977212
-0.011969684055558538,-0.741899719144198,1.3373437818960188,2.3309757336077626,3.138336523697312
-0.012627034075498145,-0.7413180610384772,1.3340339160618266,2.332800161900083,3.134766339184729
-0.013269419039104946,-0.7407598643307823,1.330670482043403,2.3346234386999916,3.1312439283421725
-0.01389393740047673,-0.7402248915346157,1.3272548955558179,2.3364459636402177,3.127773175072372
-0.01449768761369885,-0.7397129051634794,1.3237885723141343,2.3382681363534807,3.1243579632780456
-0.015077768132856662,-0.7392236677308773,1.3202729280334244,2.34009035647251,3.121002176861909
-0.015631277412039957,-0.7387569417503113,1.3167093784287576,2.341913023630028,3.1177096997266958
-0.016155313905330537,-0.7383124897352842,1.3130993392151957,2.3437365374587626,3.1144844157751095
-0.01664697606682619,-0.7378900741992983,1.3094442261078094,2.345561297591434,3.1113302089098838
-0.01710336235060339,-0.737489457655856,1.305745454821666,2.347387703660771,3.1082509630337363
-0.017521571210759923,-0.7371104026184607,1.3020044410718303,2.349216155299496,3.1052505620493847
-0.017898701101371373,-0.7367526716006143,1.298222600573375,2.351047052140337,3.1023328898595484
-0.018231850476531974,-0.73641602711582,1.294401349041367,2.3528807938160137,3.0995018303669504
-0.01851811779032886,-0.7361002316775802,1.290542102190872,2.3547177799592562,3.0967612674743172
-0.018754601496850043,-0.7358050477993967,1.286646275736958,2.356558410202786,3.0941150850843577
-0.01893840005017644,-0.7355302379947731,1.2827152853946933,2.3584030841793293,3.0915671670998055
-0.019066611904403175,-0.7352755647772115,1.2787505468791425,2.36025220152161,3.089121397423371
-0.019136335513612934,-0.7350407906602152,1.274753475905376,2.362106161862355,3.0867816599577775
-0.019144669331893738,-0.7348256781572862,1.2707254881884653,2.363965364834286,3.0845518386057513
-0.01908871181333538,-0.7346299897819265,1.266667999443472,2.3658302100701305,3.082435817270012
-0.018965561412022325,-0.7344534880476395,1.262582425385462,2.3677010972026125,3.080437479853268
-0.018772316582044368,-0.7342959354679284,1.2584701817295123,2.369578425864457,3.07856071025825
-0.018506075777489528,-0.7341570945562945,1.2543326841906843,2.3714625956883877,3.076809392387684
-0.018163937452435164,-0.7340367278262407,1.2501713484840478,2.3733540063071326,3.075187410144272
-0.017743000060983505,-0.73393459779127,1.245987590324666,2.3752530573534125,3.073698647430758
-0.017240362057208358,-0.7336653116797223,1.241782825427613,2.377160148459954,3.0723469881498406
-0.0166531218952084,-0.7330553226393377,1.237558469507948,2.3790756792594823,3.071136316204253
-0.015978378029068097,-0.732118880863986,1.2333159382807484,2.381000049384723,3.0700705154967256
-0.015213228912866583,-0.7308702365476663,1.2290566474610776,2.3829336584683984,3.0691534699299563
-0.01435477300070076,-0.7293236398843348,1.2247820127640026,2.384876906143236,3.068389063406684
-0.01340010874665154,-0.7274933410679907,1.220493449904593,2.386830192041959,3.067781179829618
-0.012346334604810494,-0.7253935902926472,1.2161923745979122,2.3887939157972937,3.0673337031014807
-0.011190549029262087,-0.7230386377523175,1.211880202559028,2.390768477041963,3.0670505171250007
-0.009929850474096114,-0.7204427336409722,1.2075583495030147,2.3927542754086937,3.0669355058028938
-0.008561337393400592,-0.7176201281525678,1.2032282311449363,2.3947517105302083,3.0669925530378706
-0.0070821082412582115,-0.7145850714811672,1.1988912631998607,2.3967611820392345,3.0672255427326647
-0.005489261471758766,-0.7113518138207056,1.194548861382855,2.3987830895684956,3.067638358790001
-0.0037798955389920508,-0.7079346053651605,1.1902024414089851,2.4008178327507146,3.0682348851125933
-0.0019511088970389778,-0.7043476963086093,1.185853418993318,2.4028658112186196,3.069019005603147
5.329070518200751e-15,-0.7006053368450011,1.1815032098509306,2.4049274246049346,3.0699946041644104
0.001974821157685991,-0.696721777168321,1.177153229696878,2.407003072542384,3.0711655646990845
0.003912293661595623,-0.6927112674725748,1.1728048942462364,2.4090931546636933,3.0725357711098997
0.005812683654154105,-0.688588057951705,1.1684596192140715,2.411198070601585,3.07410910729957
0.007676257277788201,-0.6843663987997957,1.1641188203154513,2.4133182199887866,3.075889457170824
0.00950328067492534,-0.6800605402107749,1.159783913265442,2.4154540024580218,3.077880704626372
0.011294019987988957,-0.6756847323786346,1.155456313779105,2.4176058176420168,3.0800867335689475
0.01304874135940537,-0.6712532254974377,1.151137437571518,2.4197740651734945,3.082511427901254
0.014767710931603117,-0.6667802697611052,1.1468287003577506,2.4219591446851796,3.085158671526024
0.016451194847005857,-0.6622801153636431,1.1425315178528646,2.4241614558097995,3.0880323483459797
0.01809945924803924,-0.6577670124990576,1.1382473057719258,2.4263813981800757,3.091136342263848
0.019712770277130698,-0.6532552113613548,1.133977479830004,2.428619371428736,3.0944745371823252
0.02129139407670455,-0.6487589621445267,1.1297234557421678,2.430875775188505,3.0980508170041503
0.02283559678919045,-0.6442925150424799,1.1254866492234843,2.4331510090921036,3.1018690656320445
0.024345644557008495,-0.6398701202493129,1.1212684759890177,2.4354454727722623,3.1059331669687147
0.02582180352258856,-0.6355060279590035,1.117070351753843,2.437759565861703,3.1102470049169
0.02726433982835763,-0.6312144883655222,1.1128936922330253,2.4400936879931496,3.1148144633793073
0.02867351961673803,-0.627009751662861,1.1087399131416298,2.4424482387993285,3.1196394262586686
0.03004960903015741,-0.6229060680449834,1.1046104301947226,2.4448236179129648,3.124725777457691
0.03139287421104431,-0.6189176877059595,1.100506659107375,2.4472202249667827,3.130077400879106
0.032703581301819495,-0.6150588608397527,1.0964300155946614,2.449638459593507,3.135698180425635
0.033981996444913065,-0.6113438376402911,1.0923819153716305,2.4520787214258624,3.1415919999999886
0.035228385782748894,-0.6077868683016732,1.08836377415337,2.4545414100965752,3.1471426379693526
0.036443015457753525,-0.6044022030178269,1.0843770076549344,2.4570269252383676,3.151635420855257
0.03762615161235461,-0.6012040919827655,1.0804230315913967,2.4595356664839656,3.155136834746031
0.03877806038897447,-0.5982067853904596,1.076503261677825,2.462068033466096,3.1577133657301033
0.03989900793004275,-0.5954245334349082,1.072619113629285,2.4646244258174814,3.1594314998946516
0.04098926037798312,-0.5928715863101246,1.0687720031608459,2.4672052431708473,3.1603577233283886
0.04204908387522077,-0.5905621942100936,1.0649633459875743,2.469810885158919,3.16055852211872
0.043078744564185145,-0.5885106073288142,1.061194557824539,2.47244175141442,3.160100382353562
0.04407850858729856,-0.5867310758602713,1.057467054386799,2.475098241570076,3.1590497901207755
0.045048642086989776,-0.5852378499984496,1.0537822513894426,2.477780755258612,3.1574732315087317
0.04598941120568445,-0.5840451799373625,1.0501415645475163,2.4804896921127533,3.1554371926050635
0.046901082085805346,-0.5831673158709805,1.0465464095760977,2.483225451765223,3.1530081594976878
0.04778392086978234,-0.582480181649843,1.042998202190252,2.4859884338487475,3.1502526182745214
0.048638193700038634,-0.5818352923551116,1.0394983581050514,2.4887790379960517,3.1472370550231403
0.049464166719002556,-0.5812314246090011,1.0360482930355577,2.4915976638398605,3.14402795583203
0.05026210606909842,-0.5806673550335439,1.0326494226968403,2.494444711012897,3.1406918067888228
0.051032277892751665,-0.5801418602507837,1.029303162803969,2.4973205791478885,3.1372950939811517
0.05177494833238949,-0.579653716882742,1.026010929072008,2.500225667877557,3.1339043034977863
0.052490383530438,-0.5792017015514626,1.0227741372160306,2.5031603768346304,3.130585921426018
0.05317884962932218,-0.5787845908789722,1.0195942029510938,2.5061251056518326,3.127406433853537
0.053840612771469454,-0.5784011614873119,1.0164725419922789,2.5091202539618873,3.1244323268688277
0.05447593909930348,-0.578050189998522,1.0134105700546439,2.5121462213975185,3.121730086559353
0.05508509475525236,-0.5777304530346221,1.0104097028532628,2.515203407591455,3.1193661990132
0.0556683458817413,-0.5774407272176578,1.0074713561031956,2.5182922121764184,3.1174071503183427
0.05622595862119528,-0.5771797891696613,1.004596945519511,2.5214130347851333,3.1159194265625842
0.05675819911604174,-0.5769464155126611,1.0017878868172883,2.5245662750503275,3.11496951383441
0.057265333508706995,-0.5767393828687011,0.9990455957115802,2.527752332604722,3.114623898220543
0.05774762794161492,-0.5765574678598115,0.9963714879174645,2.5309716070810446,3.1149490658100376
0.058205348557193615,-0.5763994471080229,0.9937669791500081,2.534224498112019,3.1160115026899575
0.058638761497867176,-0.5762640972353772,0.9912334851242726,2.537511405330371,3.117877694948845
0.05904813290606259,-0.5761501948639038,0.9887724215553266,2.5408327283688243,3.12061412867439
0.059433728924206175,-0.5760565166156404,0.9863852041582444,2.5441888668601043,3.1242872899544523
0.05979581569472381,-0.5759818391126164,0.984073248648091,2.547580220436935,3.128963664876835
0.060134659360039366,-0.5759249389768808,0.9818379707399281,2.551007188732042,3.134709739529967
0.06045052606258117,-0.5758845928304419,0.9796807861488261,2.5544701713781497,3.1415920000011397
0.06074368194477486,-0.575859577295363,0.9776031105898593,2.5579695680079837,3.1487334670583635
0.06101439314904722,-0.5758486689936557,0.9756063597780855,2.561505778254269,3.1553332459725283
0.061262925817821,-0.5758506445473728,0.9736919494285807,2.5650792017497293,3.1614057547222956
0.06148954609352586,-0.5758642805785339,0.9718612952564119,2.56869023812709,3.166965411287464
0.06169452011858412,-0.5758883537091819,0.9701158129766405,2.5723392870190764,3.172026633647718
0.0618781140354252,-0.5759216405613508,0.9684569183043408,2.5760267480584136,3.1766038397826293
0.06204059398647366,-0.5759629177570744,0.9668860269545743,2.5797530208778254,3.180711447671854
0.06218222611415314,-0.5760109619183815,0.9654045546424133,2.5835185051100353,3.184363875295219
0.06230327656089485,-0.5760645496673185,0.9640139170829141,2.587323600387771,3.187575540632338
0.06240401146911956,-0.576122457625905,0.9627155299911685,2.591168706343757,3.1903608616628105
0.06248469698125669,-0.5761834624161892,0.9615108090822257,2.5950542226107163,3.192734256366407
0.0625455992397308,-0.5762463406601999,0.9604011700711563,2.5989805488213755,3.1947101427227977
0.0625869843869673,-0.5763098689799708,0.9593880286730307,2.6029480846084594,3.1963029387115967
0.0626091185653932,-0.5763728239975379,0.9584728006029124,2.6069572296046903,3.197527062312645
0.06261226791743146,-0.5764339823349331,0.9576569015758718,2.611008383442796,3.1983969315053855
0.06259669858551398,-0.5764921206141995,0.9569417473069759,2.615101945755503,3.198926964269603
0.06256267671206306,-0.5765460154573621,0.956328753511297,2.61923831617553,3.1991315785850674
0.06251046843950325,-0.5765944434864565,0.9558193359038984,2.623417894335605,3.1990251924313355
0.06244033991026221,-0.5766361813235203,0.9554149101998402,2.6276410798684555,3.1986222237881208
0.06235255726676714,-0.5766700055905911,0.9551168921142086,2.631908272406802,3.1979370906350653
0.062247386651443914,-0.5766946929096992,0.9549266973620565,2.636219871583373,3.1969842109519817
0.062125094206714415,-0.5767090199028786,0.9548457416584561,2.6405762770308923,3.1957780027183986
0.061985946075009846,-0.5767117631921632,0.9548754407184745,2.6449778883820825,3.1943328839140577
0.061830208398752085,-0.5767016993995906,0.9550172102571803,2.64942510526967,3.1926632725186437
0.06165814732037056,-0.5766776051471894,0.955272465989637,2.6539183273263807,3.1907835865118273
0.06147002898228937,-0.5766382570570077,0.9556426236309168,2.658457954184938,3.188708243873222
0.061266119526933505,-0.5765824317510635,0.9561290988960884,2.663044385478067,3.186451662582627
0.06104668509673106,-0.5765089058514032,0.9567333075002153,2.667678020838493,3.184028260619584
0.060811991834104795,-0.576416455980052,0.9574566651583716,2.6723592598989407,3.181452455963935
0.06056230588148548,-0.5763038587590543,0.958300587585617,2.677088502292136,3.178738666595237
0.06029789338129543,-0.5761698908104389,0.9592664904970203,2.681866147650802,3.1759013104931597
0.060019020475961415,-0.5760133287562414,0.9603557896076591,2.686692595607664,3.172954805637474
0.05972595330791153,-0.5758329492184959,0.9615699006325933,2.691568245795446,3.1699135700077505
0.05941895801956676,-0.5756275288192398,0.9629102392868862,2.6964934978468755,3.166792021583774
0.059098300753356536,-0.5753958441805,0.9643782212856085,2.701468751394675,3.1636045783451863
0.058764247651707624,-0.5751366719243141,0.9659752623438322,2.70649440607157,3.1603656582715587
0.05841706485704368,-0.5748487886727283,0.967702778176621,2.711570861510286,3.1570896793427465
0.058057018511793235,-0.5745309710477606,0.9695621844990452,2.716698517343546,3.153791059538321
0.057684374758379064,-0.5741819956714576,0.9715548970261754,2.7218777732040773,3.1504842168379525
0.05729939973923104,-0.5738006391658423,0.9736823314730696,2.7271090287246036,3.1471835692213688
0.056902359596771035,-0.5733856781529614,0.9759459035548002,2.7323926835378503,3.1439035346682545
0.056493520473426706,-0.5729358892548415,0.9783470289864411,2.7377291372765407,3.1406585311582376
0.05607314851162348,-0.5724500490935203,0.9808871234830452,2.743118789573401,3.137462976671003
0.05564150985379035,-0.571926934291028,0.9835676027597025,2.7485620400611537,3.134331289186264
0.055198870642351405,-0.5713653214694112,0.9863898825314568,2.7540592883725283,3.131277886683705
0.05474549701972942,-0.5707639872506896,0.9893553785133928,2.759610934140246,3.1283171871429545
0.05428165512835381,-0.5701217082569077,0.992465506420567,2.7652173769970334,3.125463608543697
0.05380761111065002,-0.5694372611100889,0.995721681968055,2.7708790165756136,3.122731568865646
0.05332363110904348,-0.5687094224322848,0.9991253208709221,2.776596252508712,3.1201354860885147
0.052829981265961834,-0.5679369688455154,1.0026778388442352,2.782369484429055,3.117689778191874
0.05232692772382963,-0.5671186769718197,1.0063806516030578,2.788199111969366,3.115408863155494
0.051814736625071856,-0.5662533234332354,1.0102351748624656,2.7940855347623694,3.113307158959003
0.051293674112114385,-0.5653396848517946,1.014242824337522,2.800029152440791,3.111399083582029
0.05076400632738487,-0.5643765378495278,1.0184050157432942,2.8060303646373566,3.10969905500437
0.05022599941330963,-0.5633626590484724,1.0227231647948543,2.8120895709847895,3.108221491205626
0.049679919512312765,-0.5622968250706659,1.0271986872072638,2.818207171115814,3.10698081016551
0.04912603276682148,-0.5611778125381424,1.0318329986955934,2.8243835646631563,3.105991429863707
0.0485646053192621,-0.5600043980729374,1.036627514974919,2.8306191512595413,3.1052677682799015
0.04799590331205916,-0.5587753582970834,1.0415836517602823,2.8369143305376934,3.104824243393665
0.047420192887638546,-0.5574894698326069,1.0467028247667756,2.843269502130336,3.104675273184853
0.04683774018842879,-0.5561455093015546,1.051597390336056,2.8496850656701973,3.104835275633036
0.04624881135685355,-0.5547422533259638,1.0558997457645347,2.8561614207900003,3.1053186687178425
0.04565367253533825,-0.5532784785278455,1.059621231244364,2.8625405596604807,3.106139870419014
0.04505258986630967,-0.5517529615292638,1.0627731869670072,2.8686885608862482,3.1073132987162353
0.04444582949219411,-0.5501644789522384,1.0653669531240268,2.874608902602624,3.1088533715892765
0.043833657555417904,-0.5485118074188016,1.0674138699070852,2.8803050629449487,3.1107745070175667
0.04321634019840692,-0.5467937235509908,1.0689252775079296,2.885780520048691,3.113091122981018
0.04259414356358571,-0.5450090039708542,1.069912516117995,2.8910387520491483,3.1158176374591733
0.041967333793380135,-0.5431564253003991,1.0703869259289718,2.896083237081733,3.1189684684318024
0.04133617703022052,-0.5412347641616826,1.0703598471325506,2.9009174532818065,3.122558033878562
0.04070093941652919,-0.5392427971767297,1.0698426199203084,2.905544878784724,3.1266007517790797
0.040061887094728466,-0.5371793009675763,1.0688465844839357,2.9099689917259113,3.1311110401130122
0.039419286207251325,-0.534999629336312,1.0673830810148672,2.9141932702406947,3.1361033168602432
0.03877340289652231,-0.532648183908627,1.065463449705021,2.918221192464543,3.1415920000001734
0.03812450330496375,-0.5301296969255489,1.063099030745775,2.922056236532754,3.151132502288135
0.03747285357500196,-0.5274489006279808,1.060301164328905,2.925701880580739,3.160204776907179
0.03681871984906726,-0.5246105272568684,1.0570811906460449,2.9291616027438465,3.1688175485962518
0.036162368269581524,-0.5216193090532144,1.0534504498886008,2.9324388811574806,3.1769795420945997
0.03550406497897152,-0.5184799782580143,1.0494202822484624,2.935537193957039,3.184699482141525
0.03484407611966489,-0.5151972671122138,1.0450020279172065,2.9384600192778194,3.1919860934759754
0.03418266783408841,-0.5117759078567943,1.0402070270862964,2.9412108352552977,3.198848100837253
0.03352010626466395,-0.5082206327326659,1.0350466199474795,2.9437931200248215,3.2052942289644903
0.032856657553817836,-0.5045361739808527,1.0295321466924747,2.9462103517217457,3.211333202596947
0.032192587843980824,-0.5007272638423501,1.023674947512717,2.9484660084814323,3.21697374647367
0.03152816327757302,-0.4967986345580968,1.0174863626000388,2.950563568439307,3.2222245853339473
0.03086364999702562,-0.49275501836898883,1.0109777321457614,2.952506509730739,3.2270944439169114
0.030199314144762734,-0.488601147516043,1.004160396341888,2.9542983104910547,3.231592046961694
0.029535421863207567,-0.48434175424027615,0.9970456953797964,2.9559424488557298,3.235726119207527
0.02887223929478866,-0.4799815707826198,0.9896449694511205,2.957442402960055,3.239505385393585
0.028210032581932776,-0.47552532938406245,0.9819695587475792,2.9588016509394492,3.2429385702591134
0.027549067867064903,-0.47097776228551425,0.9740308034608063,2.9600236709292886,3.246034398543017
0.02688961129260825,-0.46634360172798495,0.9658400437824071,2.961111941064935,3.248801594984826
0.02623192900099358,-0.46162757995244874,0.9574086199038732,2.9620699394818075,3.2512488843234593
0.025576287134644105,-0.4568344291998301,0.9487478720170657,2.962901144315218,3.2533849912981623
0.024922951835984808,-0.4519688817111671,0.9398691403134478,2.963609033700614,3.25521864064811
0.02427218924744734,-0.4470356697273843,0.9307837649846817,2.9641970857733284,3.2567585571125477
0.023624265511449583,-0.4420395254894629,0.9215030862223443,2.964668778668738,3.258013465430551
0.022979446770421408,-0.4369851812383274,0.9120384442182683,2.9650275905222117,3.258992090341465
0.02233799916678958,-0.4318773692149449,0.9024011791636894,2.9652769994691965,3.259703156584152
0.021700188842979973,-0.42672082166039615,0.8926026312507531,2.965420483645026,3.260155388898056
0.021066281941416687,-0.42152027081554877,0.8826541406706951,2.965461521185013,3.2603575120223525
0.020436544604526485,-0.41628044892135563,0.8725670476152914,2.9654035902246676,3.260318250696102
0.019811242974737464,-0.4110060882188833,0.8623526922760902,2.965250168899317,3.2600463296584223
0.019190643194474166,-0.4057019209489994,0.8520224148447255,2.9650047353442446,3.259550473648673
0.018575011406158026,-0.4003726793527136,0.8415875555130015,2.964670767694976,3.258839407405844
0.01796461375222247,-0.39502309567100724,0.8310594544723813,2.964251744086802,3.257921855669281
0.01735971637508893,-0.38965790214479057,0.8204494519143282,2.9637511426551413,3.256806543178101
0.016760585417184615,-0.38428183101513014,0.8097688880307601,2.9631724415353276,3.2555021946713225
0.016167487020935845,-0.3788996145228367,0.7990291030132539,2.9625191188627724,3.254017534888362
0.015580687328767162,-0.37351598490907634,0.7882414370533581,2.961794652772838,3.252361288568295
0.015000452483103999,-0.3681356744147024,0.7774172303427065,2.961002521400907,3.250542180450225
0.014427048626378891,-0.362763415280682,0.7665678230729895,2.960146202882356,3.2485689352734255
0.0138607419010075,-0.35740393974801066,0.7557045554358979,2.959229175352604,3.246450277777086
0.013301798449423252,-0.35206198005765543,0.744838767622781,2.9582549169469416,3.2441949327003385
0.0127504844140498,-0.346742268450555,0.7339817998253864,2.957226905800816,3.241811624782258
0.012207065937315242,-0.34144953716766224,0.7231449922353761,2.9561486200496034,3.2393090787622043
0.011671809161638791,-0.3361885184500011,0.7123396850445545,2.9550235378286587,3.236696019379224
0.011144980229452983,-0.3309639445385528,0.7015772184442426,2.953855137273372,3.2339811713725055
0.010626845283184139,-0.3257805476742277,0.6908689326263868,2.95264689651912,3.231173259481409
0.010117670465253248,-0.320643060098007,0.6802261677822798,2.951402293701264,3.2282810084448386
0.009617721918088407,-0.3155562140509147,0.6696602641037828,2.9501248069552446,3.225313143002012
0.00912726578411771,-0.3105247417738326,0.659182561782444,2.948817914416331,3.22227838789226
0.008646568205764815,-0.3055533755077562,0.6488044010098122,2.9474850942200206,3.219185467854686
0.008175895325456928,-0.30064684749366677,0.6385371219776914,2.9461298245015826,3.216043107628394
0.00771551328561948,-0.29580988997253144,0.6283920648775734,2.9447555833964643,3.21286003195263
0.007265688228677902,-0.2910472351853315,0.6183805699010634,2.943365849040056,3.209644965566582
0.006826686297057627,-0.286363615373034,0.6085139772399089,2.9419640995676914,3.206406633209383
0.006398773633188526,-0.28176376277653503,0.5988036270856583,2.9405538131147324,3.2031537596202213
0.005982216379492478,-0.2772524096368869,0.5892608596300306,2.939138467816612,3.199895069538286
0.005577280678394025,-0.2728342881950283,0.5798970150644323,2.937721541808706,3.196639287702766
0.005184232672325706,-0.26851413069195473,0.5707234335805538,2.9363065132263557,3.19339513885285
0.004803338503705845,-0.26429666936857643,0.5617514553703131,2.934896860204944,3.190171347727585
0.004434864314968756,-0.26018663646593154,0.5529924206249746,2.9334960608798966,3.1869766390663017
0.0040790762485301,-0.2561887642249445,0.5444576695365413,2.93210759338654,3.183819737608019
0.0037362404468250787,-0.25230778488656824,0.5361585422962207,2.9307349358602863,3.1807093680920957
0.003406623052274682,-0.248548430691784,0.5281063790959308,2.9293815664364473,3.177654255257636
0.003090490207307006,-0.24491543388158732,0.5203125201272485,2.9280509632504845,3.1746631238437146
0.0027881080543483705,-0.24141352669690264,0.5127883055815232,2.926746604437767,3.171744698589606
0.002499742735821542,-0.2380474413787539,0.5055450756507582,2.925471968133607,3.168907704234499
0.0022256603941528397,-0.2348219101680229,0.49859417052644517,2.9242305324734446,3.1661608655175257
0.0019661271717739126,-0.23174166530577622,0.4919469304001325,2.9230257755926345,3.163512907177818
0.0017214092111048629,-0.2288114390329241,0.48561469546359604,2.9218611756265602,3.160972553954622
0.0014917726545702337,-0.22603596359044786,0.47960880590835586,2.920740210710605,3.158548530587126
0.001277483644604338,-0.22341997121931456,0.47394060192613097,2.9196663589801375,3.156249561814491
0.0010788083236263901,-0.22096819416051972,0.4686214237084414,2.918643098570584,3.1540843723758485
0.0008960128340635976,-0.21868536465491673,0.4636626114468072,2.9176739076172,3.152061687010388
0.0007293633183413917,-0.2165762149436148,0.45907550533317476,2.916762264255482,3.150190230457298
0.0005791259188896447,-0.21464547726755256,0.45487144555897885,2.915911646620785,3.1484787274558244
0.00044556677812668255,-0.21289788386759767,0.4510617723158248,2.9151255328484496,3.146935902744957
0.0003289520384868183,-0.21133816698491614,0.4476578257953463,2.9144074010738876,3.145570481064084
0.0002295478423919306,-0.2099710588602477,0.4446709461892624,2.913760729432468,3.14439118715228
0.00014762033226745075,-0.2088012917346589,0.44211247368912154,2.913188996059546,3.143406745748706
8.343565054058644e-05,-0.20783359784914524,0.43999374848638695,2.91269567909049,3.1426258815925223
3.725993963765717e-05,-0.20707270944467382,0.4383261107731755,2.912284256660783,3.1420573194228893
9.359341983206093e-06,-0.20652335876219752,0.43712090074069465,2.911958206905709,3.1417097839791097
2.6645352591003757e-15,-0.20619027804268342,0.4363894585807486,2.9117210079606366,3.1415920000001734
