oscarkremer/mentor-optimization/notebooks/traject_2/adaptive/angles_9.csv
theta1,theta2,theta3,theta4,theta5
3.7295952571373574,-0.7943678438589166,1.973043134264813,1.9629173631838936,3.2059965904706873
3.7295786783233904,-0.7943951629507627,1.9730265844341954,1.9628760781351298,3.2057323841390977
3.729529106174177,-0.7944769119283214,1.972977153045927,1.9627525748091905,3.2049510176430616
3.729446787128752,-0.7946127783446226,1.9728951672553838,1.9625473809366039,3.203669369730679
3.7293319676261483,-0.7948024497526969,1.9727809542179422,1.9622610242478986,3.2019043191500494
3.7291848941054004,-0.7950456137055741,1.9726348410889785,1.9618940324736027,3.1996727446492734
3.729005813005541,-0.7953419577562849,1.9724571550238688,1.9614469333442446,3.1969915249764504
3.7287949707656045,-0.7956911694578591,1.9722482231779894,1.9609202545903526,3.19387753887968
3.7285526138246237,-0.7960929363633272,1.9720083727067166,1.9603145239424549,3.1903476651070624
3.7282789886216325,-0.7965469460257192,1.9717379307654268,1.95963026913108,3.186418782406697
3.7279743415956648,-0.7970528859980656,1.971437224509496,1.9588680178867561,3.1821077695266835
3.727638919185754,-0.7976104438333962,1.9711065810943005,1.9580282979400114,3.177431505215123
3.7272729678309333,-0.7982193070847418,1.9707463276752164,1.9571116370213748,3.1724068682201136
3.726876733970237,-0.798879163305132,1.9703567914076203,1.956118562861374,3.167050737289756
3.7264504640426988,-0.7995897000475974,1.9699382994468884,1.9550496031905373,3.1613799911721503
3.7259944044873516,-0.8003506048651681,1.9694911789483966,1.9539052857393933,3.155411508615396
3.7255088017432296,-0.8011615653108745,1.9690157570675215,1.9526861382384704,3.1491621683675928
3.724993902249366,-0.8020222689377465,1.9685123609596393,1.9513926884182964,3.14264884917684
3.724449952444795,-0.8029324032988147,1.967981317780126,1.9500254640094001,3.1358884297912386
3.7238771987685495,-0.803891655947109,1.9674229546843582,1.9485849927423098,3.128897788958888
3.723275887659664,-0.8048997144356597,1.966837598827712,1.9470718023475537,3.121693805427887
3.7226462655571715,-0.8059562663174972,1.9662255773655635,1.9454864205556601,3.114293357946337
3.721988578900105,-0.8070609991456515,1.9655872174532891,1.9438293750971571,3.1067133252623367
3.7213030741274995,-0.8082136004731529,1.9649228462462653,1.9421011937025732,3.098970586123987
3.720589997678388,-0.8094137578530316,1.964232790899868,1.940302404102437,3.0910820192793866
3.7198495959918034,-0.8106611588383179,1.9635173785694733,1.9384335340272765,3.0830645034766357
3.7190821155067804,-0.811955490982042,1.962776936410458,1.9364951112076199,3.074934917463834
3.7182878026623523,-0.813296441837234,1.9620117915781978,1.9344876633739958,3.066710139989082
3.7174669038975523,-0.8146836989569243,1.9612222712280691,1.9324117182569325,3.058407049800479
3.7166196656514146,-0.816116949894143,1.9604087025154486,1.930267803586958,3.0500425256461243
3.715746334362972,-0.8175958822019204,1.959571412595712,1.9280564470946011,3.0416334462741186
3.7148471564712593,-0.8191201834332865,1.9587107286242358,1.9257781765103896,3.0331966904325616
3.713922378415309,-0.8206895411412719,1.9578269777563961,1.9234335195648522,3.024749136869553
3.7129722466341555,-0.8223036428789064,1.9569204871475694,1.9210230039885172,3.016307664333192
3.7119970075668323,-0.8239621761992207,1.9559915839531317,1.9185471575119128,3.0078891515715793
3.710996907652372,-0.8256648286552446,1.9550405953284595,1.9160065078655673,2.999510477332814
3.70997219332981,-0.8274112878000086,1.9540678484289287,1.9134015827800088,2.991188520364997
3.708923111038178,-0.8292012411865426,1.9530736704099159,1.910732909985766,2.9829401594162266
3.7078499072165116,-0.8310343763678772,1.952058388426797,1.9080010172133672,2.9747822732346036
3.7067528283038427,-0.8329103808970424,1.9510223296349487,1.9052064321933402,2.9667317405682283
3.705632120739206,-0.8348289423270685,1.949965821189747,1.902349682656214,2.9588054401651998
3.7044880309616346,-0.8367897482109856,1.9488891902465677,1.8994312963325166,2.9510202507736176
3.7033208054101623,-0.838792486101824,1.947792763960788,1.8964518009527762,2.943393051141582
3.702130690523822,-0.8408368435526139,1.9466768694877836,1.8934117242475215,2.9359407200171925
3.700917932741649,-0.8429225081163857,1.9455418339829307,1.89031159394728,2.9286801361485497
3.6996827785026754,-0.8450491673461694,1.9443879846016057,1.8871519377825812,2.9216281782837523
3.698425474245935,-0.8472165087949953,1.9432156484991847,1.8839332834839524,2.914801725170901
3.697146266410462,-0.8494242200158936,1.9420251528310444,1.8806561587819224,2.908217655558096
3.6958454014352897,-0.8516719885618945,1.9408168247525603,1.8773210914070195,2.901892848193435
3.6945231257594524,-0.8539595019860283,1.939590991419109,1.8739286090897718,2.8958441818250202
3.693179685821982,-0.8562864478413251,1.938347979986067,1.8704792395607075,2.89008853520095
3.6918153280619137,-0.8586525136808153,1.9370881176088106,1.8669735105503555,2.884642787069325
3.6904302989182804,-0.861057387057529,1.9358117314427155,1.8634119497892436,2.8795238161782457
3.6890248448301164,-0.8635007555244963,1.9345191486431585,1.8597950850079004,2.8747485012758096
3.6875992122364547,-0.8659823066347478,1.9332106963655156,1.8561234439368544,2.8703337211101183
3.686153647576329,-0.8685017279413134,1.9318867017651629,1.852397554306633,2.8662963544292714
3.6846883972887725,-0.8710587069972233,1.9305474919974768,1.8486179438477655,2.862653279981368
3.68320370781282,-0.8736529313555079,1.9291933942178336,1.8447851402907798,2.859421376514509
3.681699825587504,-0.8762840885691974,1.9278247355816096,1.8408996713662042,2.856617522776794
3.6801769970518587,-0.8789518661913218,1.926441843244181,1.836962064804567,2.8542585975163215
3.6786354686449174,-0.8816559517749116,1.925045044360924,1.8329728483363967,2.8523614794811927
3.677075486805714,-0.884396032872997,1.9236346660872148,1.8289325496922215,2.850943047419507
3.675497297973282,-0.8871717970386079,1.9222110355784299,1.8248416966025698,2.8500201800793645
3.673901148586655,-0.889982931824775,1.9207744799899449,1.82070081679797,2.8496097562088645
3.6722872850848662,-0.8928291247845281,1.9193253264771368,1.8165104380089496,2.8497286545561074
3.67065595390695,-0.8957100634708975,1.9178639021953818,1.8122710879660382,2.8503937538691924
3.6690074014919394,-0.8986254354369138,1.9163905343000558,1.8079832943997634,2.8516219328962196
3.6673418742788684,-0.9015749282356067,1.914905549946535,1.8036475850406535,2.8534300703852886
3.6656596187067705,-0.9045582294200067,1.9134092762901962,1.7992644876192367,2.8558350450845005
3.6639608812146793,-0.9075750265431441,1.9119020404864149,1.794834529866042,2.858853735741953
3.6622459082416285,-0.910625007158049,1.9103841696905677,1.790358239511597,2.8625030211057476
3.6605149462266513,-0.9137078588177515,1.9088559910580312,1.7858361442864301,2.8667997799239835
3.658768241608782,-0.9168232690752819,1.907317831744181,1.7812687719210698,2.8717608909447603
3.6570060408270537,-0.9199709254836707,1.9057700189043938,1.7766566501460443,2.877403232916178
3.6552285903205,-0.9231505155959476,1.904212879694046,1.7720003066918824,2.883743684586337
3.653436136528155,-0.9263617269651433,1.9026467412685135,1.7673002692891118,2.890799124703336
3.651628925889052,-0.9296042471442877,1.9010719307831725,1.762557065668261,2.898586432015276
3.6498072048422245,-0.9328777636864112,1.899488775393399,1.7577712235598584,2.907122485270256
3.6479712198267062,-0.9361819641445439,1.8978976022545702,1.7529432706944323,2.9164241632163765
3.646121217281531,-0.9395165360717161,1.8962987385220618,1.748073734802511,2.926508344601736
3.644257443645732,-0.9428811670209581,1.8946925113512498,1.7431631436146224,2.937391908174436
3.6423801453583433,-0.9462755445453002,1.8930792478975107,1.7382120248612956,2.949091732682575
3.6404895688583983,-0.9496993561977721,1.8914592753162207,1.7332209062730586,2.961624696874254
3.6385859605849302,-0.9531522895314045,1.8898329207627562,1.7281903155804395,2.9750076794975717
3.6366695669769733,-0.9566340320992276,1.8882005113924933,1.7231207805139668,2.989257559300629
3.634740634473561,-0.9601442714542714,1.8865623743608082,1.7180128288041687,3.0043912150315246
3.632799409513727,-0.9636826951495663,1.8849188368230774,1.7128669881815737,3.020425525438359
3.630846138536505,-0.9672489907381423,1.883270225934677,1.70768378637671,3.0373773692692323
3.628881067980928,-0.9708428457730298,1.8816168688509831,1.702463751120106,3.055263625272243
3.62690444428603,-0.9744639478072593,1.8799590927273722,1.6972074101422896,3.0741011721954923
3.624916513890845,-0.9781119843938606,1.8782972247192204,1.6919152911737898,3.0939068887870795
3.6229175232344057,-0.9817866430858637,1.876631591981904,1.6865879219451343,3.1146976537951048
3.620907718755747,-0.9854876114362995,1.8749625216707995,1.6812258301868517,3.1364903459676667
3.618887346893901,-0.9892145769981978,1.8732903409412824,1.6758295436294703,3.1585115802032773
3.6168566540879024,-0.9929672273245889,1.8716153769487296,1.6703995900035185,3.1802878604631584
3.614815886776785,-0.9967452499685032,1.8699379568485175,1.6649364970395246,3.2018201277154703
3.6127652913995814,-1.0005483324829705,1.8682584077960218,1.6594407924680166,3.223109322928371
3.610705114395326,-1.0043761624210215,1.8665770569466191,1.6539130040195233,3.24415638707002
3.608635602203052,-1.0082284273356859,1.8648942314556856,1.6483536594245727,3.2649622611085762
3.6065570012617933,-1.0121048147799943,1.8632102584785972,1.6427632864136932,3.2855278860121984
3.6044695580105834,-1.0160050123069768,1.8615254651707307,1.637142412717413,3.3058542027490456
3.602373518888456,-1.019928707469664,1.859840178687462,1.6314915660662606,3.325942152287277
3.6002691303344445,-1.0238755878210855,1.8581547261841675,1.625811274190764,3.3457926755950513
3.5981566387875827,-1.0278453409142718,1.8564694348162236,1.620102064821452,3.3654067136405277
3.596036290686904,-1.0318376543022532,1.8547846317390062,1.6143644656888527,3.384785207391864
3.593908332471443,-1.0358522155380596,1.8531006441078914,1.6085990045234944,3.4039290978172216
3.5917730105802317,-1.0398887121747216,1.8514177990782563,1.6028062090559052,3.4228393258847576
3.5896305714523047,-1.0439468317652694,1.8497364238054763,1.5969866070166137,3.441516832562632
3.5874812615266958,-1.048026261862733,1.848056845444928,1.591140726136148,3.459962558819002
3.5853253272424377,-1.0521266900201427,1.8463793911519875,1.5852690941450367,3.4781774456220282
3.583163015038565,-1.0562478037905285,1.8447043880820315,1.5793722387738076,3.49616243393987
3.5809945713541107,-1.0603892907269215,1.8430321633904356,1.57345068775299,3.5139184647406854
3.5788202426281086,-1.0645508383823508,1.8413630442325766,1.567504968813111,3.531446478992633
3.5766402752995927,-1.068732134309847,1.8396973577638303,1.5615356096847,3.5487474176638725
3.5744549158075953,-1.0729328660624409,1.8380354311395732,1.5555431380982845,3.565822221722563
3.572264410591152,-1.077152721193162,1.8363775915151817,1.549528081784393,3.582671832136862
3.5700690060892946,-1.0813913872550407,1.8347241660460316,1.543490968473554,3.59929718987493
3.567868948741058,-1.0856485518011074,1.8330754818874997,1.5374323258962959,3.615699235904926
3.5656644849854753,-1.089923902384392,1.8314318661949618,1.5313526817831469,3.6318789111950096
3.56345586126158,-1.094217126557925,1.8297936461237942,1.525252563864635,3.6478371567133374
3.5612433240084056,-1.0985279118747369,1.8281611488293734,1.5191324998712894,3.6635749134280693
3.5590271196649863,-1.1028559458878573,1.8265347014670756,1.5129930175336375,3.6790931223073655
3.5568074946703554,-1.1072009161503167,1.8249146311922768,1.5068346445822076,3.6943927243193837
3.554584695463546,-1.1115625102151454,1.8233012651603535,1.500657908747529,3.709474660432284
3.552358968483593,-1.1159404156353734,1.8216949305266819,1.4944633377601289,3.7243398716142244
3.5501305601695288,-1.120334319964031,1.8200959544466382,1.4882514593505358,3.7389892988333644
3.547899716960387,-1.1247439107541488,1.8185046640755986,1.4820228012492789,3.7534238830578617
3.5456666852952026,-1.1291688755587566,1.8169213865689398,1.4757778911868853,3.767644565255877
3.5434317116130076,-1.1336089019308844,1.8153464490820372,1.4695172568938846,3.7816522863955684
3.5411950423528364,-1.138063677423563,1.8137801787702676,1.4632414261008042,3.7954479874450957
3.538956923953723,-1.1425328895898224,1.8122229027890073,1.4569509265381722,3.8090326093726166
3.5367176028547,-1.1470162259826928,1.8106749482936326,1.4506462859365181,3.82240709314629
3.5344773254948016,-1.1515133741552044,1.8091366424395194,1.4443280320263687,3.8355723797342764
3.5322363383130613,-1.1560240216603872,1.807608312382044,1.4379966925382535,3.8485294101047343
3.529994887748513,-1.160547856051272,1.806090285276583,1.4316527952027007,3.861279125225822
3.5277532202401902,-1.1650845648808885,1.8045828882785122,1.425296867750238,3.8738224660656986
3.5255115822271264,-1.169633835702267,1.8030864485432083,1.4189294379113941,3.8861603735925243
3.523270220148355,-1.174195356068438,1.8016012932260472,1.4125510334166973,3.898293788774455
3.5210293804429096,-1.1787688135324312,1.8001277494824055,1.4061621819966756,3.9102236525796528
3.5187893095498244,-1.1833538956472776,1.7986661444676588,1.399763411381858,3.921950905976276
3.516550253908133,-1.1879502899660066,1.7972168053371842,1.3933552493027723,3.9334764899324823
3.514312459956868,-1.1925576840416492,1.7957800592463573,1.3869382234899468,3.944801345416432
3.5120761741350637,-1.1971757654272348,1.7943562333505547,1.3805128616739102,3.9559264133962833
3.5098416428817543,-1.2018042216757943,1.7929456548051526,1.3740796915851903,3.9668526348401953
3.5076091126359725,-1.2064427403403577,1.791548650765527,1.3676392409543157,3.9775809507163276
3.5053788298367525,-1.211091008973955,1.7901655483870544,1.3611920375118147,3.988112301992839
3.5031510409231275,-1.2157487151296165,1.7887966748251112,1.3547386089882154,3.998447629637888
3.500925992334132,-1.2204155463603727,1.7874423572350733,1.3482794831140466,4.008587874619632
3.4987039305087975,-1.2250911902192538,1.786102922772317,1.3418151876198363,4.018533977906234
3.4964851018861602,-1.2297753342592896,1.7847786985922187,1.3353462502361126,4.02828688046585
3.494269752905252,-1.2344676660335108,1.7834700118501545,1.3288731986934044,4.03784752326664
3.4920581300051072,-1.2391678730949474,1.782177189701501,1.3223965607222397,4.047216847276762
3.489850479624759,-1.2438756429966296,1.780900559301634,1.3159168640531465,4.056395793464376
3.487647048203242,-1.2485906632915873,1.77964044780593,1.3094346364166536,4.06538530279764
3.4854480821795883,-1.2533126215328512,1.7783971823697653,1.3029504055432888,4.074186316244714
3.483253827992833,-1.258041205273452,1.7771710901485158,1.2964646991635809,4.082799774773756
3.4810645320820086,-1.2627761020664185,1.7759624982975581,1.2899780450080585,4.091226619352927
3.4788804408861496,-1.2675169994647821,1.7747717339722684,1.2834909708072488,4.099467790950383
3.476701800844289,-1.2722635850215727,1.773599124328023,1.2770040042916813,4.107524230534285
3.4745288583954608,-1.2770155462898205,1.772444996520198,1.2705176731918835,4.115396879072791
3.472361859978698,-1.2817725708225556,1.7713096777041695,1.2640325052383838,4.12308667753406
3.4702010520330346,-1.2865343461728085,1.770193495035314,1.257549028161711,4.130594566886253
3.4680466809975043,-1.291300559893609,1.769096775669008,1.2510677696923933,4.137921488097526
3.4658989933111406,-1.2960708995379875,1.7680198467606272,1.2445892575609585,4.1450683821360395
3.463758235412978,-1.3008450526589743,1.7669630354655481,1.2381140194979352,4.152036189969953
3.461624653742048,-1.3056227068096,1.7659266689391468,1.2316425832338522,4.158825852567424
3.4594984947373866,-1.310403549542894,1.7649110743368,1.2251754764992373,4.1654383108966115
3.4573800048380257,-1.3151872684118873,1.7639165788138835,1.2187132270246188,4.171874505925675
3.455269430483,-1.3199735509696096,1.762943509525774,1.2122563625405252,4.178135378622775
3.4531670181113423,-1.324762084769091,1.761992193627847,1.2058054107774847,4.184221869956069
3.4510730141620867,-1.3295525573633626,1.7610629582754793,1.1993608994660256,4.190134920893717
3.4489876650742666,-1.3343446563054537,1.7601561306240474,1.1929233563366766,4.195875472403875
3.4469112172869156,-1.3391380691483947,1.759272037828927,1.1864933091199654,4.2014444654547045
3.4448439172390675,-1.343932483445216,1.7584110070454946,1.1800712855464204,4.206842841014366
3.442786011369756,-1.348727586748948,1.7575733654291263,1.1736578133465703,4.212071540051015
3.440737746118015,-1.3535230666126208,1.7567594401351987,1.1672534202509435,4.217131503532812
3.4386993679228772,-1.3583186105892644,1.7559695583190877,1.1608586339900677,4.222023672427916
3.4366711232233764,-1.3631139062319089,1.7552040471361696,1.1544739822944718,4.226748987704487
3.434653258458547,-1.3679086410935852,1.7544632337418207,1.1480999928946838,4.23130839033068
3.432646020067422,-1.3727025027273227,1.7537474452914172,1.1417371935212322,4.235702821274658
3.4306496544890352,-1.3774951786861525,1.7530570089403357,1.135386111904645,4.23993322150458
3.42866440816242,-1.3822863565231038,1.7523922518439523,1.1290472757754508,4.244000531988603
3.4266905275266106,-1.3870757237912077,1.7517535011576428,1.122721212864178,4.2479056936948885
3.4247282590206396,-1.3918629680434942,1.7511410840367836,1.1164084509013543,4.2516496475915915
3.4227778490835417,-1.396647776832993,1.7505553276367514,1.1101095176175093,4.255233334646874
3.420839544154349,-1.4014298377127352,1.749996559112922,1.10382494074317,4.2586576958288935
3.4189135906720973,-1.40620883823575,1.749465105620672,1.0975552480088648,4.261923672105811
3.417000235075819,-1.4109844659550688,1.7489612943153774,1.0913009671451226,4.265032204445783
3.4150997238045475,-1.4157564084237206,1.7484854523524143,1.0850626258824718,4.26798423381697
3.4132123032973167,-1.4205243531947367,1.7480379068871594,1.0788407519514405,4.2707807011875305
3.41133821999316,-1.4252879878211464,1.7476189850749888,1.0726358730825567,4.273422547525625
3.4094777203311115,-1.4300469998559806,1.7472290140712787,1.0664485170063491,4.275910713799409
3.407631050750205,-1.4348010768522692,1.7468683210314053,1.060279211453346,4.2782461409770445
3.405798457689473,-1.4395499063630424,1.7465372331107447,1.0541284841540757,4.280429770026689
3.40398018758795,-1.4442931759413307,1.7462360774646735,1.0479968628390663,4.282462541916502
3.402176486884669,-1.4490305731401638,1.7459651812485675,1.041884875238846,4.2843453976146435
3.4003876020186645,-1.4537617855125726,1.7457248716178038,1.0357930490839435,4.28607927808927
3.3986137794289695,-1.458486500611587,1.7455154757277573,1.029721912104887,4.287665124308543
3.396855265554618,-1.4632044059902372,1.7453373207338054,1.023671992032205,4.289103877240619
3.3951123068346427,-1.4679151892015534,1.7451907337913244,1.0176438165964252,4.290396477853659
3.3933851497080787,-1.4726185377985659,1.7450760420556897,1.0116379135280766,4.291543867115821
3.391674040613958,-1.4773141393343046,1.744993572682278,1.005654810557687,4.292546985995263
3.3899792259913157,-1.4820016813618,1.7449436528264657,0.9996950354157852,4.293406775460149
3.388300952279184,-1.4866808514340824,1.7449266096436287,0.9937591158328992,4.29412417647863
3.386639465916598,-1.491351337104182,1.7449427702891436,0.9878475795395572,4.294700130018871
3.38499501334259,-1.496012825925129,1.7449924619183865,0.9819609542662883,4.295135577049029
3.3833678409961947,-1.5006650054499535,1.7450760116867332,0.9760997677436193,4.295431458537265
3.3817581953164453,-1.5053075632316855,1.7451937467495613,0.9702645477020801,4.295588715451734
3.3801663227423746,-1.5099401868233562,1.7453459942622453,0.964455821872198,4.2956082887605955
3.378592469713017,-1.5145625637779943,1.7455330813801624,0.958674117984502,4.295491119432013
3.377036882667406,-1.5191743816486314,1.7457553352586892,0.9529199637695198,4.295238148434141
3.3754998080445766,-1.5237753279882968,1.7460130830532012,0.9471938869577794,4.29485031673514
3.37398149228356,-1.5283650903500214,1.7463066519190749,0.9414964152798103,4.294328565303168
3.3724821818233908,-1.532943356286835,1.7466363690116866,0.9358280764661406,4.293673835106386
3.3710021231031027,-1.5375098133517684,1.7470025614864126,0.930189398247298,4.292887067112952
3.3695415625617295,-1.5420641490978508,1.747405556498629,0.9245809083538108,4.291969202291025
3.368100746638305,-1.5466060510781128,1.7478456812037122,0.9190031345162079,4.2909211816087645
3.366679921771862,-1.5511352068455855,1.7483232627570384,0.9134566044650163,4.289743946034328
3.3652793344014347,-1.5556513039532982,1.748838628313984,0.9079418459307663,4.288438436535875
3.3638992309660565,-1.5601540299542813,1.749392105029925,0.9024593866439845,4.287005594081567
3.3625398579047614,-1.5646430724015645,1.7499840200602375,0.8970097543352005,4.285446359639558
3.3612014616565826,-1.5691181188481793,1.7506147005602983,0.8915934767349419,4.283761674178009
3.3598842886605538,-1.573578856847155,1.7512844736854833,0.886211081573737,4.281952478665081
3.358588585355709,-1.578024973951522,1.751993666591169,0.8808630965821145,4.280019714068931
3.3573145981810812,-1.5824561577143104,1.752742606432731,0.8755500494906021,4.27796432135772
3.3560625735757044,-1.5868720956885507,1.7535316203655464,0.8702724680297291,4.2757872414996045
3.3548327579786115,-1.591272475427273,1.7543610355449908,0.8650308799300228,4.273489415462745
3.3536253978288375,-1.5956569844835073,1.755231179126441,0.859825812922012,4.271071784215298
3.352440739565415,-1.6000253104102846,1.7561423782652725,0.854657794736225,4.268535288725429
3.3512790296273782,-1.6043771407606342,1.7570949601168624,0.8495273531031895,4.26588086996129
3.3501405144537597,-1.6087121630875867,1.7580892518365865,0.844435015753435,4.2631094688910425
3.349025440483594,-1.613030064944172,1.7591255805798212,0.8393813104174892,4.260222026482845
3.347934054155915,-1.617330533883421,1.7602042735019423,0.8343667648258801,4.257219483704856
3.3468666019097553,-1.6216132574583635,1.7613256577583267,0.8293919067091362,4.254102781525235
3.3458233301841496,-1.6258779232220295,1.7624900605043503,0.8244572637977863,4.2508728609121444
3.3448044854181305,-1.6301242187274494,1.7636978088953894,0.8195633638223578,4.2475306628337375
3.343810314050732,-1.6343518315276544,1.7649492300868204,0.8147107345133806,4.244077128258176
3.3428410625209883,-1.6385604491756727,1.766244651234019,0.8098999036013812,4.24051319815362
3.341896977267932,-1.6427497592245366,1.7675843994923617,0.8051313988168884,4.236839813488228
3.340978304730598,-1.646919449227275,1.7689688020172256,0.8004057478904316,4.233057915230157
3.340085291348018,-1.6510692067369184,1.7703981859639861,0.7957234785525378,4.229168444347567
3.339218183559227,-1.655198719306497,1.7718728784880193,0.7910851185337355,4.225172341808618
3.3383772278032593,-1.659307674489041,1.7733932067447022,0.7864911955645544,4.221070548581467
3.337562670519147,-1.6633957598375808,1.7749594978894103,0.7819422373755207,4.216864005634273
3.3367747581459244,-1.6674626629051472,1.7765720790775203,0.7774387716971645,4.212553653935197
3.3360137371226255,-1.671508071244769,1.7782312774644085,0.7729813262600134,4.208140434452396
3.3352798538882826,-1.6755316724094778,1.7799374202054508,0.7685704287945956,4.203625288154033
3.3345733548819307,-1.6795331539523028,1.7816908344560236,0.7642066070314391,4.199009156008262
3.3338944865426026,-1.6835122034262748,1.7834918473715031,0.7598903887010733,4.194292978983244
3.333243495309332,-1.6874685083844243,1.7853407861072657,0.7556223015340253,4.189477698047138
3.332620627621153,-1.69140175637978,1.7872379778186875,0.751402873260824,4.184564254168103
3.3320261299170992,-1.6953116349653743,1.7891837496611447,0.7472326316119982,4.1795535883143
3.331460248636204,-1.699197831694236,1.791178428790014,0.7431121043180753,4.1744466414538834
3.330923230217501,-1.7030600341193958,1.7931573896508568,0.739041819109584,4.169244354555014
3.3304153211000234,-1.706897929793884,1.7950627119315419,0.7350223037170525,4.163947668585854
3.3299367677228053,-1.7107112062707297,1.796894930136605,0.73105408587101,4.1585575245145545
3.32948781652488,-1.7144995511029648,1.7986545787705828,0.7271376933019831,4.153074863309284
3.329068713945282,-1.7182626518436186,1.8003421923380103,0.7232736537405016,4.147500625938196
3.3286797064230433,-1.722000196045721,1.8019583053434252,0.7194624949170936,4.14183575336945
3.3283210403971992,-1.725711871262303,1.8035034522913589,0.7157047445622866,4.136081186571208
3.3279929623067823,-1.729397365046395,1.8049781676863499,0.7120009304066093,4.130237866511625
3.3276957185908267,-1.733056364951026,1.806382986032931,0.7083515801805909,4.1243067341588615
3.3274295556883655,-1.7366885585292273,1.8077184418356382,0.7047572216147584,4.118288730481078
3.327194720038433,-1.740293633334029,1.8089850695990115,0.7012183824396405,4.1121847964464315
3.3269914580800615,-1.7438712769184608,1.8101834038275786,0.6977355903857658,4.10599587302308
3.3268200162522867,-1.747421176835553,1.81131397902588,0.6943093731836627,4.099722901179184
3.326680640994141,-1.7509430206383363,1.8123773296984484,0.6909402585638589,4.093366821882903
3.3265735787446578,-1.7544364958798404,1.813373990349822,0.6876287742568841,4.086928576102396
3.3264990759428708,-1.7579012901130961,1.8143044954845364,0.6843754479932649,4.08040910480582
3.3264573790278145,-1.7613370908911332,1.8151693796071238,0.6811808075035302,4.073809348961337
3.3264487344385216,-1.7647435857669822,1.8159691772221211,0.678045380518209,4.0671302495371044
3.3264733886140254,-1.7681204622936733,1.8167044228340625,0.6749696947678288,4.06037274750128
3.326531587993361,-1.7714674080242359,1.8173756509474859,0.6719542779829177,4.053537783822023
3.32662357901556,-1.7747841105117013,1.8179833960669265,0.6689996578940056,4.046626299467495
3.3265831689595604,-1.7780702573090994,1.8185281926969177,0.666106362231619,4.039639235405853
3.326244954835298,-1.7813255359694598,1.8190105753419954,0.663274918726287,4.032577532605256
3.3256115912865205,-1.784549634045814,1.819431078506695,0.6605058551085381,4.025442132033863
3.3246857329569863,-1.7877422390911912,1.8197902366955518,0.6577996991089006,4.018233974659834
3.3234700344904304,-1.7909030386586213,1.8200885844131032,0.6551569784579017,4.010954001451325
3.3219671505306163,-1.7940317203011358,1.8203266561638844,0.6525782208860718,4.003603153376497
3.320179735721279,-1.797127971571764,1.820504986452426,0.6500639541239372,3.9961823714035125
3.3181104447061944,-1.8001914800235361,1.8206241097832687,0.6476147059020272,3.988692596500523
3.3157619321290586,-1.8032219332094832,1.820684560660946,0.64523100395087,3.981134769635696
3.313136852633672,-1.8062190186826341,1.820686873589993,0.6429133760009946,3.9735098317771818
3.3102378608637544,-1.8091824239960206,1.8206315830749458,0.6406623497829271,3.965818723893145
3.307067611463074,-1.8121118367026716,1.8205192236203374,0.6384784530271979,3.958062386951745
3.3036287590753535,-1.8150069443556185,1.8203503297307075,0.6363622134643354,3.9502417619211347
3.299923958344369,-1.8178674345078898,1.8201254359105872,0.6343141588248671,3.942357789769481
3.295955863913848,-1.8206929947125179,1.8198450766645151,0.6323348168393206,3.9344114114649353
3.291727130427555,-1.8234833125225312,1.8195097864970267,0.6304247152382254,3.9264035679756613
3.2872404125292327,-1.8262380754909613,1.819120099912654,0.6285843817521102,3.9183352002698197
3.2824983648626382,-1.8289569711708369,1.8186765514159364,0.6268143441115022,3.910207249315566
3.277503642071485,-1.8316396871151894,1.818179675511404,0.6251151300469291,3.902020656081058
3.2722588987995813,-1.8342859108770488,1.817630006703597,0.6234872672889216,3.8937763615344583
3.2667667896906156,-1.836895330009445,1.8170280794970508,0.6219312835680055,3.885475306643924
3.261029969388373,-1.839467632065409,1.8163744283962977,0.6204477066147112,3.8771184323776158
3.25505109253659,-1.8420025045979702,1.8156695879058748,0.6190370641595657,3.868706679703691
3.24883281377903,-1.8444996351601592,1.8149140925303175,0.6176998839330974,3.860240989590306
3.242377787759416,-1.8469587113050059,1.8141084767741589,0.6164366936658352,3.8517223030056247
3.2356886691215205,-1.8493794205855407,1.8132532751419421,0.6152480210883073,3.8431515609178026
3.2287681125090764,-1.8517614505547944,1.8123490221381933,0.6141343939310415,3.834529704295001
3.221618772565847,-1.8541044887657958,1.8113962522674494,0.6130963399245668,3.825857674105378
3.2142433039355502,-1.856408222771577,1.8103955000342506,0.6121343867994113,3.817136411317092
3.20664436126199,-1.8586723401251664,1.8093472999431284,0.6112490622861029,3.808366856898302
3.1988245991888515,-1.8608965283795953,1.8082521864986227,0.61044089411517,3.799549951817167
3.190786672359925,-1.8630804750878933,1.8071106942052602,0.6097104100171413,3.790686637041847
3.182533235418946,-1.8652238678030917,1.8059233575675862,0.609058137722545,3.7817778535405013
3.1740669430096773,-1.8673263940782192,1.8046907110901298,0.6084846049619088,3.7728245422812865
3.16539044977584,-1.8693877414663074,1.8034132892774246,0.6079903394657618,3.7638276442323653
3.15650641036121,-1.8714075975203859,1.8020916266340126,0.6075758689646329,3.7547881003618935
3.1474174794095173,-1.8733856497934853,1.8007262576644294,0.6072417211890477,3.745706851638028
3.1381263115645286,-1.8753215858386345,1.7993177168732024,0.6069884238695384,3.736584839028933
3.12863556146997,-1.8772150932088654,1.7978665387648722,0.606816504736631,3.7274230035027642
3.1189478837696107,-1.8790658594572074,1.7963732578439737,0.606726491520853,3.7182222860276832
3.1090659331071855,-1.8808735721366907,1.7948384086150422,0.606718911952735,3.708983627571846
3.098992364126447,-1.882637918800346,1.7932625255826156,0.6067942937628032,3.6997079691034136
3.0887298314711433,-1.884358587001203,1.791646143251226,0.6069531646815878,3.690396251590543
3.0782809897850374,-1.8860352642922917,1.7899897961254085,0.6071960524396154,3.681049416001396
3.06764849371185,-1.8876676382266437,1.7882940187096974,0.6075234847674156,3.671668403304131
3.056834997895356,-1.889255396357288,1.7865593455086342,0.6079359893955156,3.662254154466904
3.0458431569792843,-1.890798226237254,1.7847863110267497,0.6084340940544446,3.6528076104578737
3.0346756256074077,-1.8922958154195741,1.7829754497685766,0.6090183264747315,3.643329712245201
3.0233350584234486,-1.8937478514572774,1.7811272962386577,0.6096892143869024,3.633821400797049
3.0118241100711742,-1.8951540219033935,1.7792423849415209,0.610447285521488,3.6242836170815673
3.0001454351943195,-1.8965140143109538,1.7773212503817075,0.6112930676090156,3.6147173020669294
2.988301688436641,-1.8978275162329876,1.775364427063749,0.6122270883800125,3.6051233967212797
2.9762955244418876,-1.8990942152225254,1.773372449492185,0.6132498755650087,3.595502842012783
2.9641295978538125,-1.9003137988325984,1.7713458521715437,0.6143619568945318,3.5858565789095955
2.951806563316145,-1.901485954616235,1.7692851696063663,0.61556386009911,3.5761855483798843
2.939329075472658,-1.9026103701264667,1.7671909363011875,0.6168561129092724,3.5664906913917997
2.9266997889670847,-1.9036867329163234,1.7650636867605418,0.6182392430555459,3.5567729489135065
2.9139213584431953,-1.9047147305388354,1.7629039554889663,0.6197137782684599,3.5470332619131577
2.9009964385446985,-1.9056940505470328,1.760712276990993,0.621280246278543,3.5372725713589173
2.887927683915386,-1.9066243804939458,1.7584891857711598,0.622939174816322,3.5274918182189374
2.8747177491989717,-1.9075054079326048,1.7562352163339985,0.6246910916123274,3.51769194346139
2.8613692890392386,-1.9083368204160394,1.7539509031840503,0.6265365243970842,3.507873888054421
2.847884958079902,-1.9091183054972811,1.7516367808258484,0.6284760009011245,3.4980385929661963
2.8342674109647277,-1.9098495507293587,1.7492933837639248,0.630510048854974,3.488186999164875
2.8205193023374626,-1.9105302436653027,1.7469212465028203,0.6326391959891629,3.478320047618607
2.8066432868418545,-1.911160071858145,1.7445209035470652,0.6348639700342171,3.4684386792955655
2.7926420191216472,-1.911738722860914,1.7420928894011976,0.6371848987206676,3.4585438351638995
2.778518153820613,-1.91226588422664,1.7396377385697552,0.6396025097790412,3.4486364561917737
2.764274345582457,-1.9127412435083535,1.737155985557267,0.6421173309398664,3.438717483347344
2.749913249050973,-1.9131644882590848,1.734648164868272,0.6447298899336702,3.4287878575987607
2.735437518869883,-1.9135353060318643,1.7321148110073068,0.6474407144909851,3.418848519914201
2.720849809682946,-1.9138533843797227,1.729556458478907,0.6502503323423339,3.4089004112618113
2.7061527761338944,-1.9141184108556892,1.7269736417876076,0.6531592712182483,3.398944472609756
2.691349072866508,-1.9143300730127941,1.724366895437941,0.6561680588492567,3.388981644926191
2.6764413545244956,-1.914488058404069,1.7217367539344433,0.6592772229658856,3.379012869179272
2.6614322757516398,-1.9145920545825428,1.719083751781651,0.6624872912986652,3.3690390863371693
2.6463244911916775,-1.9146417491012455,1.716408423484102,0.6657987915781236,3.359061237368027
2.6311206554883775,-1.9146368295132077,1.713711303546329,0.6692122515347885,3.349080263240019
2.6158234232854305,-1.9145769833714605,1.7109929264728678,0.6727281988991871,3.33909710492129
2.6004354492266444,-1.9144618982290327,1.7082538267682525,0.6763471614018486,3.3291127033800123
2.584959387955738,-1.9142912616389554,1.7054945389370202,0.6800696667733024,3.3191279995843317
2.5693978941164772,-1.914064761154259,1.7027155974837056,0.6838962427440767,3.3091439345024245
2.553753622352602,-1.913782084327972,1.699917536912845,0.6878274170446979,3.2991614491024297
2.538029227307849,-1.913442918713128,1.697100891728974,0.6918637174056963,3.289181484352521
2.52222736362598,-1.9130469518627535,1.694266196436626,0.6960056715575984,3.2792049812208486
2.506350685950757,-1.912593871329881,1.6914139855403372,0.7002538072309337,3.269232880675575
2.4904018489258988,-1.9120833646675401,1.6885447935446418,0.7046086521562307,3.2592661236848626
2.4743835071951708,-1.9115151194287616,1.6856591549540783,0.7090707340640172,3.249305651216863
2.4582983154023204,-1.9108888231665744,1.6827576042731822,0.7136405806848218,3.2393524042397424
2.4421489281911093,-1.9102041634340097,1.679840676006485,0.7183187197491723,3.2294073237216567
2.425938000205278,-1.9094608277840974,1.676908904658525,0.723105678987598,3.219471350630762
2.4096681860885525,-1.9086585037698676,1.6739628247338363,0.7280019861306268,3.2095454259352243
2.393342140484709,-1.9077968789443518,1.6710029707369527,0.7330081689087855,3.1996304906031927
2.3769625180374803,-1.9068756408605783,1.668029877172418,0.7381247550526053,3.1897274856028375
2.3605319733906285,-1.9058944770715782,1.6650440785447556,0.7433522722926131,3.1798373519023055
2.344053161187894,-1.9048530751303825,1.6620461093585082,0.7486912483593358,3.1699610304697687
2.3275287360730204,-1.90375112259002,1.659036504118208,0.7541422109833036,3.160099462273373
2.3109613526897697,-1.9025883070035214,1.6560157973283927,0.7597056878950443,3.1502535882812897
2.2943536656818857,-1.9013643159239173,1.6529845234935996,0.7653822068250857,3.1404243494616644
2.2777083296930947,-1.9000788369042372,1.6499432171183592,0.7711722955039564,3.130612686782671
2.2610279993671973,-1.8987315574975119,1.646892412707209,0.7770764816621849,3.120819541212457
2.244315329347902,-1.8973221652567718,1.643832644764684,0.7830952930302999,3.1110458537191885
2.2275729742789387,-1.8958503477350472,1.6407644477953216,0.7892292573388291,3.1012925652710184
2.210803588804122,-1.8943157924853682,1.6376883563036548,0.7954789023183011,3.0915606168361105
2.194009827567143,-1.8927181870607641,1.6346049047942204,0.8018447556992445,3.08185094938262
2.177194345211781,-1.8910572190142658,1.6315146277715513,0.8083273452121871,3.0721645038787084
2.1603597963817585,-1.8893325758989041,1.628418059740187,0.8149271985876556,3.062502221292535
2.143508835720855,-1.8875439452677076,1.6253157352046594,0.8216448435561814,3.052865042592259
2.1266441178728,-1.885691014673709,1.6222081886695054,0.8284808078482921,3.043253908746035
2.109768297481331,-1.8837734716699361,1.6190959546392616,0.8354356191945156,3.0336697607220273
2.0928840291902198,-1.8817910038094205,1.61597956761846,0.8425098053253786,3.0241135394883933
2.0759939676432175,-1.8797432986451925,1.6128595621116393,0.8497038939714114,3.0145861860132896
2.05910076748404,-1.8776300437302806,1.6097364726233323,0.857018412863142,3.0050886412648783
2.0422070833564803,-1.875450926617718,1.6066108336580749,0.8644538897310978,2.9956218462113195
2.025315569904258,-1.8732056348605322,1.603483179720408,0.8720108523058094,2.986186741820763
2.0084288817711275,-1.870893856011754,1.600354045314857,0.8796898283178018,2.9767842690613797
1.9915496736008507,-1.8685152776244145,1.5972239649459654,0.8874913454976054,2.967415368901321
1.9746806000371393,-1.8660695872515438,1.594093473118261,0.895415931575748,2.958080982308747
1.95782431572378,-1.8635564724461715,1.5909631043362884,0.903464114282758,2.9487820502518236
1.9409834753045132,-1.8609756207613288,1.5878333931045816,0.911636421349165,2.939519513698695
1.9241607334230864,-1.8583267197500435,1.5847048739276683,0.9199333805054941,2.9302943136175372
1.9073587447232399,-1.8556094569653494,1.5815780813100861,0.9283555194822766,2.9211073909764966
1.890580163848714,-1.8528235199602734,1.578453549756377,0.9369033660100401,2.9119596867437405
1.8738276454432992,-1.849968596287848,1.5753318137710695,0.9455774478193115,2.902852141887424
1.8571038441506929,-1.8470443735011024,1.5722134078587038,0.9543782926406212,2.893785697375705
1.840411414614664,-1.8440505391530677,1.5690988665238121,0.9633064282044961,2.8847612941767444
1.8237530114789884,-1.840986780796773,1.5659887242709294,0.9723623822414664,2.875779873258697
1.8071312893873674,-1.8378527859852487,1.5628835156045957,0.9815466824820565,2.86684237558973
1.790548902983577,-1.834648242271526,1.559783775029338,0.9908598566567983,2.8579497421379916
1.7740085069113611,-1.8313728372086335,1.5566900370497017,1.0003024324962189,2.849102913871656
1.757512755814485,-1.8280262583496039,1.5536028361702146,1.0098749377308467,2.8403028317588657
1.7410643043366782,-1.8246081932474647,1.5505227068954177,1.0195779000912104,2.83155043676779
1.7246658071216672,-1.8211183294552469,1.547450183729838,1.0294118473078377,2.8228466698665837
1.7083199188132454,-1.8175563545259807,1.5443858011780245,1.0393773071112573,2.814192472023409
1.6920292940551462,-1.813921956012698,1.5413300937444978,1.049474807231995,2.8055887842064173
1.6757965874911065,-1.8102148214684282,1.5382835959338061,1.0597048754005867,2.7970365473837813
1.6596244537648666,-1.8064346384461998,1.535246842250472,1.070068039347552,2.7885367025236416
1.64351554752022,-1.8025810944990455,1.5322203671990406,1.080564826803423,2.7800901905941746
1.6274725234008898,-1.798653877179993,1.5292047052840427,1.0911957654987274,2.771697952563528
1.6114980360505982,-1.7946526740420743,1.5262003910100166,1.101961383163994,2.7633609293998678
1.5955947401131318,-1.7905771726383195,1.5232079588814962,1.1128622075297532,2.7550800620713485
1.5797652902322206,-1.7864270605217585,1.5202279434030173,1.1238987663265272,2.7468562915461305
1.5640123410516118,-1.7822020252454216,1.5172608790791102,1.135071587284851,2.7386905587923724
1.5483385472150673,-1.7779017543623383,1.5143073004143224,1.1463811981352503,2.7305838047782327
1.5327465633663309,-1.7735259354255386,1.5113677419131797,1.1578281266082513,2.72253697047187
1.5172390441491572,-1.7690742559880555,1.508442738080217,1.1694129004343852,2.714550996841451
1.501818644207276,-1.7645464036029166,1.5055328234199763,1.1811360473441797,2.7066268248551264
1.4864880181844313,-1.7599420658231528,1.502638532436987,1.1929980950681607,2.6987653954810487
1.4712498207244096,-1.7552609302017936,1.4997603996357878,1.2049995713368604,2.690967649687396
1.4561067064709405,-1.7505026842918716,1.4968989595209097,1.2171410038808057,2.683234528442309
1.441061330067761,-1.7456670156464145,1.4940547465968956,1.2294229204305234,2.6755669727139555
1.4261163461586293,-1.7407536118184535,1.4912282953682716,1.2418458487165447,2.667965923470497
1.4112744093872749,-1.735762160361018,1.4884201403395831,1.2544103164693947,2.660432321680089
1.3965381743974774,-1.730692348827139,1.485630816015358,1.2671168514196038,2.6529671083108806
1.3819102958329808,-1.725543864769847,1.4828608569001354,1.279965981297699,2.6455712243310483
1.367393428337536,-1.7203163957421719,1.4801107974984449,1.2929582338342094,2.6382456107087418
1.3529902265548657,-1.7150096292971444,1.477381172314833,1.306094136759663,2.6309912084121194
1.338703345128728,-1.7096232529877948,1.4746725158538254,1.3193742178045884,2.6238089584093416
1.3245354387028812,-1.704156954367149,1.47198536261996,1.332799004699515,2.6166998016685685
1.3104891619210832,-1.6986104209882447,1.4693202471177713,1.346369025174968,2.609664679157955
1.2965671694270569,-1.6929833404041084,1.4666777038518006,1.3600848069614786,2.602704531845669
1.2827721158645744,-1.687275400167768,1.4640582673265765,1.3739468777895736,2.5958203006998595
1.2691066558773798,-1.681486287832258,1.4614624720466347,1.3879557653897843,2.5890129266886888
1.2555734441092028,-1.6756156909506057,1.4588908525165145,1.402111997492634,2.5822833507803225
1.2421751352038228,-1.669663297075843,1.4563439432407526,1.416416101828653,2.575632513942912
1.2289143838049483,-1.6636287937609984,1.4538222787238748,1.4308686061283726,2.5690613571446175
1.215793844556373,-1.6575118685591033,1.4513263934704304,1.4454700381223171,2.5625708213535905
1.2028161721018051,-1.651312209023188,1.4488568219849371,1.4602209255410177,2.5561618475380037
1.1899840210850243,-1.645029502706283,1.4464140987719496,1.4751217961150012,2.5498353766660156
1.1773000461497674,-1.6386634371614175,1.443998758335991,1.490173177574797,2.5435923497057775
1.1647669019397995,-1.632213699941623,1.4416113351816016,1.5053755976509313,2.53743370762545
1.1523872430988291,-1.6256799785999272,1.4392523638133108,1.5207295840739352,2.5313603913931964
1.1401637242706286,-1.619061960689363,1.4369223787356598,1.5362356645743338,2.5253733419771596
1.128099000098949,-1.6123593337629591,1.4346219144531833,1.5518943668826566,2.5194735003455246
1.1161957252275343,-1.6055717853737468,1.4323515054704163,1.567706218729433,2.513661807466434
1.1044565543001568,-1.5986990030747563,1.4301116862918946,1.5836717478451936,2.507939204308041
1.0928841419605178,-1.5917406744190172,1.427902991422151,1.5997914819604615,2.502306631838527
1.0814811428523967,-1.5846964869595581,1.4257259553657189,1.616065948805768,2.496765031026028
1.0702502116195447,-1.577566128249413,1.42358111262714,1.6324956761116391,2.491315342838716
1.0591940029057056,-1.5703492858416093,1.421468997710953,1.6490811916086061,2.485958508244744
1.0483151713546306,-1.5630456472891785,1.4193901451216764,1.6658230230271984,2.4806954682122786
1.0376163716100706,-1.5556549001451492,1.4173450893638648,1.6827216980979403,2.475527163709465
1.027100258315727,-1.5481767319625535,1.4153343649420442,1.699777744551361,2.470454535704471
1.0167694861154146,-1.5406108302944208,1.4133585063607512,1.716991690117987,2.4654785251654605
1.0066267096528705,-1.5329568826937807,1.4114180481245242,1.7343640625283525,2.4606000730605864
0.9966745835718243,-1.5252145767136644,1.4095135247378856,1.7518953895129838,2.455820120358
0.986915762516027,-1.5173835999071041,1.407645470705388,1.769586198802405,2.4511396080258834
0.9773529011292013,-1.509463639827124,1.4058144205315575,1.7874370181271493,2.4465594770323715
0.9679886540551621,-1.5014543840267605,1.4040209087209288,1.8054483752177424,2.4420806683456355
0.9588256759376179,-1.4933555200590423,1.4022654697780457,1.8236207978047139,2.4377041229338268
0.9498666214202913,-1.485166735476997,1.4005486382074306,1.8419548136185915,2.433430781765116
0.9411141451469902,-1.4768877178336561,1.3988709485136344,1.8604509503898994,2.4292615858076516
0.9325709017614372,-1.4685181546820516,1.3972329352011759,1.879109735849176,2.425197476029595
0.924239545907362,-1.4600577335752112,1.3956351327746006,1.89793169772694,2.4212393933991017
0.9161227322285086,-1.451506142066167,1.3940780757384506,1.9169173637537265,2.4173882788843457
0.9082231153686919,-1.4428630677079477,1.3925622985972428,1.9360672616600576,2.4136450734534662
0.9005433499715778,-1.4341281980535854,1.3910883358555282,1.9553819191764648,2.410010718074634
0.8930860906809599,-1.4253012206561095,1.389656722017829,1.9748618640334792,2.40648615371601
0.885853992140575,-1.4163818230685488,1.3882679915886964,1.994507623961625,2.40307232134575
0.8788497089942027,-1.407369692843936,1.3869226790726525,2.014319726691432,2.399770161932004
0.872075895885537,-1.3982645175352983,1.3856213189742395,2.0342986999534256,2.3965806164429395
0.8655352074583718,-1.3890659846956677,1.3843644457979938,2.0544450714781393,2.3935046258467203
0.8592302983564011,-1.379773781878077,1.3831525940484433,2.074759368996099,2.390543131111496
0.8531638232234613,-1.3703875966355517,1.3819862982301299,2.09524212023783,2.387697073205427
0.8473384367032111,-1.3609071165211244,1.3808660928475884,2.1158938529338682,2.38496739309668
0.8417567934394512,-1.3513320290878248,1.3797925124053503,2.1367150948147335,2.382355031753402
0.8364215480759327,-1.341662021888685,1.3787660914079538,2.157706373610961,2.379860930143767
0.8313353552563783,-1.33189678247673,1.3777873643599339,2.1788682170530747,2.3774860292359214
0.8265008696245317,-1.3220359984049974,1.3768568657658289,2.2002011528716006,2.375231269998025
0.8219207458241797,-1.3120793572265113,1.3759751301301666,2.2217057087970753,2.373097593398242
0.8175976384990378,-1.3020265464943046,1.3751426919574943,2.2433824125600212,2.3710859404047255
0.8135342022928782,-1.2918772537614078,1.3743600857523361,2.265231791890968,2.3691972519856463
0.8097330918494023,-1.2816311665808504,1.3736278460192342,2.287254374520443,2.3674324691091506
0.8061969618124252,-1.2712879725056627,1.3729465072627178,2.309450688178976,2.3657925327433986
0.8029284668256764,-1.2608473590888751,1.3723166039873256,2.3318212605970947,2.364278383856565
0.7999302615328858,-1.2503090138835162,1.3717386706975976,2.354366619505323,2.3628909634167847
0.7972050005777831,-1.23967262444262,1.3712132418980651,2.3770872926342017,2.3616312123922363
0.7947553386041406,-1.228937878319213,1.3707408520932596,2.399983807714248,2.360500071751069
0.7925839302557307,-1.2181044630663278,1.370322035787721,2.42305669247599,2.3594984824614365
0.7906934301762831,-1.2071720662369927,1.369957327485979,2.473840767983347,2.3586273854915163
0.7890864930095347,-1.1961403753842381,1.3696472616925774,2.5631373532814905,2.3578877218094547
0.7877657733992436,-1.1850090780610962,1.3693923729120545,2.6740614734299015,2.357280432383405
0.7867339259891608,-1.1737778618205947,1.369193195648931,2.7897281535551883,2.3568064581815342
0.7859936054230232,-1.1624464142157676,1.3690502644077593,2.893252418114571,2.356466740172003
0.7855474663446103,-1.1890686564147472,1.3689641136930568,2.967749292263761,2.356262219322968
0.7853981633976304,-1.2236754957120866,1.3689352780093706,2.996333800285356,2.3561938366025856
