oscarkremer/mentor-optimization/notebooks/traject_2/adaptive/angles_100.csv
theta1,theta2,theta3,theta4,theta5
3.1415926535,-0.9030865823619687,2.1246196420553805,1.9200595938963783,8.979318433952318e-11
3.14146317297928,-0.9042254397782287,2.1219943579351037,1.919905971238649,0.009373717560613346
3.141076056424554,-0.907481086950159,2.1144074345983537,1.9194473665576988,0.036374403303612614
3.140433291346969,-0.9126121362624864,2.1022922655812506,1.9186871747918848,0.07932135731459918
3.1395368652576745,-0.9193772000999367,2.0860822444199147,1.917628790879564,0.1365338795893812
3.1383887656678198,-0.9275348908472363,2.0662107646504664,1.9162756097590932,0.2063312701237669
3.136990980088553,-0.9368438208891112,2.0431112198090258,1.9146310263688293,0.2870328289135644
3.1353454960310216,-0.9470626026102877,2.0172170034317136,1.9126984356471293,0.37695785595458203
3.1334543010063762,-0.957949848395492,1.9889615090546493,1.9104812325323501,0.47442565124262775
3.131319382525765,-0.9692641706294504,1.9587781302139537,1.9079828119628488,0.57775551477351
3.1289427281003355,-0.9807641816968888,1.9271002604457468,1.9052065688769817,0.6852667465430367
3.1263263252412377,-0.9922084939825337,1.894361293286149,1.9021558982131066,0.7952786465470163
3.12347216145962,-1.0033557198711112,1.8609946222712808,1.8988341949095797,0.9061105147812567
3.1203822242666304,-1.0139644717473473,1.827433640937262,1.8952448539047584,1.0160816512415665
3.1170585011734184,-1.0237933619959685,1.794111742820213,1.8913912701369995,1.1235113559237533
3.1135029796911327,-1.032601003001701,1.7614623214562544,1.8872768385446599,1.226718928823625
3.109717647330921,-1.0401460071492707,1.7299187703815062,1.8829049540660963,1.3240236699369912
3.1057044916039334,-1.0461869868234042,1.6999144831320885,1.878279011639666,1.4137448792596596
3.101465500021317,-1.0504825544088272,1.671882853244122,1.8734024062037256,1.494201856787437
3.0970026600942218,-1.0527913222902663,1.6462572742537263,1.8682785326966325,1.5637139025161335
3.0923179593337955,-1.0528719028524476,1.6234711396970223,1.862910786056743,1.6206003164415557
3.0874133852511876,-1.0504829084800973,1.60395784311013,1.8573025612224148,1.6631803985595135
3.0822909253575466,-1.0453829515579416,1.5881507780291697,1.851457253132004,1.697304412037873
3.0769525671640205,-1.0373306444707064,1.5764833379902619,1.8453782567238677,1.7311813933347102
3.0714002981817585,-1.0260845996031183,1.5693889165295263,1.8390689669363633,1.7648120793580768
3.0656361059219095,-1.0114034293399037,1.5673009071830835,1.8325327787078474,1.7981972070160248
3.059661977895622,-0.9930457460657879,1.570652703487054,1.8257730869766768,1.8313375132166054
3.0534799016140446,-0.9707701621654979,1.5798776989775576,1.8187932866812089,1.8642337348678695
3.047091864588326,-0.9443352900237597,1.5954092871907148,1.8115967727598001,1.8968866088778693
3.0404998543296147,-0.9134997420252994,1.617680861662646,1.8041869401508075,1.929296872154656
3.0337058583490597,-0.878022130554843,1.647125815929471,1.7965671837925883,1.9614652616062807
3.0267118641578095,-0.8376610679971177,1.6841775435273112,1.788740898623499,1.9933925141407949
3.0195198592670125,-0.7921751667368482,1.7292694379922855,1.7807114795818968,2.02507936666625
3.0121318311878182,-0.7413230391587617,1.7828348928605142,1.7724823216061387,2.056526556090698
3.004549767431375,-0.6889434493168742,1.845307301668119,1.7640568196345812,2.0877348193221903
2.9967756555088303,-0.6369913559003284,1.9107751229627428,1.7554383686055817,2.1187048932687773
2.9888114829313346,-0.585465402727164,1.975634357926411,1.746630363457497,2.1494375148385116
2.9806592372100353,-0.5343642336154206,2.0398870244402367,1.7376361991286835,2.179933420939444
2.9723209058560824,-0.4836864923831375,2.10353514038533,1.7284592705574988,2.210193348479625
2.963798476380623,-0.4334308228483546,2.1665807236427996,1.7191029726823,2.240218034367108
2.955093936294807,-0.3835958688291121,2.229025792093758,1.709570700441443,2.270008215509943
2.946209273109783,-0.33418027414344886,2.290872363619313,1.6998658487732858,2.299564628816182
2.9371464743366986,-0.28518268260940494,2.3521224561005756,1.6899918126161846,2.328888011193876
2.9279075274867035,-0.23660173804502088,2.4127780874186566,1.679951986908497,2.3579790995510774
2.918494420070946,-0.1884360842683347,2.472841275454666,1.6697497665885792,2.386838630795836
2.908909139600575,-0.14068436509738685,2.5323140380897127,1.6593885465947886,2.415467341836205
2.899153673586739,-0.09334522435021758,2.5911983932049094,1.6488717218654818,2.4438659695802354
2.8892300095405865,-0.046417305844865475,2.649496358681364,1.638202687339016,2.4720352509359773
2.879140134973267,0.00010074660062873303,2.7072099524001874,1.6273848379537483,2.4999759228114833
2.8688860373959275,0.046210289168226164,2.7643411922424894,1.6164215686480352,2.5276887221148048
2.8584697043197185,0.09191267803988654,2.820892096089381,1.6053162743602338,2.5551743857539932
2.847893123255788,0.13720926939757053,2.8768646818219716,1.5940723500287008,2.5824336506370993
2.8371582817152845,0.18210141942323882,2.9322609673213713,1.5826931905917938,2.6094672536721752
2.8262671672093567,0.22659048429885092,2.987082970468691,1.571182190987869,2.6362759317672717
2.815221767249153,0.2706778202063675,3.04133270914504,1.5595427461552835,2.6628604218304406
2.804024069345823,0.3143647833277487,3.0950122012315298,1.5477782510323945,2.689221460769734
2.7926760610105146,0.35765272984495516,3.1481234646092693,1.5358921005575588,2.715359785493202
2.7811797297543768,0.4005430159399471,3.2006685171593676,1.523887689669133,2.7412761329088964
2.769537063088558,0.44303699779468514,3.2526493767629376,1.5117684133054745,2.76697123992487
2.7577500485242075,0.4851360315911288,3.304068061301088,1.49953766640494,2.792445843449172
2.745820673572473,0.5268414735112389,3.3549265886549295,1.4871988439058865,2.817700680389856
2.733750925744504,0.5681546797369754,3.4052269767055714,1.4747553407466707,2.842736487654972
2.721542792551449,0.6090770064502993,3.454971243334124,1.4622105518656499,2.8675540021525703
2.7091982615044565,0.649609809833171,3.504161406421699,1.4495678722011807,2.8921539607907056
2.6967193201146755,0.68975444606755,3.552799483849404,1.4368306966916202,2.9165371004774276
2.684107955893254,0.7295122713353968,3.6008874934983517,1.4240024202753254,2.940704158120787
2.671366156351341,0.7688846418186726,3.64842745324965,1.411086437890653,2.9646558706288357
2.658495909000086,0.8078729136993359,3.6954213809844108,1.39808614447596,2.9883929749096256
2.6454992013506367,0.8464784431593485,3.7418712945837433,1.3850049349696034,3.0119162078712076
2.6323780209141416,0.8847025863806706,3.7877792119287577,1.3718462043099398,3.035226306421634
2.6191343552017505,0.9225466995452624,3.8331471509005657,1.358613347435327,3.0583240074689555
2.605770191724611,0.9600121388350843,3.877977129380275,1.345309759284121,3.0812100479212226
2.5922875179938725,0.9971002604320965,3.9222711652489965,1.331938834794679,3.1038851646864885
2.5786883215206835,1.033812420518259,3.966031276387842,1.3185039689053581,3.1263500946728047
2.5649745898161926,1.070149975275531,4.00925948067792,1.305008556554515,3.1486055747882213
2.551148310391548,1.1061142808858753,4.051957796000342,1.2914559926805067,3.1706523419407895
2.5372114707578985,1.1417066935312519,4.094128240236215,1.2778496722216905,3.1924911330385615
2.523166058426394,1.17692856939362,4.135772831266653,1.2641929901164226,3.214122684989589
2.509014060908182,1.2117812646549397,4.176893586972765,1.2504893413030609,3.235547734701923
2.4947574657144114,1.246266135497172,4.217492525235661,1.2367421207199611,3.256767019083615
2.4803982603562305,1.2803845381022767,4.257571663936449,1.2229547233054812,3.277781275042716
2.465938432344789,1.3141378286522147,4.297133020956243,1.2091305439979774,3.2985912394872785
2.451379969191235,1.3475273633289464,4.336178614176149,1.195272977735807,3.3191976493253534
2.436724858406717,1.3805544983144318,4.3747104614772825,1.1813854194573272,3.3396012414649916
2.4219750875023838,1.4132205897906316,4.412730580740749,1.167471264100894,3.359802752814246
2.4071326439893843,1.4455269939395052,4.450240989847661,1.1535339066048653,3.379802920281166
2.392199515378867,1.4774750669430134,4.487243706679125,1.139576741907598,3.3996024807738032
2.3771776891819805,1.5090661649831163,4.523740749116258,1.1256031649474478,3.4192021712002116
2.362069152909874,1.5403016442417752,4.559734135040164,1.111616570662773,3.4386027284684393
2.3468758940736953,1.57118286090095,4.595225882331955,1.0976203539919296,3.4578048894865403
2.3315999001845933,1.6017111711426,4.630218008872743,1.0836179098732752,3.4768093911625644
2.3162431587537173,1.6318879311486865,4.664712532543636,1.0696126332451665,3.495616970404564
2.3008076572922156,1.6617144971011701,4.698711471225746,1.0556079190459604,3.5142283641205894
2.2852953833112366,1.6911922251820102,4.73221684280018,1.041607162214014,3.532644309218693
2.26970832432193,1.7203224715731666,4.765230665148051,1.0276137576876836,3.550865542606926
2.2540484678354433,1.7491065924566018,4.797754956150468,1.0136311004053271,3.5688928011933405
2.2383178013629257,1.7775459440142747,4.829791733688542,0.9996625853053003,3.586726821885986
2.2225183124155254,1.8056418824281457,4.861343015643383,0.9857116073259612,3.604368341592916
2.206651988504392,1.833395763880175,4.892410819896101,0.9717815614056662,3.621818097222182
2.190720817140673,1.8608089445523235,4.922997164327805,0.9578758424827719,3.6390768256818338
2.174726785835518,1.8878827806265503,4.953104066819607,0.9439978454956359,3.656145263879923
2.158671882100076,1.9146186282848172,4.982733545252617,0.9301509653826147,3.673024148724502
2.1425580934454946,1.9410178437090841,5.011887617507942,0.9163385970820656,3.6897142171236217
2.126387407382923,1.9670817830813103,5.040568301466698,0.9025641355323446,3.7062162059853327
2.11016181142351,1.9928118025834585,5.068777615009989,0.8888309756718101,3.722530852217688
2.093883293078404,2.0182092583974853,5.09651757601893,0.8751425124388178,3.7386588927287394
2.077553839858754,2.0432755067053545,5.123790202374627,0.8615021407717249,3.754601064426536
2.0611754392757082,2.0680119036890243,5.150597511958195,0.8479132556088885,3.7703581042191305
2.0447500788404156,2.092419805530456,5.176941522650738,0.8343792518886658,3.785930749014575
2.028279746064025,2.116500568411611,5.2028242523333725,0.8209035245494133,3.801319735720919
2.011766428457685,2.1402555485144465,5.228247718887204,0.807489468529488,3.8165258012462173
1.995212113532544,2.163686102020926,5.253213940193345,0.7941404787672472,3.831549682498517
1.9786187887997513,2.186793585113008,5.277724934132904,0.7808599502010473,3.846392116385874
1.9619884417704547,2.209579353972653,5.301782718586995,0.767651277769245,3.861053839816335
1.945323059955804,2.232044764781822,5.325389311436723,0.754517856410198,3.8755355896979546
1.9286246308669468,2.2541911737224747,5.348546730563203,0.7414630810622632,3.8898381029387847
1.911895142015032,2.2760199369765712,5.37125699384754,0.7284903466637971,3.9039621164468743
1.8951365809112088,2.297532410726073,5.393522119170849,0.7156030481531563,3.917908367130277
1.8783509350666256,2.3187299511529393,5.415344124414236,0.7028045804686985,3.931677591897043
1.8615401919924308,2.3396139144391306,5.436725027458816,0.6900983385487797,3.9452705276552225
1.8447063391997733,2.3601856567666086,5.457666846185694,0.6774877173317583,3.958687911312871
1.827851364199802,2.38044653431733,5.478171598475983,0.6649761117559898,3.9719304797780355
1.8109772545036655,2.400397903273259,5.498241302210792,0.6525669167598322,3.9849989699587702
1.794085997622512,2.420041119816355,5.517877975271234,0.6402635272816413,3.997894118763125
1.7771795810674913,2.4393775401285773,5.537083635538416,0.6280693382597746,4.010616663099151
1.7602599923497508,2.4584085203918873,5.555860300893449,0.6159877446325894,4.023167339874903
1.7433292189804401,2.4771354167882436,5.574209989217443,0.6040221413384423,4.035546885998428
1.7263892484707066,2.4955595854996093,5.59213471839151,0.59217592331569,4.047756038377781
1.7094420683317004,2.513682382707941,5.609636506296757,0.5804524855026898,4.05979553392101
1.69248966607457,2.531505164595201,5.626717370814297,0.5688552228377985,4.071666109536169
1.6755340292104628,2.5490292873433513,5.643379329825238,0.5573875302593725,4.083368502131309
1.6585771452505293,2.56625610713435,5.659624401210691,0.5460528027057698,4.09490344861448
1.641621001705917,2.5831869801501597,5.675454602851767,0.5348544351153459,4.106271685893736
1.6246675860877755,2.5998232625727358,5.690871952629576,0.5237958224264596,4.117473950877126
1.6077188859072518,2.6161663105840454,5.705878468425227,0.5128803595774662,4.1285109804727025
1.5907768886754958,2.6322174803660428,5.7204761681198315,0.5021114415067234,4.139383511588518
1.5738435819036565,2.6479781281006898,5.734667069594497,0.49149246315258766,4.150092281132621
1.5569209531028818,2.6634496099699505,5.748453190730338,0.4810268194534162,4.160638026013066
1.5400109897843208,2.67863328215578,5.761836549408461,0.4707179053475661,4.171021483137903
1.523115679459122,2.693530500840144,5.774819163509978,0.4605691157733942,4.181243389415182
1.5062370096384339,2.7081426222049974,5.787403050915997,0.45058384566925724,4.191304481752956
1.4893769678334057,2.7224710024323033,5.799590229507633,0.44076548997351206,4.201205497059277
1.472537541555186,2.736516997704023,5.811382717165989,0.431117443624516,4.2109471722421965
1.455720718314923,2.750281964202115,5.82278253177218,0.4216431015606257,4.2205302442097645
1.4389284856237654,2.7637672581085386,5.833791691207318,0.4123458587201978,4.229955449870034
1.4221628309928627,2.7769742356052576,5.844412213352509,0.4032291100415901,4.239223526131053
1.4054257419333622,2.789904252874231,5.854646116088864,0.3942962504631584,4.248335209900878
1.3887192059564137,2.8025586660974158,5.864495417297494,0.3855506749232609,4.257291238087557
1.3720452105731658,2.814938831456777,5.873962134859508,0.37699577836025333,4.266092347599142
1.355405743294767,2.827046105134272,5.8830482866560185,0.3686349557124933,4.274739275343686
1.3388027916323657,2.8388818433118623,5.891755890568135,0.3604716019183376,4.283232758229238
1.3222383430971107,2.8504474021715085,5.900086964476964,0.352509111916143,4.2915735331638505
1.3057143852001507,2.86174413789517,5.908043526263622,0.34475088064426695,4.299762337055576
1.2892329054526352,2.872773406664809,5.915627593809211,0.3372003030410655,4.3077999068124635
1.272795891365712,2.8835365646623816,5.92284118499485,0.329860774044896,4.315686979342567
1.2564053304505292,2.8940349680698527,5.929686317701645,0.32273568859411594,4.323424291553936
1.2400632102182372,2.9042699730691806,5.936165009810704,0.31582844162708157,4.331012580354623
1.2237715181799829,2.914242935842325,5.942279279203141,0.3091424280821491,4.33845258265268
1.2075322418469157,2.923955212571248,5.948031143760064,0.3026810428976774,4.345745035356156
1.1913473687301848,2.9334081594379073,5.953422621362583,0.2964476810120227,4.352890675373105
1.1752188863409374,2.9426031326242663,5.95845572989181,0.2904457373635405,4.359890239611577
1.1591487821903246,2.9515414883122837,5.963132487228851,0.2846786068905893,4.366744464979624
1.1431390437894926,2.9602245826839195,5.967454911254823,0.2791496845315251,4.373454088385298
1.1271916586495925,2.968653771921135,5.97142501985083,0.273862365224705,4.380019846736649
1.1113086142817705,2.9768304122058895,5.9750448308979855,0.26882004390848735,4.3864424769417285
1.0954918981971768,2.9847558597201465,5.978316362277399,0.2640261155212267,4.392722715908588
1.0797434979069593,2.9924314706458595,5.98124163187018,0.25948397500128273,4.398861300545281
1.0640654009222676,2.999858601164996,5.983822657557438,0.25519701728700905,4.404858967759858
1.0484595947542499,3.0070386074595117,5.986061457220285,0.25116863731676453,4.410716454460369
1.0329280669140546,3.0139728457113684,5.987960048739828,0.24740223002890716,4.4164344975548655
1.01747280491283,3.020662672102529,5.989520449997183,0.24390119036179136,4.4220138339514
1.002095796261726,3.0271094428149476,5.990744678873455,0.2406689132537756,4.427455200558023
0.9867990284718906,3.0333145140305913,5.991634753249758,0.2377087936432174,4.432759334282788
0.9715844890544736,3.0392792419314163,5.992192691007197,0.2350242264684721,4.437926972033743
0.9564541655206211,3.0450049826993846,5.992420510026886,0.2326186066678968,4.442958850718943
0.9414100453814844,3.0504930925164553,5.992320228189932,0.2304953291798486,4.447855707246437
0.9264541161482109,3.0557449275645876,5.991893863377452,0.2286577889426864,4.452618278524277
0.9115883653319488,3.0607618440257465,5.991143433470548,0.22710938089476462,4.457247301460516
0.896814780443848,3.065545198081888,5.990070956350336,0.22585349997444037,4.461743512963202
0.8821353489950559,3.0700963459149753,5.988678449897923,0.22489354112007254,4.4661076499403904
0.8675520584967222,3.0744166437069644,5.986967931994419,0.22423289927001644,4.470340449300129
0.8530668964599966,3.0785074476398213,5.984941420520936,0.22387496936262963,4.474442647950472
0.8386818503960249,3.082370113895502,5.982600933358583,0.22382314633626743,4.47841498279947
0.8243989078159584,3.0860059986559687,5.979948488388473,0.22408082512928917,4.482258190755173
0.8102200562309441,3.08941645810318,5.976986103491711,0.22465140068004974,4.485973008725635
0.7961472831521315,3.0926028484190997,5.97371579654941,0.22553826792690845,4.489560173618904
0.7821825760906687,3.0955665257856837,5.970139585442679,0.22674482180822064,4.493020422343035
0.7683279225577055,3.0983088463848953,5.966259488052635,0.22827445726234163,4.496354491806079
0.7545853100643902,3.100831166398694,5.962077522260376,0.23013056922763164,4.499563118916084
0.7409567261218699,3.103134842009042,5.957595705947021,0.23231655264244644,4.502647040581105
0.7274441582412954,3.1052212293978947,5.952816056993677,0.23483580244514224,4.505606993709191
0.7140495939338138,3.1070916847472185,5.947740593281455,0.23769171357407481,4.5084437152083945
0.7007750207105752,3.108747564238969,5.942371332691465,0.24088768096760393,4.511157941986769
0.6876224260827275,3.110190224055108,5.936710293104816,0.24442709956408581,4.513750410952363
0.6745937975614189,3.1114210203775983,5.930759492402619,0.24831336430187623,4.5162218590132275
0.6616911226577988,3.1124413093883954,5.9245209484659895,0.2525498701193314,4.518573023077416
0.6489163888830163,3.1132524472694643,5.917996679176028,0.2571400119548102,4.5208046400529796
0.636271583748218,3.113855790202762,5.911188702413849,0.2620871847466688,4.522917446847971
0.6237586947645553,3.1142526943702515,5.904099036060565,0.2673947834332635,4.524912180370437
0.6113797094431752,3.11444451595389,5.896729697997285,0.27306620295295314,4.526789577528433
0.5991366152952269,3.1144326111356406,5.889082706105117,0.27910483824409305,4.52855037523001
0.5870313998318593,3.1142183360974607,5.881160078265172,0.2855140842450412,4.530195310383217
0.5750660505642209,3.1138030470213116,5.87296383235856,0.29229733589415297,4.531725119896109
0.5632425550034585,3.1131881000891597,5.864495986266391,0.2994579881297845,4.533140540676737
0.5515629006607252,3.112374851482956,5.855758557869782,0.3069994358902983,4.534442309633148
0.5400290750471641,3.1113646573846667,5.846753565049831,0.3149250741140426,4.535631163673398
0.5286430656739296,3.110158873976248,5.837483025687655,0.3232382977393815,4.536707839705536
0.5174068600521671,3.1087588574396654,5.827948957664368,0.33194250170467043,4.537673074637615
0.5063224456930238,3.1071659639568745,5.818153378861071,0.3410410809482647,4.538527605377688
0.4953918101076513,3.105381549709837,5.808098307158879,0.3505374304085196,4.539272168833801
0.4846169408071983,3.103406970880515,5.797785760438903,0.3604349450237976,4.5399075019140085
0.47399982530281193,3.1012435836508674,5.787217756582249,0.37073701973244955,4.540434341526363
0.4635424511056403,3.0988927442028547,5.776396313470036,0.38144704947283703,4.5408534245789145
0.4532468057268342,3.0963558087184375,5.7653234489833665,0.3925684291833136,4.541165487979718
0.4431148766775408,3.0936341333795747,5.754001181003348,0.40410455380224075,4.541371268636819
0.43314865146891046,3.0907290743682263,5.742431527411103,0.4160588182679703,4.541471503458272
0.4233501176120895,3.087641987866356,5.730616506087726,0.428434617518862,4.541466929352128
0.4137212626182283,3.084374230055922,5.718558134914337,0.44123534649327123,4.5413582832264385
0.4042640739984753,3.080927157118883,5.706258431772046,0.4544644001295559,4.541146301989257
0.39498053926397914,3.077302125237204,5.69371941454196,0.4681251733660732,4.540831722548631
0.38587264592588655,3.0735004905928394,5.6809431011051945,0.48222106114117835,4.5404152818126144
0.37694238149535053,3.0695236093677543,5.66793150934285,0.4967554583932321,4.539897716689258
0.36819173348351475,3.0653728377439067,5.654686657136049,0.5117317600605871,4.539279764086613
0.35962268940153264,3.061049531903257,5.641210562365888,0.5271533610816004,4.538562160912733
0.3512372367605492,3.056555048027768,5.627505242913488,0.5430236563946336,4.537745644075667
0.3430373630717152,3.051890742299395,5.613572716659956,0.5593460409380393,4.536830950483465
0.3350250558461769,3.0470579709001027,5.599415001486398,0.5761239096501756,4.5358188170441816
0.32720230259508565,3.042058090011852,5.585034115273928,0.5933606574693986,4.534709980665866
0.3195710908295899,3.036892455816597,5.5704320759036605,0.6110596793340672,4.533505178256573
0.3121334080608369,3.0315624244963035,5.555610901256697,0.6292243701825369,4.532205146724349
0.3048912417999765,3.026069352232932,5.540572609214152,0.6478581249531663,4.530810622977249
0.2978465795581564,3.0204145952084427,5.5253192176571355,0.6669643385843083,4.529322343923326
0.2910014088465256,3.0145995096047913,5.5098527444667615,0.686546406014326,4.527741046470626
0.2843577171762335,3.008625451603944,5.49417520752413,0.7066077221815696,4.526067467527206
0.27791749205842775,3.0024937773878584,5.47828862471036,0.7271516820244006,4.5243023440011125
0.2716827210042574,2.996205843138491,5.462195013906556,0.7481816804811752,4.5224464128004
0.26565539152487183,2.9897630050378106,5.445896392993838,0.7697011124902486,4.520500410833119
0.2598374911314174,2.9831666192677715,5.429394779853303,0.7917133729899808,4.51846507500732
0.2542310073350471,2.9764180420103328,5.412692192366071,0.8142218569187234,4.5163411422310595
0.24883792764690504,2.9695186294474616,5.395790648413246,0.8372299592148389,4.51412934941238
0.24366023957814242,2.962469737761113,5.378692165875944,0.8607410748166826,4.511830433459341
0.2386999306399069,2.955272723133248,5.361398762635269,0.8847585986626099,4.509445131279989
0.23395898834334972,2.9479289417458254,5.3439124565723315,0.9092859256909787,4.506974179782379
0.22943940019961584,2.9404397497808095,5.326235265568247,0.9343264508401443,4.504418315874561
0.2251431537198565,2.9328065034201574,5.308369207504127,0.9598835690484702,4.501778276464585
0.22107223641521756,2.9250305588458345,5.2903163002610745,0.9859606752543044,4.499054798460502
0.21722863579685114,2.9171132722397948,5.272078561720199,1.0125611643960077,4.496248618770366
0.21361433937590402,2.909055999783999,5.253658009762614,1.039688431411939,4.493360474302229
0.21023133466352562,2.900860097660413,5.235056662269439,1.06734587124045,4.490391101964139
0.2070816091708636,2.892526922050994,5.216276537121768,1.0955368788199067,4.4873412386641505
0.2041671504090692,2.884057829137701,5.197319652200719,1.1242648490886555,4.484211621310312
0.20148994588928737,2.8754541751024907,5.178188025387401,1.153533176985059,4.481002986810676
0.19905198312266936,2.866717316127333,5.1588836745629285,1.1833452574474759,4.477716072073295
0.19685524962036283,2.857848608394179,5.139408617608406,1.2137044854142562,4.474351614006224
0.19490173289351453,2.848849408084998,5.119764872404941,1.2446142558237643,4.4709103495175055
0.19319342045327836,2.8397210713817427,5.099954456833651,1.2760779636143518,4.467393015515197
0.19173229981079754,2.8304649544663767,5.079979388775649,1.3080990037243794,4.4638003489073474
0.19052035847722504,2.821082413520858,5.059841686112035,1.3406807710922042,4.460133086602012
0.18955958396370853,2.811574804727154,5.039543366723922,1.373826660656178,4.456391965507239
0.18885196378139302,2.8019434842672157,5.019086448492422,1.4075400673546614,4.45257772253108
0.1883994854414297,2.7921898083230063,4.99847294929865,1.4418243861260098,4.448691094581585
0.18820413645497158,2.78231513307649,4.977704887023707,1.4766830119085839,4.444732818566809
0.18826790433316098,2.7723208147096257,4.956784279548703,1.512119339640737,4.440703631394802
0.18859277658715,2.7622082094043714,4.935713144754759,1.5481367642608284,4.436604269973618
0.18918074072808277,2.751978673342685,4.9144935005229735,1.5847386807072112,4.432435471211301
0.19003378426711404,2.741633562706533,4.893127364734472,1.6219284839182464,4.428197972015909
0.19115389471539146,2.7311742336778737,4.8716167552703435,1.659709568832291,4.42389250929549
0.19254305958405915,2.7206020424386645,4.8499636900117125,1.6980853303876966,4.419519819958097
0.1942032663842692,2.709918345170874,4.828170186839688,1.7370591635228259,4.415080640911782
0.19613650262717108,2.699124498056449,4.8062382636353735,1.7766344631760358,4.410575709064595
0.19834475582391065,2.6882218572773597,4.784169938279887,1.8168146242856764,4.4060057613245895
0.20083001348564,2.677211779015562,4.761967228654333,1.8576030417901102,4.4013715345998135
0.20359426312350593,2.6660956194530225,4.739632152639825,1.8990031106276941,4.396673765798321
0.20663949224865608,2.6548747347716963,4.717166728117474,1.9410182257367854,4.391913191828166
0.20996768837224078,2.643550481153545,4.694572972968389,1.9836517820557376,4.387090549597394
0.21358083900540947,2.632124214780526,4.671852905073676,2.0269071745229112,4.382206576014059
0.21748093165930715,2.620597291834602,4.649008542314453,2.0707877980766636,4.377262007986213
0.22166995384508503,2.608971068497734,4.626041902571819,2.1152970476553463,4.372257582421907
0.22614989307389433,2.5972469009518866,4.602955003726891,2.1604383181973237,4.367194036229193
0.23092273685687914,2.5854261453790093,4.579749863660783,2.206215004640944,4.3620721063161225
0.2359904727051898,2.573510157961074,4.556428500254598,2.2526305019245747,4.356892529590747
0.24135508812997752,2.5615002948800294,4.532992931389456,2.2996882049865626,4.351656042961113
0.24701857064238553,2.549397912317848,4.509445174946459,2.34739150876527,4.34636338333528
0.2529829077535659,2.537204366456481,4.485787248806713,2.3957438081990556,4.341015287621296
0.2592500869746699,2.524921013477889,4.462021170851332,2.4447484982262697,4.3356124927272095
0.2658220958168416,2.512549209564037,4.438148958961439,2.4944089737852764,4.330155735561078
0.27246643157854944,2.5000903108968826,4.4141726310181255,2.5447286298144256,4.3246457530309454
0.2789514573427123,2.487545673658393,4.390094204902507,2.5957108612520816,4.319083282044867
0.28527837959613844,2.4749166540305154,4.3659156984957015,2.647359063036596,4.313469059510898
0.29144840482562273,2.4622046081952176,4.341639129678811,2.6996766301063264,4.3078038223370845
0.29746273951796454,2.4494108923344635,4.31726651633295,2.7517091261862845,4.302088307431479
0.30332259015996055,2.436536862630213,4.292799876339229,2.802766561695865,4.296323251702134
0.3090291632384172,2.423583875264412,4.268241227578752,2.8528559073479585,4.290509392057102
0.3145836652401277,2.410553286419038,4.2435925879326355,2.901984133855528,4.28464746540443
0.3199873026518931,2.3974464522760437,4.2188559752819845,2.9501582119314023,4.278738208652175
0.3252412819605084,2.3842647290173904,4.194033407507913,2.9973851122885193,4.2727823587083815
0.33034680965278085,2.3710094728250404,4.169126902491527,3.043671805639786,4.26678065248111
0.3353050922155001,2.3576820398809524,4.144138478113954,3.089025262698126,4.260733826878405
0.340117336135477,2.3442837863670825,4.119070152256278,3.133452454176421,4.254642618808321
0.3447847478995003,2.3308160684653947,4.093923942799622,3.1769603507875495,4.248507765178907
0.3493085339943631,2.317280242357856,4.068701867625094,3.2195559232444957,4.242330002898214
0.3536899009068897,2.3036776642264183,4.043405944613815,3.261246142260063,4.236110068874299
0.35793005512385356,2.290009690253041,4.018038191646873,3.302037978547226,4.229848700015208
0.3620302031320639,2.2762776766196904,3.992600626605398,3.341938402818876,4.223546633228996
0.3659915514183165,2.26248297950832,3.9670952673704942,3.380954385787909,4.21720460542371
0.3698153064694205,2.248626955100896,3.941524131823268,3.419092898167257,4.210823353507404
0.37350267477216725,2.2347109595793793,3.9158892378448353,3.456360910669801,4.204403614388132
0.37705486281335343,2.220736349125729,3.8901926033162955,3.492765394008444,4.1979461249739405
0.3804730770797802,2.2067044799219007,3.8644362461187747,3.5283133188960605,4.191451622172885
0.3837585240582495,2.1926167081498535,3.838622184133376,3.5630116560456244,4.184920842893014
0.386912410235559,2.1784743899915604,3.812752435241201,3.596867376169989,4.17835452404238
0.38993594209850535,2.1642788816289755,3.7868290173233667,3.6298874499820855,4.171753402529034
0.392830326133895,2.150031539244047,3.7608539482609853,3.6620788481947955,4.165118215261028
0.3955967688285176,2.1357337190187513,3.734829245935174,3.6934485415210645,4.158449699146416
0.3982364766691733,2.1213867771350445,3.708756928227025,3.7240035006737386,4.151748591093245
0.4007506561426677,2.1069920697748827,3.682639013017658,3.7537506963657563,4.145015628009566
0.40314051373579574,2.0925509531202335,3.6564775181881846,3.7826970993100417,4.138251546803436
0.4054072559353594,2.0780647833530432,3.630274461619715,3.8108496802194836,4.131457084382902
0.4075520892281581,2.0635349166552874,3.6040318611933646,3.838215409806942,4.124632977656018
0.4095762201009805,2.048962709208922,3.5777517347902226,3.8648012587853913,4.117779963530829
0.4114808550406419,2.0343495171959027,3.551436100291424,3.8906141978676914,4.110898778915395
0.41326720053393107,2.019696696798195,3.525086975578059,3.915661197766802,4.103990160717761
0.4149364630676402,2.0050056041977555,3.498706378531253,3.9399492291955482,4.097054845845984
0.4164898491285891,1.9902775955765453,3.472296327032117,3.9634852628668753,4.090093571208115
0.4179285652035576,1.9755140271165308,3.4458588389617386,3.9862762694937146,4.083107073712198
0.4192538177793592,1.960716254999662,3.4193959322012493,4.008329219788905,4.076096090266293
0.42046681334277913,1.9458856354079064,3.3929096246317574,4.029651084465456,4.069061357778445
0.4215687583806238,1.931023524523221,3.366401934134368,4.050248834236143,4.062003613156707
0.4225608593796988,1.9161312785275673,3.3398748785901873,4.070129439813961,4.054923593309138
0.4234443228267839,1.9012102536029118,3.31333047588034,4.089299871911784,4.047822035143779
0.42422035520870427,1.8862618059311984,3.2867707438859277,4.107767101242551,4.040699675568686
0.424890163012245,1.8712872916944008,3.2601977004880496,4.125538098519101,4.033557251491909
0.4254549527241984,1.8562880670744804,3.233613363567825,4.142619834454408,4.026395499821501
0.4259159308313718,1.8412654882533914,3.207019751006376,4.159019279761303,4.019215157465517
0.4262743038205574,1.8262209114130972,3.180418880684803,4.174743405152768,4.012016961332001
0.4265312781785715,1.8111556927355554,3.1538127704841994,4.189799181341634,4.004801648329005
0.426688060392193,1.796071188402724,3.127203438285708,4.204193579040876,3.9975699553645843
0.4267458569482372,1.7809687545965733,3.100592901970412,4.21793356896336,3.9903226193467924
0.4267058743334964,1.7658497474990558,3.0739831794194323,4.231026121821991,3.9830603771836746
0.42656931903476547,1.7507155232921345,3.047376288513881,4.243478208329719,3.975783965783288
0.42633739753885,1.7355674381577675,3.0207742471348684,4.255296799199364,3.968494122053678
0.42601131633253875,1.720406848277916,2.9941790731634903,4.266488865143884,3.9611915829028996
0.425592281902647,1.705235109834538,2.9675927844808854,4.277061376876205,3.9538770852390046
0.4250815007359616,1.6900535790095983,2.941017398968137,4.287021305109164,3.946551365970044
0.42448017931928206,1.6748636119850637,2.9144549345063595,4.296375620555736,3.9392151620040696
0.4237895241394174,1.659666564942878,2.8879074089766696,4.305131293928795,3.9318692102491326
0.4230107416831608,1.6444637940650093,2.861376840260185,4.313295295941238,3.924514247613282
0.4221450384372982,1.629256655533423,2.8348652462380066,4.320874597305959,3.917151011004573
0.42119362088865664,1.6140465055300712,2.808374644791243,4.327876168735926,3.909780237331054
0.4201576955240043,1.5988347002369228,2.7819070538010084,4.334306980943978,3.9024026635007765
0.4190384688301716,1.5836225958359265,2.7554644911484143,4.34017400464306,3.895019026421795
0.4178371472939233,1.568411548509049,2.7290489747145585,4.345484210546033,3.8876300630021596
0.41655493740208804,1.5532029144382573,2.7026625223805656,4.350244569365849,3.8802365101499197
0.41519304564145365,1.537998049805502,2.676307152027544,4.354462051815368,3.872839104773127
0.4137526784988186,1.522798310792746,2.6499848815365965,4.3581436286075075,3.8654385837798344
0.4122350424609884,1.5076050535819494,2.6236977287888354,4.361296270455249,3.8580356840780947
0.41064134401474206,1.4924196343550786,2.59744771166538,4.363926948071395,3.850631142575957
0.40897278964691,1.4772434092940792,2.5712368480473238,4.3660426321688846,3.8432256961814764
0.4072305858442604,1.462077734580932,2.54506715581579,4.3676502934606205,3.835820081802696
0.4054159390936096,1.4469239663975788,2.5189406528518816,4.368756902659513,3.828415036347674
0.40353005588175606,1.4317834609259936,2.492859357036723,4.369369430478493,3.8210112967244605
0.4015741426954911,1.4166575743481253,2.466825286251405,4.369494847630413,3.8136095998411106
0.3995494060216327,1.4015476628459478,2.4408404583770498,4.369140124828213,3.806210682605667
0.3974570523469545,1.3864550826014028,2.414906891294759,4.3683122327848025,3.7988152819261893
0.39529828815826384,1.3713811897964678,2.3890266028856466,4.367018142213034,3.791424134710722
0.39307431994237163,1.35632734061309,2.3632016110308314,4.3652648238259175,3.784037977867321
0.39078635418606744,1.3412948912332396,2.337433933611411,4.363059248336242,3.7766575483040414
0.3884355973761515,1.3262851978388817,2.311725588508505,4.3604083864569745,3.7692835829289244
0.38602325599942233,1.3112996166119597,2.2860785936032286,4.357319208900996,3.76191681865003
0.383550536542673,1.296339503734444,2.2604949667766725,4.353798686381225,3.754557992375407
0.3810186454927251,1.281406215388289,2.2349767259099558,4.349853789610584,3.747207841013104
0.3784287893363363,1.2665011077554613,2.209525888884194,4.345491489301956,3.7398671014711757
0.37578217456034935,1.2516255370179223,2.184144473580485,4.340718756168222,3.732536510657675
0.37308000765154503,1.2367808593576282,2.158834497879951,4.335542560922363,3.72521680548065
0.37032349509671647,1.221968430956542,2.133597979663705,4.329969874277175,3.7179087228481533
0.36751384338267634,1.207189607996618,2.108436936812847,4.324007666945647,3.7106129996682347
0.36465225899621245,1.1924457466598284,2.083353387208483,4.317662909640653,3.70333037284895
0.3617399484241304,1.1777382031281238,2.058349348731742,4.310942573075145,3.6960615792983447
0.35877811815321436,1.1630683335834657,2.033426839263715,4.303853627961935,3.688807355924478
0.3557679746702931,1.1484374942078102,2.0085878766855245,4.29640304501401,3.6815684396353907
0.3527107244621437,1.1338470411831292,1.9838344788782791,4.2885977949442236,3.6743455673391443
0.34960757401556464,1.1192983306913735,1.95916866372308,4.2804448484655495,3.6671394759437863
0.34645972981736683,1.1047927189145117,1.9345924491010464,4.27195117629077,3.659950902357367
0.34326839835432743,1.0903315620344962,1.9101078528932867,4.263123749132916,3.6527805834879388
0.34003478611327864,1.075916216233292,1.8857168929809056,4.253969537704819,3.6456292562435513
0.33676009958099407,1.0615480376928588,1.8614215872450224,4.244495512719411,3.6384976575322616
0.33344554524428105,1.0472283825951472,1.8372239535667383,4.234708644889608,3.63138652426211
0.33009232958993806,1.0329586071221382,1.8131260098271724,4.224615904928285,3.6242965933411657
0.32670165910477067,1.0187400674557736,1.789129773907419,4.214224263548331,3.6172286016774606
0.32327474027556313,1.004574119778015,1.7652372636886042,4.203540691462763,3.61018328617906
0.3198127795891246,0.9904621202708359,1.7414504970518472,4.192572159384312,3.6031613837540073
0.31631698353225346,0.9764054251161891,1.7177714918782314,4.181325638026024,3.59616363131036
0.3127885585917536,0.962405390496027,1.694202266048876,4.169808098100745,3.5891907657561664
0.309228711254411,0.9484633725923235,1.6707448374449108,4.158026510321378,3.582243523999481
0.3056386480070312,0.9345807275870346,1.6474012239474156,4.145987845400839,3.575322642948346
0.3020195753364163,0.9207588116621199,1.6241734434375203,4.133699074052075,3.5684288595108224
0.29837269972936653,0.906998980999532,1.601063513796337,4.121167166987874,3.561562910594956
0.294699227672675,0.8933025917812376,1.5780734529049596,4.108399094921296,3.554725533108802
0.2910003656531437,0.8796710001891999,1.555205278644511,4.095401828565102,3.547917463960414
0.28727732015758,0.8661055624053784,1.5324610088960888,4.082182338632279,3.5411394400578367
0.2835312976727611,0.8526076346117364,1.509842661540823,4.068747595835731,3.5343921983091224
0.2797635046855138,0.8391785729902121,1.487352254459804,4.055104570888332,3.527676475622326
0.27597514768261355,0.8258197337227884,1.464991805534158,4.041260234503014,3.5209930089054957
0.2721674331508641,0.81253247299143,1.4427633326449794,4.027221557392622,3.514342535066687
0.2683415675770817,0.7993181469780843,1.4206688536734013,4.012995510270159,3.5077257910139537
0.26449875744805595,0.7861781118647198,1.3987103865005217,3.998589063848428,3.501143513655343
0.2606402092505693,0.7731137238332835,1.376889949007424,3.9840091888404885,3.4945964398989044
0.25676712947144864,0.7601263390657511,1.3552095590752593,3.969262855959016,3.4880853066526836
0.252880724597464,0.7472173137440645,1.333671234585129,3.9543570359171127,3.481610850824749
0.248982201115437,0.7343880040502047,1.3122769934181164,3.9392986994275816,3.4751738093231364
0.24507276551216606,0.7216397661661187,1.2910288534553622,3.9240948172033683,3.4687749190559067
0.2411536242744301,0.7089739562737716,1.2699288325779712,3.9087523599573615,3.462414916931108
0.2372259838890507,0.6963919305551265,1.2489789486670304,3.8932782984024357,3.456094539856787
0.23329105084280854,0.6838950451921324,1.228181219603691,3.877679603251579,3.449814524741006
0.22935003162252343,0.6714846563667685,1.2075376632690293,3.8619632452177086,3.443575608491809
0.2254041327149796,0.6591621202609801,1.1870502975441504,3.8461361950135142,3.437378528017252
0.22145456060698798,0.6469287930567305,1.1667211403102051,3.8302054233521687,3.431224020225377
0.2175025217853257,0.6347860309359774,1.1465522094482559,3.8141779009463903,3.4251128220242446
0.21354922273681076,0.6227351900806894,1.1265455228394323,3.7980605985092524,3.4190456703219
0.20959586994823987,0.6107776266728209,1.1067030983648678,3.7818604867535015,3.4130233020263976
0.20564366990640082,0.5989146968943295,1.0870269539056387,3.765584536392126,3.4070464540457888
0.2016938290981063,0.5871477569271804,1.067519107342882,3.749239718137929,3.401115863288126
0.19774755401016186,0.5754781629533348,1.0481815765576918,3.7328330027040124,3.395232266661461
0.19380605112933047,0.5639072711547506,1.029016379431166,3.7163713608030378,3.389396401073844
0.1898705269424532,0.5524364377134034,1.0100255338444377,3.699861763148178,3.38360900343333
0.1859421879363108,0.5410670188112192,0.9912110576786155,3.6833111804521366,3.3778708106479645
0.18202224059770344,0.5298003706301841,0.9725749688147936,3.6667265834279164,3.3721825596258004
0.17811189141342787,0.5186378493522561,0.9541192851340874,3.6501149427883064,3.366544987274894
0.17421234687028075,0.5075808111593858,0.9358460245176126,3.63348322924638,3.360958830503286
0.1703248134550659,0.4966306122335453,0.9177572048464953,3.6168384135148273,3.3554248262190374
0.16645049765458708,0.48578860875668894,0.8998548440018261,3.600187466306835,3.3499437113301926
0.1625906059556428,0.4750561569107674,0.882140959864703,3.5835373583350076,3.3445162227448098
0.15874634484502081,0.46443461287774923,0.8646175703162591,3.566895060312504,3.3391430973709433
0.15491892080953207,0.4539253328396171,0.8472866932375887,3.5502675429520423,3.3338250721166354
0.15110954033596613,0.44352967297829693,0.8301503465098072,3.533661776966653,3.3285628838899424
0.1473194099111268,0.43324898947576074,0.8132105480140339,3.5170847330691686,3.3233572695989135
0.14354973602182142,0.42308463851396994,0.7964693156313771,3.500543381972534,3.3182089661516034
0.13980172515483957,0.413037976274893,0.7799286672429311,3.484044694389638,3.313118710456056
0.13607658379697085,0.4031103589404772,0.7635906207298255,3.467595641033384,3.308087239420331
0.13237551843504392,0.3933031426926945,0.7474571939731582,3.4512031926166458,3.3031152899524745
0.12869973555582348,0.38361768371349214,0.7315304048540519,3.4348743198524545,3.298203598960546
0.1250504416461382,0.37405533818484216,0.7158122712535864,3.4186159934534857,3.293352903352588
0.12142884319274927,0.3646174622886953,0.7003048110529129,3.4024351841328837,3.288563940036653
0.11783614668250308,0.3553054122070236,0.6850100421331042,3.386338862603367,3.2838374459207955
0.11427355860216437,0.3461205441217743,0.6699299823753044,3.37033399957798,3.2791741579130704
0.11074228543855114,0.3370642142149194,0.655066649660597,3.354427565769541,3.2745748129215233
0.10724353367844941,0.3281377786684132,0.6404220618701046,3.33862653189108,3.2700401478542034
0.10377850980866299,0.3193425936642065,0.6259982368849393,3.3229378686552735,3.265570899619169
0.10034842031598856,0.3106800153842819,0.61179719258622,3.3073685467751943,3.261167805124469
0.09695447168724058,0.30215140001059027,0.5978209468550197,3.291925536963703,3.2568316012781455
0.09359787040919443,0.29375810372507516,0.5840715175724789,3.2766158099338156,3.2525630249882695
0.09027982296865389,0.28550148270971576,0.5705509226197094,3.261446336398251,3.248362813162876
0.08700153585244053,0.27738289314647346,0.5572611798778091,3.2464240870699967,3.244231702710019
0.08376421554733682,0.2694036912173061,0.5442043072278935,3.2315560326619703,3.240170430537759
0.0805690685401288,0.26156523310415736,0.5313823225510852,3.2168491438870745,3.23617973355414
0.07741730131763802,0.25386887498900634,0.5187972437284607,3.2023103914581696,3.232260348667216
0.07431012036666829,0.24631597305381092,0.5064510886411568,3.1879467460881727,3.2284130127850332
0.07124873217398431,0.23890788348052894,0.49434587517028916,3.173765178490086,3.2246384628156495
0.0682343432264183,0.2316459624511218,0.4824836211969412,3.159772659376742,3.2209374356671088
0.06526816001074565,0.22453156614753667,0.47086634460223564,3.145976159460929,3.2173106682474693
0.062351389013795,0.21756605075175273,0.4594960632672951,3.1323826494558205,3.2137588974647837
0.05948523672233108,0.21075077244572427,0.4483747950732351,3.1189991000740207,3.2102828602271014
0.05667090962318966,0.20408708741141268,0.4375045579011214,3.1058324820287595,3.2068832934424663
0.05390961420312834,0.19757635183076516,0.42688736963211227,3.092889766032613,3.2035609340189435
0.05120255694897935,0.19121992188576797,0.41652524814728054,3.080177922798754,3.2003165188645717
0.048550944347518055,0.18501915375835765,0.4064202113277773,3.067703923039872,3.1971507848874143
0.045955982885576674,0.17897540363050268,0.3965742770546825,3.0554747374689697,3.1940644689955118
0.043418879049923476,0.17309002768416093,0.38698946320911176,3.0434973367989784,3.1910583080969186
0.0409408393273516,0.16736438210129734,0.37766778767218057,3.0317786917428293,3.1881330390996894
0.0385230702046897,0.16179982306386975,0.36861126832499735,3.0203257730132975,3.1852893989118733
0.03616677816873448,0.15639770675384312,0.35982192304866345,3.0091455513234564,3.1825281244415233
0.0338731697062542,0.15115938935317175,0.3513017697243015,2.9982449973859957,3.179849952596687
0.03164345130406687,0.14608622704382768,0.3430528262330057,2.9876310819140315,3.1772556202854236
0.029478829448986943,0.1411795760077439,0.3350771104558987,2.977310775620367,3.1747458644157724
0.027380510627786236,0.13644079242691376,0.3273766402741032,2.96729104921792,3.172321421895795
0.02534970132728276,0.13187123248327381,0.3199534335687062,2.95757887341955,3.1699830296335474
0.02338760803426254,0.127472252358789,0.31280950822083753,2.9481812189382737,3.167731424537065
0.021495437235540038,0.12324520823543139,0.3059468821115843,2.939105056486838,3.165567343514411
0.01967439541790128,0.11919145629514816,0.2993675731220762,2.9303573567783445,3.1634915234736294
0.01792568906815717,0.11531235271991491,0.29307359913340747,2.9219450905255258,3.1615047013227766
0.016250524673090183,0.11160925369167529,0.287066978026715,2.913875228441441,3.159607613969907
0.01465010871949346,0.1080835153923978,0.28134972768306454,2.9061547412388506,3.157800998323065
0.013125647694202769,0.10473649400403318,0.2759238659836143,2.8987905996307006,3.156085591290303
0.011678348084004142,0.10156954570856058,0.27079141080944424,2.8917897743299363,3.154462129779679
0.010309416375672953,0.09858402668791655,0.26595438004169125,2.885159236049475,3.152931350699239
0.00902005905601655,0.09578129312408024,0.261414791561414,2.878905955502063,3.151493990957036
0.007811482611838727,0.09316270119900949,0.257174663249792,2.8730369034008447,3.1501507874611185
0.00668489352996815,0.09072960709466216,0.2532360129878697,2.8675590504585955,3.1489024771195417
0.005641498297155323,0.08848336699299963,0.24960085865681236,2.862479367388289,3.147749796840353
0.004682503400214699,0.08642533707597266,0.24627121813769293,2.8578048249026153,3.1466934835316067
0.0038091153259713906,0.08455687352554975,0.2432491093116269,2.853542393714804,3.1457342741013576
0.0030225405611865597,0.08287933252368873,0.24053655005972985,2.849699044537516,3.144872905457653
0.0023239855926817654,0.08139407025235101,0.23813555826312438,2.8462817480837543,3.1441101145085426
0.0017146569072536977,0.08010244289350865,0.23604815180291183,2.843297475066322,3.1434466381620805
0.001195760991702599,0.07900580662910528,0.23427634856019353,2.840753196198335,3.1428832133263196
0.0007685043328180541,0.07810551764109519,0.2328221664160921,2.8386558821924552,3.142420576909304
0.00043409341741806884,0.07740293211146465,0.23168762325170178,2.8370125037617697,3.1420594658190986
0.00019373473226735882,0.0768994062221644,0.2308747369481381,2.8358300316190537,3.141800616963737
4.863476420169377e-05,0.07659629615514163,0.23038552538652368,2.835115436477423,3.1416447672512824
0.0,0.07649495809236129,0.23022200644796698,2.8348756890495395,3.1415926535897896
