oscarkremer/mentor-optimization/notebooks/traject_2/adaptive/angles_3.csv
theta1,theta2,theta3,theta4,theta5
3.7295952571373574,-0.7943678438589166,1.973043134264813,1.9629173631838936,3.2059965904706873
3.729516734929796,-0.7943951629507627,1.97274350128315,1.9628981218870953,3.2059264987824414
3.7292824327240424,-0.7944769119283214,1.9718571432678274,1.96284058120082,3.205716854178419
3.728894247145492,-0.7946127783446226,1.970402871613346,1.9627450159312476,3.2053686023496915
3.728354074819541,-0.7948024497526969,1.9683994977142056,1.9626117008845572,3.204882688987331
3.727663812371585,-0.7950456137055741,1.9658658329649072,1.9624409108669287,3.2042600597824102
3.7268253564270193,-0.7953419577562849,1.9628206887599502,1.962232920684542,3.2035016604260007
3.725840603611241,-0.7956911694578591,1.9592828764938355,1.9619880051435763,3.2026084366091743
3.7247114505496444,-0.7960929363633272,1.955271207561063,1.961706439050211,3.201581334023004
3.7234397938676254,-0.7965469460257192,1.9508044933561333,1.9613884972106266,3.2004212983585605
3.722027530190581,-0.7970528859980656,1.9459015452735464,1.9610344544310019,3.1991292753069165
3.7204765561439057,-0.7976104438333962,1.940581174707803,1.9606445855175172,3.1977062105591445
3.718788768352996,-0.7982193070847418,1.934862193053403,1.9602191652763514,3.196153049806316
3.7169660634432473,-0.798879163305132,1.9287634117048464,1.9597584685136846,3.194470738739503
3.715010338040056,-0.7995897000475974,1.9223036420566342,1.9592627700356964,3.192660223049778
3.7129234887688165,-0.8003506048651681,1.9155016955032662,1.9587323446485658,3.190722448428213
3.7107074122549255,-0.8011615653108745,1.9083763834392429,1.9581674671584735,3.1886583605658796
3.708364005123779,-0.8020222689377465,1.9009465172590645,1.9575684123715982,3.1864689051538497
3.705895164000773,-0.8029324032988147,1.8932309083572314,1.9569354550941198,3.1841550278831963
3.703302785511302,-0.803891655947109,1.8852483681282435,1.9562688701322182,3.18171767444499
3.700588766280762,-0.8048997144356597,1.8770177079666015,1.9555689322920726,3.179157790530305
3.6977550029345503,-0.8059562663174972,1.8685577392668056,1.9548359163798628,3.1764763218302114
3.694803392098061,-0.8070609991456515,1.8598872734233558,1.9540700972017686,3.1736742140357816
3.6917358303966905,-0.8082136004731529,1.8510251218307527,1.9532717495639693,3.1707524128380884
3.688554214455835,-0.8094137578530316,1.8419900958834965,1.9524411482726447,3.1677118639282034
3.685260440900889,-0.8106611588383179,1.8328010069760876,1.9515785681339743,3.1645535129971987
3.68185640635725,-0.811955490982042,1.823476666503026,1.9506842839541378,3.161278305736146
3.6783440074503124,-0.813296441837234,1.8140358858588121,1.949758570539315,3.1578871878361183
3.674725140805472,-0.8146836989569243,1.8044974764379462,1.948801702695685,3.154381104988187
3.6710017030481255,-0.816116949894143,1.7948802496349283,1.947813955229428,3.1507610028834234
3.667175590803668,-0.8175958822019204,1.7852030168442594,1.9467956029467235,3.1470278272129013
3.6632487006974954,-0.8191201834332865,1.7754845894604392,1.9457469206537508,3.1431825236676914
3.659222929355004,-0.8206895411412719,1.7657437788779682,1.9446681831566894,3.1392260379388657
3.655100173401588,-0.8223036428789064,1.7559993964913463,1.9435596652617195,3.1351593157174973
3.6508823294626453,-0.8239621761992207,1.7462702536950743,1.9424216417750204,3.130983302694657
3.6465712941635697,-0.8256648286552446,1.7365751618836525,1.941254387502772,3.126698944561418
3.642168964129758,-0.8274112878000086,1.7269329324515805,1.9400581772511534,3.1223071870088517
3.6376772359866063,-0.8292012411865426,1.7173623767933592,1.9388332858263444,3.1178089757280305
3.6330980063595093,-0.8310343763678772,1.707882306303489,1.9375799880345248,3.113205256410026
3.628433171873864,-0.8329103808970424,1.6985115323764695,1.9362985586818742,3.108496974745911
3.623684629155065,-0.8348289423270685,1.6892688664068016,1.934989272574572,3.103685076426756
3.6188542748285086,-0.8367897482109856,1.680173119788985,1.9336524045187984,3.098770507143635
3.6139440055195906,-0.838792486101824,1.6712431039175208,1.9322882293207322,3.0937542125876183
3.6089557178537066,-0.8408368435526139,1.6624976301869088,1.9308970217865533,3.0886371384497795
3.6038913084562525,-0.8429225081163857,1.6539555099916492,1.9294790567224416,3.0834202304211895
3.5987526739526245,-0.8450491673461694,1.645635554726242,1.9280346089345763,3.078104434192921
3.5935417109682173,-0.8472165087949953,1.6375565757851884,1.9265639532291376,3.072690695456046
3.5882603161284274,-0.8494242200158936,1.6297373845629881,1.9250673644123046,3.067179959901636
3.5829103860586504,-0.8516719885618945,1.622196792454141,1.9235451172902571,3.061573173220763
3.5774938173842825,-0.8539595019860283,1.6149536108531481,1.9219974866691747,3.0558712811045003
3.572012506730719,-0.8562864478413251,1.6080266511545092,1.920424747355237,3.050075229243919
3.566468350723355,-0.8586525136808153,1.6014347247527252,1.9188271741546237,3.044185963330091
3.5608632459875875,-0.861057387057529,1.5951966430422955,1.9172050418735143,3.0382044290540886
3.5551990891488123,-0.8635007555244963,1.589331217417721,1.9155586253180883,3.032131572106984
3.549477776832424,-0.8659823066347478,1.583857259273502,1.9138881992945258,3.0259683381798492
3.543701205663819,-0.8685017279413134,1.5787935800041386,1.912194038609006,3.019715672963756
3.5378712722683936,-0.8710587069972233,1.5741589910041305,1.9104764180677085,3.0133745221497765
3.531989873271543,-0.8736529313555079,1.5699723036679791,1.9087356124768133,3.0069458314289834
3.526058905298662,-0.8762840885691974,1.566252329390184,1.9069718966424996,3.0004305464924483
3.520080264975148,-0.8789518661913218,1.5630178795652456,1.9051855453709472,2.9938296130312425
3.514055848926396,-0.8816559517749116,1.5602877655876641,1.9033768334683356,2.9871439767364394
3.5079875537778027,-0.884396032872997,1.5580807988519403,1.9015460357408447,2.9803745832991098
3.501877276154762,-0.8871717970386079,1.5564157907525737,1.899693426994654,2.9735223784103266
3.4957269126826715,-0.889982931824775,1.5553115526840653,1.897819282035943,2.9665883077611612
3.4895383599869256,-0.8928291247845281,1.5547868960409146,1.8959238756708914,2.9595733170426866
3.4833135146929215,-0.8957100634708975,1.5548606322176224,1.8940074827056788,2.952478351945974
3.4770542734260528,-0.8986254354369138,1.5555515726086893,1.8920703779464847,2.9453043581620957
3.4707625328117175,-0.9015749282356067,1.5568785286086146,1.8901128361994888,2.9380522813821237
3.4644401894753107,-0.9045582294200067,1.5588603116118993,1.8881351322708708,2.93072306729713
3.4580891400422273,-0.9075750265431441,1.5615157330130438,1.8861375409668102,2.9233176615981877
3.4517112811378645,-0.910625007158049,1.564863604206548,1.8841203370934867,2.915837009976367
3.4453085093876163,-0.9137078588177515,1.568922736586912,1.88208379545708,2.908282058122741
3.43888272141688,-0.9168232690752819,1.5737119415486367,1.8800281908637695,2.900653751728382
3.432435813851051,-0.9199709254836707,1.579250030486222,1.877953798119735,2.892953036484361
3.425969683315524,-0.9231505155959476,1.5855558147941682,1.8758608920311561,2.8851808580817515
3.419486226435696,-0.9263617269651433,1.5926481058669755,1.8737497474042122,2.8773381622116245
3.412987339836963,-0.9296042471442877,1.600545715099145,1.8716206390450831,2.8694258945650524
3.4064749201447198,-0.9328777636864112,1.6092674538851754,1.8694738417599486,2.861445000833107
3.3999508639843623,-0.9361819641445439,1.6188321336195681,1.867309630354988,2.8533964267068606
3.3934170679812867,-0.9395165360717161,1.6292585656968235,1.865128279636381,2.845281117877385
3.3868754287608884,-0.9428811670209581,1.6405655615114412,1.8629300644103073,2.8371000200357526
3.3803278429485637,-0.9462755445453002,1.6527719324579222,1.8607152594829468,2.828854078873035
3.3737762071697075,-0.9496993561977721,1.6658964899307658,1.8584841396604783,2.820544240080305
3.367222418049716,-0.9531522895314045,1.6799580453244733,1.856236979749082,2.812171449348633
3.3606683722139854,-0.9566340320992276,1.6949754100335443,1.8539740545549377,2.8037366523690936
3.354115966287911,-0.9601442714542714,1.71096739545248,1.8516956388842245,2.795240794832757
3.3475670968968894,-0.9636826951495663,1.7279528129757793,1.8494020075431226,2.786684822430696
3.3410236606663144,-0.9672489907381423,1.7459504739979435,1.847093435337811,2.778069680853982
3.3344875542215835,-0.9708428457730298,1.7649791899134721,1.8447701970744697,2.769396315793687
3.327960674188092,-0.9744639478072593,1.7844104459193182,1.842432567559278,2.7606656729408843
3.3214449171912355,-0.9781119843938606,1.803638292604156,1.8400808215984161,2.751878697986645
3.31494217985641,-0.9817866430858637,1.822663492233274,1.8377152339980631,2.743036336622041
3.3084543588090116,-0.9854876114362995,1.8414868070719572,1.8353360795643987,2.7341395345381447
3.3019833506744347,-0.9892145769981978,1.8601089993854911,1.8329436331036026,2.7251892374260276
3.2955310520780765,-0.9929672273245889,1.8785308314391647,1.8305381694218545,2.716186390976763
3.2890993596453324,-0.9967452499685032,1.8967530654982607,1.828119963325334,2.707131940881422
3.282690170001598,-1.0005483324829705,1.9147764638280682,1.8256892896202204,2.6980268328310766
3.2763053797722685,-1.0043761624210215,1.9326017886938727,1.823246423112694,2.688872012516799
3.2699468855827414,-1.0082284273356859,1.950229802360959,1.8207916386089336,2.6796684256296617
3.2636165840584104,-1.0121048147799943,1.9676612670946156,1.8183252109151191,2.6704170178607356
3.2573163718246723,-1.0160050123069768,1.984896945160127,1.8158474148374306,2.6611187349010947
3.2510481455069233,-1.019928707469664,2.001937598822781,1.8133585251820472,2.6517745224418086
3.244813801730558,-1.0238755878210855,2.0187839903478633,1.8108588167551485,2.642385326173952
3.238615237120973,-1.0278453409142718,2.03543688200066,1.8083485643629145,2.632952091788594
3.232454348303564,-1.0318376543022532,2.051897036046457,1.8058280428115243,2.6234757649768095
3.2263330319037262,-1.0358522155380596,2.0681652147505414,1.803297526907158,2.6139572914296685
3.2202531845468565,-1.0398887121747216,2.0842421803781987,1.800757291455995,2.604397616838244
3.2142167028583493,-1.0439468317652694,2.100128695194716,1.7982076112642151,2.594797686893608
3.2082254834636013,-1.048026261862733,2.1158255214653785,1.7956487611379977,2.5851584472868328
3.202281422988008,-1.0521266900201427,2.1313334214554738,1.7930810158835224,2.5754808437089896
3.196386418056965,-1.0562478037905285,2.1466531574302867,1.790504650306969,2.56576582185115
3.1905423652958684,-1.0603892907269215,2.161785491655105,1.7879199392145169,2.5560143274043883
3.1847511613301136,-1.0645508383823508,2.176731186395214,1.7853271574123457,2.546227306059775
3.1790147027850963,-1.068732134309847,2.1914910039159015,1.7827265797066354,2.536405703508382
3.1733348862862134,-1.0729328660624409,2.20606570648245,1.7801184809035655,2.5265504654412823
3.1677136084588593,-1.077152721193162,2.2204560563601503,1.7775031358093152,2.5166625375495473
3.1621527659284303,-1.0813913872550407,2.234662815814286,1.7748808192300642,2.5067428655242483
3.156654255320322,-1.0856485518011074,2.2486867471101437,1.772251805971993,2.4967923950564592
3.15121997325993,-1.089923902384392,2.262528612513011,1.76961637084128,2.4868120718372504
3.1458518163726508,-1.094217126557925,2.276189174288173,1.7669747886441056,2.4768028415576944
3.14055168128388,-1.0985279118747369,2.289669194700915,1.764327334186649,2.466765649908864
3.135321464619013,-1.1028559458878573,2.3029694360165256,1.7616742822750902,2.4567014425818297
3.130163063003445,-1.1072009161503167,2.31609066050029,1.7590159077156085,2.446611165267665
3.125078373062573,-1.1115625102151454,2.329033630417494,1.7563524853143835,2.4364957636574416
3.1200692914217916,-1.1159404156353734,2.3417991080334244,1.7536842898775953,2.426356183442232
3.1151377147064974,-1.120334319964031,2.3543878556133677,1.7510115962114228,2.4161933703131067
3.1102855395420868,-1.1247439107541488,2.3668006354226097,1.7483346791220462,2.406008269961139
3.105514662553954,-1.1291688755587566,2.379038209726436,1.7456538134156447,2.3958018280774005
3.100826980367495,-1.1336089019308844,2.3911013407901347,1.7429692738983984,2.385574990352964
3.096224389608106,-1.138063677423563,2.4029907908789916,1.7402813353764868,2.3753287024789005
3.0917087869011834,-1.1425328895898224,2.414707322258291,1.7375902726560888,2.3650639101462825
3.087282068872122,-1.1470162259826928,2.426251697193322,1.734896360543385,2.3547815590461822
3.0829461321463185,-1.1515133741552044,2.437624677949369,1.7321998738445543,2.3444825948696715
3.078702873349167,-1.1560240216603872,2.44882702679172,1.7295010873657768,2.3341679633078227
3.074554189106065,-1.160547856051272,2.459859505985658,1.726800275913232,2.323838610051707
3.0705019760424075,-1.1650845648808885,2.4707228777964727,1.7240977142930993,2.3134954807923975
3.066548130783591,-1.169633835702267,2.4814179044894495,1.7213936773115586,2.3031395212209658
3.0626945499550104,-1.174195356068438,2.491945348329873,1.7186884397747892,2.2927716770284836
3.0589431301820613,-1.1787688135324312,2.5023059715830316,1.715982276488971,2.2823928939060236
3.0552957680901396,-1.1833538956472776,2.5125005365142106,1.7132754622602837,2.272004117544658
3.051754360304642,-1.1879502899660066,2.5225298053886958,1.7105682718949065,2.2616062936354577
3.0483208034509635,-1.1925576840416492,2.5323945404717745,1.7078609801990192,2.2512003678694956
3.0449969941545,-1.1971757654272348,2.542095504028733,1.7051538619788018,2.240787285937844
3.0417848290406475,-1.2018042216757943,2.551633458324856,1.7024471920404334,2.230367993531574
3.038686204734801,-1.2064427403403577,2.5610091656254323,1.6997412451900937,2.219943436341759
3.0357030178623567,-1.211091008973955,2.5702233881957457,1.6970362962339625,2.2095145600594694
3.0328371650487105,-1.2157487151296165,2.5792768883010853,1.6943326199782194,2.1990823103757786
3.0300905429192584,-1.2204155463603727,2.5881704282067335,1.691630491229044,2.1886476329817577
3.027465048099396,-1.2250911902192538,2.59690477017798,1.688930184792616,2.1782114735684797
3.0249625772145183,-1.2297753342592896,2.6054806764801093,1.6862319754751145,2.1677747778270158
3.0225850268900225,-1.2344676660335108,2.613898909378408,1.6835361380827196,2.1573384914484386
3.0203342937513034,-1.2391678730949474,2.622160231138163,1.6808429474216111,2.14690356012382
3.0182122744237567,-1.2438756429966296,2.6302654040246605,1.678152678297968,2.136470929544232
3.0162208655327785,-1.2485906632915873,2.638215190303185,1.6754656055179709,2.1260415454007466
3.014361963703765,-1.2533126215328512,2.646010352239026,1.6727820038877983,2.115616353384436
3.0126374655621104,-1.258041205273452,2.653651652097467,1.6701021482136302,2.105196299186372
3.011049267733212,-1.2627761020664185,2.661139852143796,1.6674263133016467,2.0947823284976272
3.009599266842465,-1.2675169994647821,2.668475714643298,1.6647547739580268,2.0843753870092723
3.0082893595152655,-1.2722635850215727,2.67566000186126,1.6620878049889507,2.0739764204123814
3.0071214423770085,-1.2770155462898205,2.682693476062968,1.6594256812005974,2.063586374398025
3.006097412053091,-1.2817725708225556,2.689576899513708,1.6567686773991466,2.0532061946572755
3.0052191651689073,-1.2865343461728085,2.6963110344787675,1.6541170683907784,2.042836826881205
3.004488598349855,-1.291300559893609,2.7028966432234314,1.651471128981672,2.032479216760886
3.003907608221328,-1.2960708995379875,2.7093344880129866,1.648831133978007,2.0221343099873894
3.0034780914087222,-1.3008450526589743,2.715625331112719,1.6461973581859635,2.011803052251789
3.003201944537435,-1.3056227068096,2.7217699347879165,1.643570076411721,2.001486389245155
3.0030810642328607,-1.310403549542894,2.727769061303863,1.6409495634614584,1.9911852666585608
3.003117347120396,-1.3151872684118873,2.7336234729258453,1.6383360941413558,1.9809006301830783
3.003312689825436,-1.3199735509696096,2.7393339319191514,1.6357299432575931,1.9706334255097782
3.003668988973377,-1.324762084769091,2.744901200549066,1.6331313856163499,1.960384598329734
3.004188141189614,-1.3295525573633626,2.7503260410808754,1.6305406960238054,1.950155094334018
3.0048720430995433,-1.3343446563054537,2.755609215779867,1.627958149286139,1.9399458592137004
3.0057225913285603,-1.3391380691483947,2.7607514869113263,1.6253840202095309,1.929757838659855
3.006741682502061,-1.343932483445216,2.765753616740539,1.622818583600161,1.9195919783635533
3.007931213245442,-1.348727586748948,2.7706163675327926,1.6202621142642077,1.9094492240158671
3.0092930801840976,-1.3535230666126208,2.775340501553373,1.617714887007852,1.8993305213078688
3.0108291799434244,-1.3583186105892644,2.7799267810675663,1.6151771766372724,1.88923681593063
3.0125414091488176,-1.3631139062319089,2.784375968340657,1.6126492579586496,1.8791690535752235
3.014431664425674,-1.3679086410935852,2.7886888256379345,1.610131405778162,1.869128179932721
3.0165018423993892,-1.3727025027273227,2.7928661152246836,1.60762389490199,1.859115140694194
3.0187538396953575,-1.3774951786861525,2.7969085993661906,1.6051270001363132,1.8491308815507148
3.021189552938976,-1.3822863565231038,2.8008170403277415,1.6026409962873112,1.839176348193356
3.02381087875564,-1.3870757237912077,2.8045922003746244,1.600166158161163,1.8292524863131896
3.026619713770746,-1.3918629680434942,2.808234841772123,1.597702760564049,1.8193602416012868
3.029617954609688,-1.396647776832993,2.8117457267855244,1.5952510783021485,1.8095005597487206
3.0328074978978643,-1.4014298377127352,2.815125617680116,1.5928113861816415,1.7996743864465625
3.0361902402606686,-1.40620883823575,2.818375276721184,1.5903839590087072,1.7898826673858848
3.039768078323497,-1.4109844659550688,2.821495466174012,1.587969071589525,1.7801263482577592
3.0435429087117463,-1.4157564084237206,2.8244869483038886,1.585566998730275,1.7704063747532583
3.0475166280508117,-1.4205243531947367,2.8273504853761007,1.5831780152371362,1.7607236925634537
3.0516911329660887,-1.4252879878211464,2.8300868396559333,1.580802395916289,1.7510792473794177
3.056068320082973,-1.4300469998559806,2.8326967734086725,1.5784404155739127,1.7414739848922223
3.0606500860268606,-1.4348010768522692,2.835181048899606,1.5760923490161867,1.7319088507929392
3.0654383274231476,-1.4395499063630424,2.837540428394017,1.5737584710492905,1.722384790772641
3.0704349408972287,-1.4442931759413307,2.8397756741571967,1.5714390564794045,1.7129027505223997
3.075641823074501,-1.4490305731401638,2.841887548454427,1.5691343801127076,1.7034636757332864
3.0810608705803597,-1.4537617855125726,2.8438768135509958,1.5668447167553798,1.6940685120963745
3.0866939800402005,-1.458486500611587,2.8457442317121897,1.5645703412136003,1.6847182053027356
3.092543048079419,-1.4632044059902372,2.8474905652032945,1.5623115282935494,1.6754137010434411
3.0986099713234116,-1.4679151892015534,2.8491165762895956,1.560068552801406,1.666155945009564
3.104896646397574,-1.4726185377985659,2.8506230272363835,1.5578416895433502,1.6569458828921753
3.1114049699273005,-1.4773141393343046,2.8520106803089376,1.555631213325561,1.6477844603823482
3.1181368385379886,-1.4820016813618,2.8532802977725495,1.553437398954219,1.6386726231711533
3.125094148855033,-1.4866808514340824,2.8544326418925055,1.5512605212355028,1.6296113169496649
3.13227879750383,-1.491351337104182,2.855468474934087,1.549100854975593,1.6206014874089527
3.1396926811097754,-1.496012825925129,2.8563885591625846,1.5469586749806683,1.6116440802400902
3.147337696298265,-1.5006650054499535,2.8571936568432843,1.5448342560569088,1.6027400411341488
3.155215739694694,-1.5053075632316855,2.857884530241471,1.542727873010494,1.5938903157822006
3.163328707924459,-1.5099401868233562,2.8584619416224317,1.5406398006476039,1.5850958498753178
3.1716784976129553,-1.5145625637779943,2.858926653251452,1.5385703137744173,1.5763575891045731
3.1802670053855784,-1.5191743816486314,2.859279427393819,1.5365196871971145,1.567676479161037
3.189096127867724,-1.5237753279882968,2.8595210263148183,1.5344881957218752,1.559053465735783
3.1981677616847892,-1.5283650903500214,2.8596522122797383,1.5324761141548784,1.5504894945198826
3.207483803462168,-1.532943356286835,2.8596737475538614,1.530483717302304,1.5419855112044072
3.2170461498252583,-1.5375098133517684,2.859586394402478,1.5285112799703318,1.5335424614804305
3.2268566973994535,-1.5420641490978508,2.85939091509087,1.5265590769651414,1.5251612910390233
3.2369173428101505,-1.5466060510781128,2.8590880718843272,1.5246273830929118,1.5168429455712573
3.247229982682744,-1.5511352068455855,2.8586786270481355,1.5227164731598237,1.508588370768206
3.257796513642632,-1.5556513039532982,2.858163342847579,1.5208266219720559,1.5003985123209396
3.2686188323152083,-1.5601540299542813,2.8575429815479456,1.5189581043357883,1.4922743159205316
3.27969883532587,-1.5646430724015645,2.8568183054145244,1.5171111950572005,1.4842167272580533
3.2910384193000124,-1.5691181188481793,2.8559900767125947,1.5152861689424721,1.4762266920245781
3.30263948086303,-1.573578856847155,2.8550590577074466,1.5134833007977826,1.4683051559111753
3.3145039166403203,-1.578024973951522,2.85402601066437,1.5117028654293119,1.4604530646089202
3.326342371510843,-1.5824561577143104,2.8528916978486443,1.5099451376432393,1.4526713638088828
3.3378097397082858,-1.5868720956885507,2.8516568815255616,1.5082103922457448,1.4449609992021357
3.348908411879197,-1.591272475427273,2.850322323960405,1.5064989040430075,1.4373229164797505
3.3596407786701077,-1.5956569844835073,2.8488887874184616,1.5048109478412075,1.4297580613327994
3.370009230727536,-1.6000253104102846,2.847357034165017,1.503146798446524,1.4222673794523555
3.3800161586980346,-1.6043771407606342,2.8457278264653603,1.5015067306651368,1.4148518165294894
3.3896639532281236,-1.6087121630875867,2.844001926584772,1.499891019303226,1.4075123182552745
3.3989550049643302,-1.613030064944172,2.8421800967885433,1.4982999391669705,1.4002498303207815
3.4078917045531982,-1.617330533883421,2.8402630993419606,1.49673376506255,1.393065298417083
3.4164764426412546,-1.6216132574583635,2.8382516965103077,1.4951927717961446,1.3859596682352517
3.4247116098750308,-1.6258779232220295,2.836146650558873,1.4936772341739335,1.3789338854663593
3.4325995969010616,-1.6301242187274494,2.8339487237529397,1.4921874270020967,1.371988895801477
3.4401427943658778,-1.6343518315276544,2.8316586783577966,1.490723625086813,1.3651256449316773
3.447343592916008,-1.6385604491756727,2.8292772766387317,1.489286103234263,1.3583450785480329
3.454204383197993,-1.6427497592245366,2.8268052808610262,1.4878751362506257,1.3516481423416153
3.460727555858364,-1.646919449227275,2.8242434532899696,1.4864909989420811,1.3450357820034968
3.466915501543638,-1.6510692067369184,2.8215925561908506,1.4851339661148084,1.3385089432247494
3.4727706109003673,-1.655198719306497,2.818853351828949,1.4838043125749878,1.332068571696444
3.4782952745750793,-1.659307674489041,2.8160266024695555,1.4825023131287984,1.3257156131096552
3.4834918832142936,-1.6633957598375808,2.813113070377957,1.48122824258242,1.3194510131554522
3.4883628274645586,-1.6674626629051472,2.8101135178194383,1.4799823757420323,1.3132757175249092
3.4929104979723986,-1.671508071244769,2.807028707059283,1.4787649874138147,1.3071906719090967
3.4971372853843414,-1.6755316724094778,2.803859400362785,1.477576352403947,1.3011968219990884
3.501045580346931,-1.6795331539523028,2.8006063599952227,1.4764167455186086,1.2952951134859552
3.504637773506693,-1.6835122034262748,2.7972703482218852,1.4752864415639793,1.2894864920607692
3.5079162555101506,-1.6874685083844243,2.7938521273080603,1.4741857153462388,1.2837719034146025
3.510883417003856,-1.69140175637978,2.790352459519032,1.4731148416715665,1.2781522932385272
3.513541648634333,-1.6953116349653743,2.786772107120087,1.4720740953461422,1.2726286072236164
3.515893341048101,-1.699197831694236,2.7831118323765134,1.4710637511761457,1.267201791060939
3.5179408848917086,-1.7030600341193958,2.779372397553597,1.470084083967756,1.2618727904415716
3.51968667081168,-1.706897929793884,2.775554564916621,1.4691353685271533,1.2566425510565824
3.521133089454554,-1.7107112062707297,2.7716590967308763,1.468217879660517,1.2515120185970465
3.5222825314668578,-1.7144995511029648,2.7676867552616455,1.4673318921740268,1.246482138754033
3.523137387495119,-1.7182626518436186,2.763638302774218,1.466477680873862,1.2415538572186149
3.523700048185882,-1.722000196045721,2.7595145015338756,1.4656555205662025,1.2367281196818656
3.523972904185676,-1.725711871262303,2.7553161138059084,1.464865686057228,1.2320058718348568
3.5239583461410247,-1.729397365046395,2.751043901855602,1.464108452153118,1.2273880593686592
3.523658764698463,-1.733056364951026,2.746698627948241,1.463384093660052,1.2228756279743465
3.523076550504534,-1.7366885585292273,2.742281054349113,1.4626928853842098,1.2184695233429883
3.5222140942057525,-1.740293633334029,2.7377919433235065,1.4620351021317708,1.2141706911656596
3.5210737864486665,-1.7438712769184608,2.733232057136704,1.4614110187089149,1.2099800771334306
3.5196580178798005,-1.747421176835553,2.7286021580539925,1.4608209099218217,1.2058986269373744
3.517969179145683,-1.7509430206383363,2.723903008340662,1.4602650505766706,1.2019272862685613
3.5160096608928537,-1.7544364958798404,2.719135370261992,1.4597437154796413,1.1980670008180656
3.5137818537678527,-1.7579012901130961,2.714300006083273,1.4592571794369134,1.1943187162769577
3.5112881484171856,-1.7613370908911332,2.7093976780697946,1.4588057172546667,1.1906833783363098
3.508530935487408,-1.7647435857669822,2.704429148486837,1.4583896037390804,1.1871619326871956
3.505512605625051,-1.7681204622936733,2.6993951795996876,1.4580091136963347,1.1837553250206847
3.502235549476632,-1.7714674080242359,2.694296533673637,1.457664521932609,1.1804645010278514
3.498702157688699,-1.7747841105117013,2.6891339729739663,1.457356103254082,1.177290406399766
3.494914820907775,-1.7780702573090994,2.683908259765964,1.4570841324669348,1.1742339868275011
3.4908759297803904,-1.7813255359694598,2.678620156314917,1.4568488843773468,1.1712961880021298
3.4865878749530843,-1.784549634045814,2.6732704248861103,1.4566506337914964,1.1684779556147222
3.4820530470723945,-1.7877422390911912,2.6678598277448313,1.4564896555155644,1.165780235356353
3.47727383678483,-1.7909030386586213,2.6623891271563647,1.4563662243557298,1.1632039729180916
3.4722526347369502,-1.7940317203011358,2.6568590853859977,1.4562806151181724,1.160750113991011
3.4669918315752764,-1.797127971571764,2.6512704646990195,1.4562331026090722,1.1584196042661836
3.461493817946325,-1.8001914800235361,2.64562402736071,1.4562239616346082,1.1562133894346815
3.45576098449666,-1.8032219332094832,2.6399205356363598,1.4562534670009604,1.1541324151875756
3.4497957218727997,-1.8062190186826341,2.6341607517912573,1.456321893514308,1.1521776272159405
3.4436004207212534,-1.8091824239960206,2.628345438090682,1.4564295159808314,1.1503499712108458
3.437177471688587,-1.8121118367026716,2.622475356799925,1.4565766092067096,1.1486503928633631
3.4305292654213204,-1.8150069443556185,2.6165512701842744,1.4567634479981222,1.1470798378645681
3.423658192565977,-1.8178674345078898,2.610573940509011,1.4569903071612493,1.145639251905529
3.4165666437691105,-1.8206929947125179,2.6045441300394256,1.4572574615022698,1.1443295806773186
3.409257009677223,-1.8234833125225312,2.5984626010408,1.457565185827364,1.1431517698710105
3.401731680936871,-1.8262380754909613,2.592330115778426,1.457913754942711,1.1421067651776746
3.3939930481945915,-1.8289569711708369,2.5861474365175843,1.4583034436544908,1.1411955122883857
3.386043502096882,-1.8316396871151894,2.579915325523567,1.458734526768883,1.140418956894215
3.3778854332903023,-1.8342859108770488,2.5736345450616542,1.459207279092067,1.1397780446862322
3.369521232421393,-1.836895330009445,2.567305857397138,1.4597219754302222,1.1392737213555115
3.360953290136658,-1.839467632065409,2.5609300247953,1.460278890589529,1.138906932593125
3.3521839970826495,-1.8420025045979702,2.5545078095214286,1.4608782993761662,1.1386786240901445
3.343215743905901,-1.8444996351601592,2.5480399738408135,1.461520476596314,1.1385897415376425
3.334050921252926,-1.8469587113050059,2.5415272800187347,1.4622056970561514,1.1386412306266882
3.3246919197702756,-1.8493794205855407,2.534970490320479,1.4629342355618586,1.1388340370483574
3.3151411301044895,-1.8517614505547944,2.528370367011341,1.4637063669196149,1.1391691064937195
3.3054009429020628,-1.8541044887657958,2.5217276723565933,1.4645223659356004,1.1396473846538484
3.295473748809556,-1.856408222771577,2.515043168621532,1.4653825074159939,1.1402698172198154
3.285361938473514,-1.8586723401251664,2.508317618071445,1.4662870661669756,1.1410373498826925
3.27506790254043,-1.8608965283795953,2.501551782971611,1.4672363169947251,1.141950928333551
3.2645940316568716,-1.8630804750878933,2.4947464255873206,1.468230534705422,1.1430114982634638
3.2539427164693464,-1.8652238678030917,2.4879023081838616,1.469269994105246,1.144220005363505
3.2431163476244045,-1.8673263940782192,2.481020193026516,1.470354970000376,1.1455773953247412
3.232117315768569,-1.8693877414663074,2.474100842380571,1.4714857371969925,1.1470846138382509
3.2209480115483746,-1.8714075975203859,2.467145018511318,1.4726625705012746,1.1487426065951016
3.209610825610353,-1.8733856497934853,2.4601534836840355,1.4738857447194023,1.1505523192863665
3.198108148601035,-1.8753215858386345,2.4531270001640166,1.4751555346575547,1.1525146976031175
3.1864423711669527,-1.8772150932088654,2.4460663302165453,1.476472215121912,1.1546306872364296
3.174615883954637,-1.8790658594572074,2.4389722361069013,1.4778360609186532,1.1569012338773685
3.162631077610639,-1.8808735721366907,2.431845480100382,1.4792473468539584,1.1593272832170127
3.1504903427814703,-1.882637918800346,2.424686824462269,1.4807063477340077,1.1619097809464307
3.1381960701136613,-1.884358587001203,2.4174970314578443,1.4822133383649794,1.1646496727566973
3.125750650253753,-1.8860352642922917,2.410276863352398,1.483768593553054,1.1675479043388792
3.1131564738482727,-1.8876676382266437,2.4030270824112208,1.485372388104411,1.1706054213840558
3.1004159315437594,-1.889255396357288,2.3957484508995925,1.4870249968252303,1.1738231695832928
3.087531413986742,-1.890798226237254,2.388441731082801,1.4887266945216902,1.177202094627666
3.074505311823753,-1.8922958154195741,2.381107685226132,1.490477755999972,1.1807431422082448
3.0613400157013277,-1.8937478514572774,2.3737470755948733,1.4922784560662545,1.184447258016104
3.0480379162659883,-1.8951540219033935,2.3663606644543123,1.4941290695267175,1.188315387742314
3.034601404164272,-1.8965140143109538,2.3589492140697317,1.4960298711875404,1.1923484770779478
3.0210328700427205,-1.8978275162329876,2.35151348670642,1.4979811358549031,1.1965474717140756
3.007334704547853,-1.8990942152225254,2.344054244629664,1.4999831383349844,1.2009133173417696
2.9935092983262113,-1.9003137988325984,2.336572250104748,1.5020361534339655,1.2054469596521056
2.9795590420243254,-1.901485954616235,2.329068265396957,1.5041404559580245,1.2101493443361528
2.9654863262887226,-1.9026103701264667,2.3215430527715855,1.5062963207133422,1.2150214170849827
2.951293541765919,-1.9036867329163234,2.3139973744939084,1.5085040225060975,1.2200641235896663
2.936983079102488,-1.9047147305388354,2.3064319928292196,1.51076383614247,1.2252784095412785
2.9225573289449454,-1.9056940505470328,2.2988476700428073,1.5130760364286395,1.2306652206308915
2.9080186819397937,-1.9066243804939458,2.291245168399949,1.5154408981707856,1.2362255025495754
2.8933695287336114,-1.9075054079326048,2.283625250165935,1.517858696175088,1.2419602009884043
2.8786122599729005,-1.9083368204160394,2.2759886776060565,1.5203297052477263,1.2478702616384467
2.8637492663041932,-1.9091183054972811,2.268336212985594,1.52285420019488,1.2539566301907774
2.8487829383740433,-1.9098495507293587,2.2606686185698344,1.5254324558227284,1.2602202523364676
2.8337156668289634,-1.9105302436653027,2.2529866566240653,1.5280647469374522,1.2666620737665912
2.8185498423154876,-1.911160071858145,2.2452910894135742,1.5307513483452302,1.2732830401722177
2.8032878554801677,-1.911738722860914,2.237582679203644,1.533492534852242,1.2800840972444218
2.7879320969695023,-1.91226588422664,2.2298621882595633,1.5362885812646672,1.2870661906742722
2.7724849574300503,-1.9127412435083535,2.222130378846619,1.5391397623886853,1.2942302661528418
2.756948827508335,-1.9131644882590848,2.2143880132300957,1.5420463530304764,1.3015772693712053
2.741326097850898,-1.9135353060318643,2.20663585367528,1.54500862799622,1.3091081460204315
2.7256191591042516,-1.9138533843797227,2.198874662447456,1.5480268620920954,1.3168238417915932
2.7098304019149495,-1.9141184108556892,2.191105201811916,1.5511013301242826,1.324725302375767
2.69396221692951,-1.9143300730127941,2.1833282340339437,1.5542323068989612,1.332813473464019
2.6780169947944614,-1.914488058404069,2.1755445213788214,1.5574200672223109,1.3410893007474227
2.6619971261563578,-1.9145920545825428,2.167754826111839,1.560664885900511,1.3495537299170506
2.6459050016617027,-1.9146417491012455,2.1599599104982827,1.5639670377397406,1.3582077066639764
2.629743011957057,-1.9146368295132077,2.1521605368034367,1.5673267975461802,1.3670521766792705
2.6135135476889353,-1.9145769833714605,2.1443574672925925,1.5707444401260093,1.3760880856540032
2.597218999503859,-1.9144618982290327,2.1365514642310295,1.5742202402854075,1.3853163792792502
2.580861758048396,-1.9142912616389554,2.1287432898840386,1.577754472830554,1.394738003246081
2.564444213969054,-1.914064761154259,2.1209337065169054,1.5813474125676295,1.4043539032455703
2.5479687579123578,-1.913782084327972,2.113123476394912,1.5849993343028115,1.4141650249687876
2.531437780524861,-1.913442918713128,2.1053133617833506,1.5887105128422818,1.4241723141068041
2.514853672453089,-1.9130469518627535,2.0975041249475037,1.5924812229922192,1.4343767163506946
2.49821882434356,-1.912593871329881,2.089696528152661,1.5963117395588027,1.4447791773915313
2.481535626842824,-1.9120833646675401,2.081891333664104,1.6002023373482124,1.4553806429203817
2.4648064705974058,-1.9115151194287616,2.074089303747127,1.6041532911666287,1.4661820586283234
2.4480337462538344,-1.9108888231665744,2.0662912006670053,1.6081648758202296,1.4771843702064258
2.4312198444586492,-1.9102041634340097,2.058497786689035,1.6122373661151972,1.4883885233457619
2.4143671558583755,-1.9094608277840974,2.0507098240784956,1.616371036857708,1.4997954637374038
2.397478071099549,-1.9086585037698676,2.042928075100674,1.6205661628539438,1.51140613707242
2.380554980828709,-1.9077968789443518,2.0351533020208628,1.6248230189100838,1.5232214890418874
2.3636002756923844,-1.9068756408605783,2.0273862671043403,1.6291418798323072,1.535242465336875
2.3466163463370826,-1.9058944770715782,2.0196277326163976,1.6335230204267934,1.5474700116484579
2.3296055834093785,-1.9048530751303825,2.011878460822321,1.6379667154997235,1.5599050736677045
2.3125703775557724,-1.90375112259002,2.0041392139873953,1.6424732398572757,1.5725485970856905
2.2955131194228144,-1.9025883070035214,1.9964107543769058,1.64704286830563,1.5854015275934845
2.2784361996570226,-1.9013643159239173,1.9886938442561437,1.651675875650966,1.5984648108821595
2.2613420089049434,-1.9000788369042372,1.9809892458903846,1.6563725366994624,1.6117393926427912
2.2442329378130985,-1.8987315574975119,1.9732977215449248,1.6611331262573006,1.6252262185664446
2.2271113770280238,-1.8973221652567718,1.9656200334850533,1.6659579191306593,1.638926234344197
2.2099797171962585,-1.8958503477350472,1.9579569439760443,1.670847190125718,1.6528403856671208
2.1928403489643102,-1.8943157924853682,1.9503092152831885,1.675801214048656,1.6669696182262825
2.175695662978736,-1.8927181870607641,1.9426776096717822,1.6808202657056546,1.6813148777127616
2.1585480498860647,-1.8910572190142658,1.9350628894070958,1.6859046199028915,1.6958771098176264
2.141399900332825,-1.8893325758989041,1.9274658167544256,1.691054551446547,1.7106572602319474
2.124253604965549,-1.8875439452677076,1.9198871539790598,1.6962703351428012,1.725656274646802
2.1071115544307695,-1.885691014673709,1.9123276633462778,1.7015522457978327,1.7408750987532553
2.089976139375011,-1.8837734716699361,1.9047881071213677,1.7069005582178223,1.7563146782423846
2.0728497504448242,-1.8817910038094205,1.897269247569617,1.7123155472089482,1.7719759588052568
2.0557347782867126,-1.8797432986451925,1.889771846956311,1.7177974875773918,1.7878598861329493
2.0386336135472405,-1.8776300437302806,1.8822966675467354,1.7233466541293319,1.8039674059165325
2.021548646872926,-1.875450926617718,1.874844471606182,1.7289633216709475,1.8202994638470784
2.0044822689102944,-1.8732056348605322,1.867416021399933,1.7346477650084182,1.8368570056156592
1.987436870305892,-1.870893856011754,1.860012079193269,1.7404002589479246,1.8536409769133435
1.970414841706237,-1.8685152776244145,1.8526334072514858,1.7462210782956453,1.870652323431207
1.9534185737578689,-1.8660695872515438,1.8452807678398644,1.7521104978577609,1.8878919908603233
1.9364504571073162,-1.8635564724461715,1.837954923223693,1.7580687924404512,1.9053609248917613
1.9195128824011327,-1.8609756207613288,1.830656635668257,1.7640962368498943,1.923060071216593
1.9026082402858044,-1.8583267197500435,1.8233866674388413,1.7701931058922709,1.9409903755258924
1.8857389214079028,-1.8556094569653494,1.816145780800734,1.7763596743737606,1.9591527835107296
1.8689073164139565,-1.8528235199602734,1.8089347380192233,1.7825962171005427,1.9775482408621787
1.8521158159504765,-1.849968596287848,1.8017543013595922,1.7889030088787967,1.9961776932713082
1.83536681066402,-1.8470443735011024,1.7946052330871272,1.7952803245147027,2.0150420864291956
1.8186626912011157,-1.8440505391530677,1.7874882954671172,1.8017284388144406,2.034142366026906
1.8020058482082675,-1.840986780796773,1.7804042507648496,1.8082476265841887,2.05347947775552
1.7853986723320467,-1.8378527859852487,1.7733538612456012,1.814838162630127,2.073054367306101
1.7688435542189502,-1.834648242271526,1.7663378891746664,1.8215003217584367,2.0928679803697285
1.7523428845155244,-1.8313728372086335,1.7593570968173378,1.8282343787752966,2.112921262637469
1.7358990538683194,-1.8280262583496039,1.7524122464388832,1.8350406084868855,2.1332151598003932
1.7195144529238569,-1.8246081932474647,1.745504100304606,1.8419192856993831,2.1537506175495853
1.7031914723286405,-1.8211183294552469,1.7386334206797844,1.848870685218969,2.1745285815761015
1.6869325027292383,-1.8175563545259807,1.7318009698297008,1.8558950818518247,2.1955499975710246
1.670739934772179,-1.813921956012698,1.7250075100196547,1.862992750404127,2.2168158112254215
1.654616159103977,-1.8102148214684282,1.7182538035149229,1.8701639656820572,2.238326968230366
1.6385635663711788,-1.8064346384461998,1.7115406125807908,1.8774090024917944,2.26008441427693
1.6225845472203098,-1.8025810944990455,1.7048686994825513,1.8847281356395187,2.282089095056186
1.606681492297902,-1.798653877179993,1.6982388264854844,1.89212163993141,2.3043419562592042
1.5908567922504915,-1.7946526740420743,1.6916517558548794,1.8995897901736463,2.3268439435770603
1.5751128377246175,-1.7905771726383195,1.6851082498560235,1.9071328611724088,2.349596002700819
1.5594520193667982,-1.7864270605217585,1.6786090707541987,1.9147511277338762,2.3725990793215637
1.5438767278235765,-1.7822020252454216,1.672154980814696,1.9224448646642291,2.395854119130357
1.528389353741467,-1.7779017543623383,1.6657467423027992,1.9302143467696466,2.419362067818275
1.5129922877670268,-1.7735259354255386,1.659385117483792,1.9380598488563079,2.4431238710763896
1.4976879205467668,-1.7690742559880555,1.6530708686229705,1.9459816457303933,2.466639639816947
1.4824786427272372,-1.7645464036029166,1.6468047579856027,1.9539800121980813,2.488907475879728
1.467366844954963,-1.7599420658231528,1.6405875478369936,1.9620552230655526,2.5099514251451183
1.4523549178764732,-1.7552609302017936,1.6344200004424234,1.9702075531389869,2.5297955334947346
1.4374452521382892,-1.7505026842918716,1.6283028780671724,1.9784372772245633,2.548463846808886
1.422640238386986,-1.7456670156464145,1.622236942976535,1.9867446701284606,2.5659804109694164
1.407942267269025,-1.7407536118184535,1.616222957435797,1.99513000665686,2.58236927185726
1.3933537294310128,-1.735762160361018,1.6102616837102328,2.003593561615941,2.597654475353295
1.3788770155194356,-1.730692348827139,1.6043538840651443,2.012135609811882,2.6118600673390233
1.3645145161808259,-1.725543864769847,1.598500320765817,2.020756426050864,2.6250100936947547
1.3502686220617264,-1.7203163957421719,1.5927017560775223,2.0294562851390654,2.637128600302333
1.336141723808698,-1.7150096292971444,1.5869589522655598,2.038235461882666,2.648239633042749
1.3221362120682407,-1.7096232529877948,1.5812726715952081,2.047094231087846,2.6583672377967673
1.3082544774868836,-1.704156954367149,1.5756436763317545,2.0560328675607864,2.667535460446004
1.2944989107111624,-1.6986104209882447,1.5700727287404952,2.0650516461076642,2.675768346870882
1.2808719023876307,-1.6929833404041084,1.5645605910867069,2.0741508415346592,2.683089942952563
1.267375843162803,-1.687275400167768,1.5591080256356733,2.083330728647952,2.6895242945730047
1.2540131236831868,-1.681486287832258,1.5537157946526872,2.092591582253722,2.695095447612516
1.240786134595389,-1.6756156909506057,1.5483846604030411,2.1019336771581494,2.6998274479522593
1.227697266545853,-1.669663297075843,1.543115385152003,2.1113572881674134,2.7037443414739073
1.2147489101811715,-1.6636287937609984,1.5379087311648743,2.120862690087693,2.706870174057542
1.2019434561478377,-1.6575118685591033,1.5327654607069388,2.1304501577251687,2.7092289915850643
1.1892832950924088,-1.651312209023188,1.5276863360434731,2.1401199658860195,2.710844839937238
1.1767708176614278,-1.645029502706283,1.5226721194397719,2.149872389376425,2.711741764995452
1.164408414501402,-1.6386634371614175,1.5177235731611223,2.1597077030025646,2.7119438126404702
1.1521984762588744,-1.632213699941623,1.5128414594728081,2.16962618157062,2.7114750287535685
1.1401433935803666,-1.6256799785999272,1.5080265406401168,2.1796280998867688,2.710359459215681
1.1282455571124217,-1.619061960689363,1.503279578928339,2.18971373275719,2.7086211499080264
1.1165073575015683,-1.6123593337629591,1.4986013366027482,2.1998833549880654,2.706284146711937
1.1049311853943422,-1.6055717853737468,1.4939925759286403,2.2101372413855738,2.7033724955081198
1.0935194314372794,-1.5986990030747563,1.4894540591713028,2.220475666755893,2.699910242177907
1.0822744862768872,-1.5917406744190172,1.484986548596014,2.2308989059052053,2.6959214326018923
1.071198740559744,-1.5846964869595581,1.4805908064680704,2.241407233639688,2.691430112662033
1.0602945849323504,-1.577566128249413,1.4762675950527449,2.2520009247655226,2.6864603282386383
1.0495644100412278,-1.5703492858416093,1.4720176766153408,2.262680254088888,2.681036125213609
1.0390106065329263,-1.5630456472891785,1.467841813421133,2.273445496415964,2.6751815494674247
1.028635565053996,-1.5556549001451492,1.463740767735409,2.2842969265529294,2.6689206468811904
1.01844167625093,-1.5481767319625535,1.4597153018234525,2.295234819305964,2.662277463335897
1.0084313307702786,-1.5406108302944208,1.4557661779505597,2.3062594494812485,2.655276044713162
0.9986069192585916,-1.5329568826937807,1.451894158382009,2.3173710918849615,2.6479404368936343
0.9889708323623694,-1.5252145767136644,1.4481000053830861,2.3285700213232845,2.6402946857589313
0.9795254607281478,-1.5173835999071041,1.4443844812190783,2.3398565126023936,2.6323628371895325
0.9702731950024983,-1.509463639827124,1.4407483481552745,2.351230840528472,2.6241689370666563
0.961216425831914,-1.5014543840267605,1.4371923684569623,2.362693279907697,2.6157370312715784
0.9523575438629308,-1.4933555200590423,1.43371730438942,2.374244105546249,2.607091165685688
0.9436989397421129,-1.485166735476997,1.4303239182179457,2.3858835922503063,2.5982553861894644
0.9352430041159536,-1.4768877178336561,1.427012972207816,2.397612014826052,2.5892537386644676
0.9269921276309887,-1.4685181546820516,1.4237852286243236,2.409429648079662,2.5801102689915183
0.9189487009337753,-1.4600577335752112,1.420641449732745,2.4213367668173182,2.570849023051494
0.9111151146708352,-1.451506142066167,1.4175823977983804,2.433333645845198,2.5614940467262954
0.9034937594886685,-1.4428630677079477,1.4146088350865025,2.4454205599694836,2.5520693858962886
0.8960870260338822,-1.4341281980535854,1.4117215238624041,2.457597783996354,2.542599086442749
0.888897304952927,-1.4253012206561095,1.4089212263913762,2.4698655927319866,2.5331071942470658
0.8819269868923953,-1.4163818230685488,1.4062087049386953,2.482224260982563,2.5236177551896617
0.8751784624987948,-1.407369692843936,1.4035847217696524,2.494674063554265,2.514154815152324
0.868654122418647,-1.3982645175352983,1.4010500391495366,2.507215275253267,2.5047424200157593
0.8623563572984807,-1.3890659846956677,1.3986054193436281,2.5198481708857514,2.495404615661414
0.8562875577848601,-1.379773781878077,1.3962516246172196,2.532573025257901,2.486165447970336
0.8504501145242997,-1.3703875966355517,1.393989417235593,2.5453901131758885,2.477048962822721
0.8448464181633355,-1.3609071165211244,1.3918195594640324,2.5582997094458992,2.4680792061009242
0.839478859348489,-1.3513320290878248,1.3897428135678354,2.57130208887411,2.459280223685539
0.8343498287263031,-1.341662021888685,1.3877599418122735,2.5843975262667005,2.4506760614575
0.8294617169433138,-1.33189678247673,1.385871706462643,2.599637021903618,2.4422907652980825
0.8248169146460427,-1.3220359984049974,1.3840788697842275,2.6184235763939796,2.4341483810883346
0.8204178124810255,-1.3120793572265113,1.3823821940423127,2.6402575393349252,2.4262729547092476
0.8162668010947698,-1.3020265464943046,1.3807824415021823,2.6646392603670392,2.41868853204204
0.8123662711338753,-1.2918772537614078,1.3792803744291238,2.691069089125449,2.411419158967817
0.8087186132448068,-1.2816311665808504,1.3778767550884279,2.7190473752452817,2.4044888813676835
0.8053262180741214,-1.2712879725056627,1.3765723457453785,2.748074468372579,2.3979217451225736
0.8021914762683764,-1.2608473590888751,1.375367908665261,2.7776507181297347,2.391741796113763
0.7993167784740578,-1.2503090138835162,1.3742642061133594,2.8072764741646097,2.3859730802223567
0.7967045153377086,-1.23967262444262,1.373262000354968,2.836452086110512,2.3806396433294026
0.7943570775059001,-1.228937878319213,1.37236205365536,2.864677903608026,2.3757655313160626
0.7922768556251043,-1.2181044630663278,1.3715651282798422,2.8914542762831843,2.3713747900631006
0.7904662403418996,-1.2071720662369927,1.3708719864936754,2.916281553787485,2.3674914654519625
0.7889276223028148,-1.1961403753842381,1.3702833905621628,2.9386600857415033,2.3641396033634123
0.7876633921543572,-1.1850090780610962,1.36980010275059,2.9580902217949188,2.361343249678896
0.7866759405430841,-1.1737778618205947,1.3694228853242318,2.9740723115792207,2.359126450279632
0.7859676581155028,-1.1624464142157676,1.3691525005483864,2.9861067047313554,2.357513251046271
0.7855409355181919,-1.1890686564147472,1.3689897106883357,2.9936937508882693,2.3565276978602583
0.7853981633976161,-1.2236754957120866,1.3689352780093653,2.9963337996887276,2.356193836602529
