oscarkremer/mentor-optimization/notebooks/traject_2/adaptive/angles_20.csv
theta1,theta2,theta3,theta4,theta5
3.7295952571373574,-0.7943678438589166,1.973043134264813,1.9629173631838936,3.2059965904706873
3.7295786783233904,-0.7944041990979456,1.9730352037560392,1.9628760781351298,3.205894424900284
3.729529106174177,-0.794512978500371,1.9730114808417691,1.9627525748091905,3.205588894172254
3.729446787128752,-0.7946937525942006,1.97297206844008,1.9625473809366039,3.205081447261369
3.7293319676261483,-0.7949460919074425,1.9729170694690483,1.9622610242478986,3.2043735331424
3.7291848941054004,-0.7952695669681045,1.9728465868467513,1.9618940324736027,3.2034666007901182
3.729005813005541,-0.7956637483041941,1.9727607234912656,1.9614469333442446,3.2023620991792945
3.7287949707656045,-0.7961282064437196,1.9726595823206685,1.9609202545903526,3.2010614772847004
3.7285526138246237,-0.7966625119146886,1.9725432662530364,1.9603145239424549,3.199566184081106
3.7282789886216325,-0.7972662352451091,1.972411878206447,1.95963026913108,3.1978776685432835
3.7279743415956648,-0.7979389469629888,1.9722655210989766,1.9588680178867561,3.1959973796460033
3.727638919185754,-0.7986802175963357,1.9721042978487024,1.9580282979400114,3.1939267663640365
3.7272729678309333,-0.7994896176731575,1.9719283113737012,1.9571116370213748,3.191667277672155
3.726876733970237,-0.8003667177214622,1.97173766459205,1.956118562861374,3.189220362545129
3.7264504640426988,-0.8013110882692576,1.9715324604218256,1.9550496031905373,3.18658746995773
3.7259944044873516,-0.8023222998445515,1.9713128017811052,1.9539052857393933,3.183770048884729
3.7255088017432296,-0.8033999229753518,1.9710787915879655,1.9526861382384704,3.1807695483008978
3.724993902249366,-0.8045435281896662,1.9708305327604836,1.9513926884182964,3.1775874171810057
3.724449952444795,-0.8057526860155029,1.9705681282167362,1.9500254640094001,3.1742251044998255
3.7238771987685495,-0.8070269669808694,1.9702916808748006,1.9485849927423098,3.170684059232128
3.723275887659664,-0.8083659416137738,1.9700012936527531,1.9470718023475537,3.166965730352684
3.7226462655571715,-0.8097691804422238,1.9696970694686713,1.9454864205556601,3.1630715668362646
3.721988578900105,-0.8112362539942274,1.9693791112406318,1.9438293750971571,3.159003017657641
3.7213030741274995,-0.8127667327977922,1.9690475218867114,1.9421011937025732,3.154761531791584
3.720589997678388,-0.8143601873809263,1.9687024043249874,1.940302404102437,3.150348558212865
3.7198495959918034,-0.8160161882716374,1.9683438614735365,1.9384335340272765,3.145765545896255
3.7190821155067804,-0.8177343059979334,1.9679719962504356,1.9364951112076199,3.141013943816525
3.7182878026623523,-0.8195141110878222,1.9675869115737616,1.9344876633739958,3.1360952009484464
3.7174669038975523,-0.8213551740693116,1.9671887103615917,1.9324117182569325,3.1310107662667903
3.7166196656514146,-0.8232570654704094,1.9667774955320025,1.930267803586958,3.1257620887463275
3.715746334362972,-0.8252193558191235,1.9663533700030713,1.9280564470946011,3.1203506173618294
3.7148471564712593,-0.827241615643462,1.9659164366928747,1.9257781765103896,3.1147778010880667
3.713922378415309,-0.8293234154714323,1.9654667985194896,1.9234335195648522,3.109045088899811
3.7129722466341555,-0.8314643258310426,1.9650045584009932,1.9210230039885172,3.1031539297718327
3.7119970075668323,-0.8336639172503005,1.964529819255462,1.9185471575119128,3.097105772678904
3.710996907652372,-0.8359217602572141,1.9640426840009735,1.9160065078655673,3.090902066595795
3.70997219332981,-0.8382374253797911,1.9635432555556043,1.9134015827800088,3.084544260497277
3.708923111038178,-0.8406104831460394,1.9630316368374312,1.910732909985766,3.0780338033581214
3.7078499072165116,-0.8430405040839668,1.9625079307645317,1.9080010172133672,3.0713721441530994
3.7067528283038427,-0.8455270587215812,1.961972240254982,1.9052064321933402,3.0645607318569814
3.705632120739206,-0.8480697175868904,1.9614246682268595,1.902349682656214,3.057601015444539
3.7044880309616346,-0.8506680512079023,1.9608653175982407,1.8994312963325166,3.0504944438905435
3.7033208054101623,-0.8533216301126249,1.960294291287203,1.8964518009527762,3.0432424661697657
3.702130690523822,-0.8560300248290656,1.9597116922118234,1.8934117242475215,3.0358465312569765
3.700917932741649,-0.8587928058852328,1.9591176232901781,1.89031159394728,3.0283080881269475
3.6996827785026754,-0.861609543809134,1.9585121874403448,1.8871519377825812,3.0206285857544493
3.698425474245935,-0.8644798091287771,1.9578954875804,1.8839332834839524,3.0128094731142534
3.697146266410462,-0.8674031723721701,1.957267626628421,1.8806561587819224,3.0048521991811303
3.6958454014352897,-0.8703792040673207,1.9566287075024844,1.8773210914070195,2.9967582129298522
3.6945231257594524,-0.8734074747422368,1.955978833120667,1.8739286090897718,2.9885289633351895
3.693179685821982,-0.8764875549249264,1.955318106401046,1.8704792395607075,2.980165899371913
3.6918153280619137,-0.8796190151433971,1.9546466302616983,1.8669735105503555,2.9716704700147942
3.6904302989182804,-0.8828014259256568,1.9539645076207008,1.8634119497892436,2.9630441242386043
3.6890248448301164,-0.8860343577997135,1.9532718413961307,1.8597950850079004,2.954288311018114
3.6875992122364547,-0.889317381293575,1.9525687345060643,1.8561234439368544,2.9454044793280945
3.686153647576329,-0.8926500669352491,1.951855289868579,1.852397554306633,2.9363940781433175
3.6846883972887725,-0.8960319852527437,1.9511316104017515,1.8486179438477655,2.927258556438553
3.68320370781282,-0.8994627067740665,1.950397799023659,1.8447851402907798,2.917999363188574
3.681699825587504,-0.9029418020272255,1.9496539586523784,1.8408996713662042,2.9086179473681493
3.6801769970518587,-0.9064688415402288,1.948900192205986,1.836962064804567,2.899115757952051
3.6786354686449174,-0.9100433958410838,1.9481366026025597,1.8329728483363967,2.889494243915051
3.677075486805714,-0.9136650354577984,1.947363292760176,1.8289325496922215,2.8797548542319187
3.675497297973282,-0.9173333309183808,1.9465803655969114,1.8248416966025698,2.8698990378774263
3.673901148586655,-0.9210478527508386,1.9457879240308436,1.82070081679797,2.8599282438263454
3.6722872850848662,-0.9248081714831796,1.944986070980049,1.8165104380089496,2.849843921053446
3.67065595390695,-0.9286138576434119,1.9441749093626044,1.8122710879660382,2.8396475185335
3.6690074014919394,-0.932464481759543,1.9433545420965874,1.8079832943997634,2.8293404852412776
3.6673418742788684,-0.936359614359581,1.9425250721000742,1.8036475850406535,2.8189242701515504
3.6656596187067705,-0.9402988259715337,1.9416866022911423,1.7992644876192367,2.80840032223909
3.6639608812146793,-0.944281687123409,1.9408392355878683,1.794834529866042,2.7977700904786666
3.6622459082416285,-0.9483077683432147,1.939983074908329,1.790358239511597,2.787035023845052
3.6605149462266513,-0.9523766401589587,1.939118223170602,1.7858361442864301,2.776196571313017
3.658768241608782,-0.9564878730986487,1.9382447832927636,1.7812687719210698,2.7652561818573322
3.6570060408270537,-0.9606410376902927,1.9373628581928906,1.7766566501460443,2.7542153044527704
3.6552285903205,-0.9648357044618985,1.9364725507890606,1.7720003066918824,2.7430753880741006
3.653436136528155,-0.969071443941474,1.9355739639993501,1.7673002692891118,2.7318378816960953
3.651628925889052,-0.973347826657027,1.9346672007418357,1.762557065668261,2.720504234293525
3.6498072048422245,-0.9776644231365654,1.933752363934595,1.7577712235598584,2.7090758948411606
3.6479712198267062,-0.9820208039080971,1.9328295564957048,1.7529432706944323,2.697554312313774
3.646121217281531,-0.9864165394996298,1.9318988813432416,1.748073734802511,2.6859409356861357
3.644257443645732,-0.9908512004391714,1.9309604413952828,1.7431631436146224,2.674237213933017
3.6423801453583433,-0.9953243572547297,1.930014339569905,1.7382120248612956,2.6624445960291885
3.6404895688583983,-0.9998355804743128,1.9290606787851852,1.7332209062730586,2.650564530949422
3.6385859605849302,-1.0043844406259281,1.9280995619592005,1.7281903155804395,2.638598467668488
3.6366695669769733,-1.0089705082375844,1.9271310920100277,1.7231207805139668,2.6265478551611587
3.634740634473561,-1.013593353837288,1.9261553718557436,1.7180128288041687,2.614414142402204
3.632799409513727,-1.0182525479530482,1.9251725044144257,1.7128669881815737,2.6021987783663953
3.630846138536505,-1.022947661112872,1.92418259260415,1.70768378637671,2.589903212028504
3.628881067980928,-1.027678263844768,1.9231857393429943,1.702463751120106,2.577528892363301
3.62690444428603,-1.0324439266767431,1.9221820475490348,1.6972074101422896,2.5650772683455574
3.624916513890845,-1.037244220136806,1.921171620140349,1.6919152911737898,2.5525497889500444
3.6229175232344057,-1.042078714752964,1.9201545600350136,1.6865879219451343,2.539947903151533
3.620907718755747,-1.046946981053225,1.9191309701511055,1.6812258301868517,2.527273059924794
3.618887346893901,-1.0518485895655976,1.9181009534067017,1.6758295436294703,2.5145267082445995
3.6168566540879024,-1.0567831108180885,1.9170646127198792,1.6703995900035185,2.5017102970857197
3.614815886776785,-1.0617501153387061,1.9160220510087145,1.6649364970395246,2.4888252754229256
3.6127652913995814,-1.0667491736554586,1.914973371191285,1.6594407924680166,2.475873092230989
3.610705114395326,-1.0717798562963534,1.9139186761856677,1.6539130040195233,2.4628551964846803
3.608635602203052,-1.0768417337893985,1.9128580689099393,1.6483536594245727,2.4497730371587707
3.6065570012617933,-1.0819343766626017,1.9117916522821765,1.6427632864136932,2.436628063228032
3.6044695580105834,-1.0870573554439709,1.9107195292204566,1.637142412717413,2.4234217236672353
3.602373518888456,-1.0922102406615137,1.9096418026428563,1.6314915660662606,2.4101554674511503
3.6002691303344445,-1.0973926028432384,1.9085585754674526,1.625811274190764,2.3968307435545495
3.5981566387875827,-1.1026040125171523,1.9074699506123227,1.620102064821452,2.383449000952203
3.596036290686904,-1.1078440402112641,1.906376030995543,1.6143644656888527,2.370011688618883
3.593908332471443,-1.1131122564535807,1.905276919535191,1.6085990045234944,2.35652025552936
3.5917730105802317,-1.1184082317721107,1.9041727191493432,1.6028062090559052,2.342976150658405
3.5896305714523047,-1.1237315366948613,1.9030635327560765,1.5969866070166137,2.329380822980789
3.5874812615266958,-1.1290817417498409,1.9019494632734684,1.591140726136148,2.3157357214712837
3.5853253272424377,-1.134458417465057,1.9008306136195952,1.5852690941450367,2.30204229510466
3.583163015038565,-1.1398611343685177,1.8997070867125339,1.5793722387738076,2.288301992855688
3.5809945713541107,-1.1452894629882309,1.8985789854703616,1.57345068775299,2.27451626369914
3.5788202426281086,-1.1507429738522041,1.8974464128111554,1.567504968813111,2.260686556609787
3.5766402752995927,-1.1562212374884453,1.8963094716529918,1.5615356096847,2.2468143205624
3.5744549158075953,-1.1617238244249624,1.8951682649139483,1.5555431380982845,2.2329010045317492
3.572264410591152,-1.1672503051897634,1.8940228955121015,1.549528081784393,2.218948057492607
3.5700690060892946,-1.172800250310856,1.892873466365528,1.543490968473554,2.2049569284197434
3.567868948741058,-1.178373230316248,1.8917200803923053,1.5374323258962959,2.1909290662879304
3.5656644849854753,-1.1839688157339472,1.89056284051051,1.5313526817831469,2.1768659200719385
3.56345586126158,-1.1895865770919616,1.889401849638219,1.525252563864635,2.1627689387465394
3.5612433240084056,-1.195226084918299,1.8882372106935095,1.5191324998712894,2.1486395712865036
3.5590271196649863,-1.2008869097409676,1.8870690265944583,1.5129930175336375,2.134479266666602
3.5568074946703554,-1.2065686220879746,1.885897400259142,1.5068346445822076,2.1202894738616065
3.554584695463546,-1.2122707924873282,1.8847224346056382,1.500657908747529,2.106071641846288
3.552358968483593,-1.2179929914670364,1.8835442325520233,1.4944633377601289,2.0918272195954173
3.5501305601695288,-1.2237347895551067,1.8823628970163744,1.4882514593505358,2.0775576560837656
3.547899716960387,-1.229495757279547,1.8811785309167681,1.4820228012492789,2.063264400286104
3.5456666852952026,-1.2352754651683655,1.8799912371712821,1.4757778911868853,2.0489489011772037
3.5434317116130076,-1.2410734837495698,1.8788011186979927,1.4695172568938846,2.0346126077318356
3.5411950423528364,-1.2468893835511679,1.877608278414977,1.4632414261008042,2.020256968924771
3.538956923953723,-1.2527227351011674,1.876412819240312,1.4569509265381722,2.005883433730781
3.5367176028547,-1.2585731089275762,1.8752148440920744,1.4506462859365181,1.991493451124636
3.5344773254948016,-1.2644400755584022,1.8740144558883414,1.4443280320263687,1.9770884700811087
3.5322363383130613,-1.2703232055216536,1.8728117575471896,1.4379966925382535,1.9626699395749685
3.529994887748513,-1.2762220693453377,1.8716068519866964,1.4316527952027007,1.9482393085809875
3.5277532202401902,-1.2821362375574625,1.8703998421249382,1.425296867750238,1.9337980260739367
3.5255115822271264,-1.2880652806860362,1.8691908308799925,1.4189294379113941,1.9193475410285865
3.523270220148355,-1.2940087692590665,1.8679799211699357,1.4125510334166973,1.9048893024197089
3.5210293804429096,-1.2999662738045612,1.8667672159128452,1.4061621819966756,1.8904247592220744
3.5187893095498244,-1.3059373648505275,1.8655528180267975,1.399763411381858,1.8759553604104546
3.516550253908133,-1.3119216129249742,1.8643368304298695,1.3933552493027723,1.86148255495962
3.514312459956868,-1.3179185885559088,1.8631193560401387,1.3869382234899468,1.8470077918443422
3.5120761741350637,-1.3239278622713395,1.8619004977756817,1.3805128616739102,1.8325325200393923
3.5098416428817543,-1.3299490045992732,1.8606803585545753,1.3740796915851903,1.8180581885195406
3.5076091126359725,-1.3359815860677189,1.8594590412948964,1.3676392409543157,1.8035862462595593
3.5053788298367525,-1.3420251772046836,1.8582366489147222,1.3611920375118147,1.7891181422342193
3.5031510409231275,-1.3480793485381757,1.8570132843321292,1.3547386089882154,1.7746553254182909
3.500925992334132,-1.3541436705962027,1.8557890504651948,1.3482794831140466,1.7601992447865455
3.4987039305087975,-1.3602177139067724,1.8545640502319958,1.3418151876198363,1.7457513493137546
3.4964851018861602,-1.3663010489978933,1.853338386550609,1.3353462502361126,1.7313130879746894
3.494269752905252,-1.3723932463975725,1.8521121623391115,1.3288731986934044,1.7168859097441205
3.4920581300051072,-1.378493876633818,1.8508854805155799,1.3223965607222397,1.7024712635968193
3.489850479624759,-1.3846025102346378,1.8496584439980914,1.3159168640531465,1.6880705985075573
3.487647048203242,-1.3907187177280398,1.848431155704723,1.3094346364166536,1.6736853634511046
3.4854480821795883,-1.3968420696420318,1.8472037185535517,1.3029504055432888,1.6593170074022325
3.483253827992833,-1.402972136504622,1.845976235462654,1.2964646991635809,1.6449669793357127
3.4810645320820086,-1.4091084888438172,1.8447488093501072,1.2899780450080585,1.630636728226316
3.4788804408861496,-1.4152506971876264,1.843521543133988,1.2834909708072488,1.6163277030488135
3.476701800844289,-1.4213983320640569,1.8422945397323731,1.2770040042916813,1.6020413527779764
3.4745288583954608,-1.4275509640011168,1.8410679020633403,1.2705176731918835,1.5877791263885759
3.472361859978698,-1.4337081635268134,1.8398417330449657,1.2640325052383838,1.5735424728553826
3.4702010520330346,-1.4398695011691551,1.8386161355953266,1.257549028161711,1.5593328411531684
3.4680466809975043,-1.4460345474561498,1.8373912126324998,1.2510677696923933,1.5451516802567031
3.4658989933111406,-1.4522028729158052,1.8361670670745622,1.2445892575609585,1.5310004391407592
3.463758235412978,-1.458374048076129,1.8349438018395907,1.2381140194979352,1.5168805667801073
3.461624653742048,-1.464547643465129,1.8337215198456625,1.2316425832338522,1.5027935121495177
3.4594984947373866,-1.4707232296108135,1.8325003240108544,1.2251754764992373,1.488740724223763
3.4573800048380257,-1.47690037704119,1.8312803172532433,1.2187132270246188,1.4747236519776132
3.455269430483,-1.4830786562842664,1.830061602490906,1.2122563625405252,1.4607437443858395
3.4531670181113423,-1.4892576378680502,1.8288442826419196,1.2058054107774847,1.4468024504232138
3.4510730141620867,-1.4954368923205499,1.827628460624361,1.1993608994660256,1.4329012190645054
3.4489876650742666,-1.5016159901697732,1.8264142393563068,1.1929233563366766,1.4190414992844875
3.4469112172869156,-1.5077945019437275,1.8252017217558345,1.1864933091199654,1.40522474005793
3.4448439172390675,-1.5139719981704216,1.8239910107410207,1.1800712855464204,1.3914523903596048
3.442786011369756,-1.520148049377862,1.8227822092299424,1.1736578133465703,1.3777258991642825
3.440737746118015,-1.5263222260940579,1.8215754201406764,1.1672534202509435,1.3640467154467335
3.4386993679228772,-1.5324940988470162,1.8203707463913,1.1608586339900677,1.35041628818173
3.4366711232233764,-1.5386632381647454,1.8191682908998896,1.1544739822944718,1.3368360663440426
3.434653258458547,-1.5448292145752527,1.8179681565845225,1.1480999928946838,1.3233074989084428
3.432646020067422,-1.5509915986065463,1.8167704463632754,1.1417371935212322,1.3098320348497012
3.4306496544890352,-1.5571499607866344,1.8155752631542255,1.135386111904645,1.2964111231425892
3.42866440816242,-1.5633038716435244,1.8143827098754495,1.1290472757754508,1.2830462127618778
3.4266905275266106,-1.5694529017052237,1.8131928894450244,1.122721212864178,1.2697387526823385
3.4247282590206396,-1.5755966214997412,1.8120059047810273,1.1164084509013543,1.256490191878741
3.4227778490835417,-1.5817346015550842,1.8108218588015348,1.1101095176175093,1.2433019793258582
3.420839544154349,-1.5878664123992605,1.809640854424624,1.10382494074317,1.23017556399846
3.4189135906720973,-1.593991624560278,1.808462994568372,1.0975552480088648,1.217112394871318
3.417000235075819,-1.6001098085661447,1.8072883821508554,1.0913009671451226,1.2041139209192036
3.4150997238045475,-1.6062205349448684,1.8061171200901514,1.0850626258824718,1.191181591116887
3.4132123032973167,-1.612323374224457,1.8049493113043367,1.0788407519514405,1.17831685443914
3.41133821999316,-1.618417896932918,1.803785058711488,1.0726358730825567,1.1655211598607338
3.4094777203311115,-1.6245036735982599,1.802624465229683,1.0664485170063491,1.1527959563564387
3.407631050750205,-1.6305802747484899,1.8014676337769984,1.060279211453346,1.1401426929010265
3.405798457689473,-1.6366472709116162,1.8003146672715105,1.0541284841540757,1.127562818469268
3.40398018758795,-1.6427042326156465,1.7991656686312967,1.0479968628390663,1.1150577820359344
3.402176486884669,-1.6487507303885884,1.798020740774434,1.041884875238846,1.1026290325757968
3.4003876020186645,-1.6547863347584506,1.7968799866189993,1.0357930490839435,1.090278019063626
3.3986137794289695,-1.6608106162532406,1.7957435090830693,1.029721912104887,1.0780061904741942
3.396855265554618,-1.6668231454009659,1.794611411084721,1.023671992032205,1.0658149957822711
3.3951123068346427,-1.672823492729634,1.7934837955420315,1.0176438165964252,1.0537058839626292
3.3933851497080787,-1.678811228767254,1.7923607653730778,1.0116379135280766,1.0416803039900386
3.391674040613958,-1.6847859240418324,1.7912424234959363,1.005654810557687,1.0297397048392691
3.3899792259913157,-1.690747149081378,1.7901288728286844,0.9996950354157852,1.017885535485095
3.388300952279184,-1.6966944744138983,1.789020216289399,0.9937591158328992,1.006119244902285
3.386639465916598,-1.7026274705674016,1.7879165567961568,0.9878475795395572,0.9944422820656111
3.38499501334259,-1.7085457080698951,1.786817997267035,0.9819609542662883,0.9828560959498431
3.3833678409961947,-1.7144487574493872,1.7857246406201104,0.9760997677436193,0.971362135529755
3.3817581953164453,-1.7203361892338844,1.7846365897734597,0.9702645477020801,0.9599618497801146
3.3801663227423746,-1.7262075739513967,1.78355394764516,0.964455821872198,0.9486566876756961
3.378592469713017,-1.7320624821299306,1.7824768171532885,0.958674117984502,0.9374480981912674
3.377036882667406,-1.7379004842974934,1.781405301215922,0.9529199637695198,0.9263375303016019
3.3754998080445766,-1.7437211509820947,1.7803395027511373,0.9471938869577794,0.9153264329814705
3.37398149228356,-1.7495240527117413,1.7792795246770112,0.9414964152798103,0.9044162552056436
3.3724821818233908,-1.755308760014441,1.778225469911621,0.9358280764661406,0.893608445948892
3.3710021231031027,-1.7610748434182015,1.7771774413730432,0.930189398247298,0.8829044541859874
3.3695415625617295,-1.7668218734510317,1.7761355419793552,0.9245809083538108,0.8723057288917002
3.368100746638305,-1.7725494206409382,1.7750998746486335,0.9190031345162079,0.8618137190408031
3.366679921771862,-1.7782570555159296,1.774070542298955,0.9134566044650163,0.8514298736080654
3.3652793344014347,-1.7839443486040132,1.7730476478483972,0.9079418459307663,0.8411556415682608
3.3638992309660565,-1.7896108704331972,1.7720312942150367,0.9024593866439845,0.830992471896157
3.3625398579047614,-1.79525619153149,1.7710215843169501,0.8970097543352005,0.8209418135665261
3.3612014616565826,-1.800879882426899,1.7700186210722149,0.8915934767349419,0.8110051155541407
3.3598842886605538,-1.8064815136474308,1.7690225073989074,0.886211081573737,0.8011838268337703
3.358588585355709,-1.8120606557210952,1.7680333462151052,0.8808630965821145,0.791479396380188
3.3573145981810812,-1.817616879175899,1.7670512404388847,0.8755500494906021,0.7818932731681629
3.3560625735757044,-1.8231497545398505,1.7660762929883234,0.8702724680297291,0.7724269061724676
3.3548327579786115,-1.8286588523409577,1.7651086067814976,0.8650308799300228,0.7630817443678715
3.3536253978288375,-1.8341437431072276,1.7641482847364844,0.859825812922012,0.7538592367291459
3.352440739565415,-1.8396039973666678,1.7631954297713608,0.854657794736225,0.7447608322310639
3.3512790296273782,-1.8450391856472879,1.762250144804204,0.8495273531031895,0.7357879798483942
3.3501405144537597,-1.8504488784770947,1.7613125327530905,0.844435015753435,0.7269421285559097
3.349025440483594,-1.855832646384096,1.7603826965360974,0.8393813104174892,0.7182247273283808
3.347934054155915,-1.8611900598962996,1.7594607390713017,0.8343667648258801,0.7096372251405785
3.3468666019097553,-1.8665206895417135,1.7585467632767804,0.8293919067091362,0.7011810709672739
3.3458233301841496,-1.8718241058483458,1.7576408720706103,0.8244572637977863,0.6928577137832379
3.3448044854181305,-1.8770998793442042,1.7567431683708679,0.8195633638223578,0.6846686025632422
3.343810314050732,-1.8823475805572962,1.7558537550956308,0.8147107345133806,0.6766151862820582
3.3428410625209883,-1.8875667800156295,1.7549727351629756,0.8098999036013812,0.6686989139144557
3.341896977267932,-1.892757048247213,1.7541002114909796,0.8051313988168884,0.6609212344352069
3.340978304730598,-1.897917955780054,1.7532362869977192,0.8004057478904316,0.6532835968190813
3.340085291348018,-1.9030490731421597,1.7523810646012716,0.7957234785525378,0.6457874500408529
3.339218183559227,-1.9081499708615388,1.7515346472197137,0.7910851185337355,0.638434243075289
3.3383772278032593,-1.9132202194661994,1.7506971377711225,0.7864911955645544,0.6312254248971643
3.337562670519147,-1.9182593894841484,1.7498686391735747,0.7819422373755207,0.6241624444812492
3.3367747581459244,-1.9232670514433938,1.7490492543451472,0.7774387716971645,0.6172467508023121
3.3360137371226255,-1.928242775871944,1.7482390862039174,0.7729813262600134,0.610479792835128
3.3352798538882826,-1.9331861332978069,1.747438237667962,0.7685704287945956,0.6038630195544634
3.3345733548819307,-1.9380966942489897,1.746646811655358,0.7642066070314391,0.5973978799350941
3.3338944865426026,-1.9429740292535007,1.7458649110841817,0.7598903887010733,0.5910858229517877
3.333243495309332,-1.9478177088393478,1.7450926388725108,0.7556223015340253,0.5849282975793182
3.332620627621153,-1.952627303534538,1.744330097938422,0.751402873260824,0.5789267527924538
3.3320261299170992,-1.9574023838670807,1.743577391199992,0.7472326316119982,0.5730826375659683
3.331460248636204,-1.9621425203649823,1.742834621575298,0.7431121043180753,0.5673974008746305
3.330923230217501,-1.9668472835562514,1.7421018919824167,0.739041819109584,0.5618724916932121
3.3304153211000234,-1.9715162439688958,1.7413793053394253,0.7350223037170525,0.556509358996486
3.3299367677228053,-1.976148972130923,1.7406669645644008,0.73105408587101,0.5513094517592219
3.32948781652488,-1.9807450385703416,1.7399649725754196,0.7271376933019831,0.5462742189561887
3.329068713945282,-1.9853040138151588,1.739273432290559,0.7232736537405016,0.5414051095621604
3.3286797064230433,-1.9898254683933825,1.7385924466278961,0.7194624949170936,0.5367035725519083
3.3283210403971992,-1.994308972833021,1.7379221185055074,0.7157047445622866,0.5321710569002027
3.3279929623067823,-1.998754097662081,1.73726255084147,0.7120009304066093,0.5278090115818141
3.3276957185908267,-2.003160413408572,1.736613846553861,0.7083515801805909,0.5236188855715147
3.3274295556883655,-2.007527490600501,1.735976108560757,0.7047572216147584,0.5196021278440739
3.327194720038433,-2.0118548997658747,1.7353494397802351,0.7012183824396405,0.5157601873742648
3.3269914580800615,-2.0161422114327037,1.7347339431303728,0.6977355903857658,0.5120945131368577
3.3268200162522867,-2.020388996128993,1.734129721529246,0.6943093731836627,0.5086065541066231
3.326680640994141,-2.0245948243827527,1.733536877894932,0.6909402585638589,0.5052977592583323
3.3265735787446578,-2.02875926672199,1.732955515145508,0.6876287742568841,0.5021695775667574
3.3264990759428708,-2.0328818936747113,1.732385736199051,0.6843754479932649,0.4992234580066679
3.3264573790278145,-2.036962275768926,1.7318276439736373,0.6811808075035302,0.496460849552836
3.3264487344385216,-2.040999983532642,1.7312813413873445,0.678045380518209,0.4938832011800338
3.3264733886140254,-2.044994587493866,1.730746931358249,0.6749696947678288,0.49149196186303
3.326531587993361,-2.0489456581806067,1.7302245168044283,0.6719542779829177,0.48928858057659586
3.32662357901556,-2.052852766120872,1.7297142006439588,0.6689996578940056,0.4872745062955053
3.3265831689595604,-2.0567154818426694,1.7292160857949177,0.666106362231619,0.4854511879945278
3.326244954835298,-2.060533375874007,1.7287302751753817,0.663274918726287,0.4838200746484329
3.3256115912865205,-2.0643060187428928,1.728256871703428,0.6605058551085381,0.48238261523199366
3.3246857329569863,-2.068032980977334,1.7277959782971335,0.6577996991089006,0.48114025871998045
3.3234700344904304,-2.0717138331053393,1.727347697874575,0.6551569784579017,0.48009445408716456
3.3219671505306163,-2.0753481456549157,1.7269121333538293,0.6525782208860718,0.47924665030831815
3.320179735721279,-2.0789354891540714,1.7264893876529737,0.6500639541239372,0.47859829635820983
3.3181104447061944,-2.0824754341308145,1.726079563690085,0.6476147059020272,0.47815084121161266
3.3157619321290586,-2.0859675511131526,1.7256827643832398,0.64523100395087,0.47790573384329704
3.313136852633672,-2.0894114106290935,1.7252990926505154,0.6429133760009946,0.47786442322803424
3.3102378608637544,-2.092806583206646,1.7249286514099889,0.6406623497829271,0.47802835834059554
3.307067611463074,-2.096152639373816,1.7245715435797369,0.6384784530271979,0.47839898815575044
3.3036287590753535,-2.0994491496586134,1.724227872077836,0.6363622134643354,0.47897776164827377
3.299923958344369,-2.102695684589044,1.7238977398223636,0.6343141588248671,0.4797661277929324
3.295955863913848,-2.105891814693118,1.7235812497313967,0.6323348168393206,0.4807655355645002
3.291727130427555,-2.109037110498841,1.723278504723012,0.6304247152382254,0.4819774339377476
3.2872404125292327,-2.112131142534223,1.7229896077152864,0.6285843817521102,0.48340327188744503
3.2824983648626382,-2.11517348132727,1.7227146616262972,0.6268143441115022,0.48504449838836283
3.277503642071485,-2.1181636974059908,1.7224537693741209,0.6251151300469291,0.48690256241527496
3.2722588987995813,-2.1211013612983933,1.7222070338768343,0.6234872672889216,0.48897891294294915
3.2667667896906156,-2.123986043532484,1.721974558052515,0.6219312835680055,0.4912749989461611
3.261029969388373,-2.1268173146362734,1.7217564448192393,0.6204477066147112,0.4937922693996759
3.25505109253659,-2.1295947451377657,1.7215527970950841,0.6190370641595657,0.49653217327826926
3.24883281377903,-2.132317905564973,1.7213637177981274,0.6176998839330974,0.4994961595567107
3.242377787759416,-2.1349863664459003,1.7211893098464446,0.6164366936658352,0.5026856772097714
3.2356886691215205,-2.1375996983085557,1.7210296761581136,0.6152480210883073,0.5061021752122246
3.2287681125090764,-2.140157471680949,1.7208849196512113,0.6141343939310415,0.509747102538836
3.221618772565847,-2.1426592570910845,1.720755143243814,0.6130963399245668,0.5136219081643825
3.2142433039355502,-2.1451046250669727,1.720640449853999,0.6121343867994113,0.5177280410636298
3.20664436126199,-2.1474931461366213,1.720540942399844,0.6112490622861029,0.5220669502113546
3.1988245991888515,-2.1498243908280377,1.7204567237994244,0.61044089411517,0.5266400845823247
3.190786672359925,-2.152097929669229,1.7203878969708182,0.6097104100171413,0.5314488931513113
3.182533235418946,-2.1543133331882047,1.720334564832102,0.609058137722545,0.5364948248930865
3.1740669430096773,-2.156470171912972,1.7202968303013528,0.6084846049619088,0.5417793287824182
3.16539044977584,-2.158568016371538,1.7202747962966476,0.6079903394657618,0.5473038537940829
3.15650641036121,-2.160606437091911,1.7202685657360632,0.6075758689646329,0.5530698489028474
3.1474174794095173,-2.162585004602099,1.7202782415376763,0.6072417211890477,0.5590787630834857
3.1381263115645286,-2.1645032894301095,1.720303926619564,0.6069884238695384,0.5653320453107664
3.12863556146997,-2.166360862103951,1.720345723899804,0.606816504736631,0.5718311445594635
3.1189478837696107,-2.1681572931516313,1.7204037362964721,0.606726491520853,0.5785775098043464
3.1090659331071855,-2.169892153101158,1.720478066727646,0.606718911952735,0.5855725900201838
3.098992364126447,-2.171565012480538,1.7205688181114018,0.6067942937628032,0.5928178341817523
3.0887298314711433,-2.17317544181778,1.720676093365817,0.6069531646815878,0.6003146912638169
3.0782809897850374,-2.1747230116408933,1.7207999954089686,0.6071960524396154,0.6080646102411524
3.06764849371185,-2.1762072924778835,1.7209406271589334,0.6075234847674156,0.6160690400885294
3.056834997895356,-2.1776278548567594,1.7210980915337886,0.6079359893955156,0.6243294297807198
3.0458431569792843,-2.178984269305528,1.7212724914516104,0.6084340940544446,0.6328472282924924
3.0346756256074077,-2.180276106352199,1.7214639298304764,0.6090183264747315,0.6416238845986202
3.0233350584234486,-2.1815029365247787,1.7216725095884633,0.6096892143869024,0.6506608476738753
3.0118241100711742,-2.1826643303512747,1.721898333643648,0.610447285521488,0.6599595664930229
3.0001454351943195,-2.183759858359696,1.7221415049141071,0.6112930676090156,0.6695214900308413
2.988301688436641,-2.1847890910780507,1.7224021263179186,0.6122270883800125,0.6793480672620982
2.9762955244418876,-2.1857515990343455,1.7226803007731584,0.6132498755650087,0.6894407471615667
2.9641295978538125,-2.1866469527565893,1.7229761311979037,0.6143619568945318,0.6998009787040145
2.951806563316145,-2.187474722772788,1.7232897205102315,0.61556386009911,0.7104302108642164
2.939329075472658,-2.1882344796109514,1.7236211716282184,0.6168561129092724,0.7213298926169385
2.9266997889670847,-2.1889257937990876,1.723970587469942,0.6182392430555459,0.7325014729369554
2.9139213584431953,-2.1895482358652028,1.724338070953479,0.6197137782684599,0.7439464007990377
2.9009964385446985,-2.1901013763373056,1.724723724996906,0.621280246278543,0.755666125177962
2.887927683915386,-2.190584785743404,1.7251276525183,0.622939174816322,0.7676620950484896
2.8747177491989717,-2.1909980346115066,1.7255499564357382,0.6246910916123274,0.779935759385399
2.8613692890392386,-2.19134069346962,1.7259907396672973,0.6265365243970842,0.7924885671634527
2.847884958079902,-2.1916123328457524,1.7264501051310543,0.6284760009011245,0.8053219673574326
2.8342674109647277,-2.191812523267911,1.7269281557450862,0.630510048854974,0.8184374089421009
2.8205193023374626,-2.1919408352641057,1.7274249944274698,0.6326391959891629,0.831836340892238
2.8066432868418545,-2.191996839362342,1.727940724096282,0.6348639700342171,0.8455202121826026
2.7926420191216472,-2.1919801060906288,1.7284754476696,0.6371848987206676,0.859490471787975
2.778518153820613,-2.1918902059769745,1.7290292680655004,0.6396025097790412,0.8737485686831281
2.764274345582457,-2.1917267095493864,1.7296022882020603,0.6421173309398664,0.8882959518428244
2.749913249050973,-2.191489187335872,1.7301946109973567,0.6447298899336702,0.9031340702418387
2.735437518869883,-2.1911772098644393,1.7308063393694664,0.6474407144909851,0.9182643728549458
2.720849809682946,-2.190790347663097,1.7314375762364662,0.6502503323423339,0.9336883086569134
2.7061527761338944,-2.190328171259853,1.7320884245164334,0.6531592712182483,0.9494073266225129
2.691349072866508,-2.1897902511827128,1.7327589871274447,0.6561680588492567,0.9654228757265138
2.6764413545244956,-2.1891761579596865,1.733449366987577,0.6592772229658856,0.9817364049436925
2.6614322757516398,-2.188485462118781,1.7341596670149073,0.6624872912986652,0.9983493632488152
2.6463244911916775,-2.187717734188006,1.7348899901275123,0.6657987915781236,1.0152631996166512
2.6311206554883775,-2.186872544695366,1.7356404392434692,0.6692122515347885,1.0324793630219808
2.6158234232854305,-2.185949464168872,1.7364111172808552,0.6727281988991871,1.0499993024395629
2.6004354492266444,-2.1849480631365306,1.7372021271577465,0.6763471614018486,1.0678244668441792
2.584959387955738,-2.183867912126349,1.7380135717922207,0.6800696667733024,1.085956305210594
2.5693978941164772,-2.182708581666336,1.7388455541023542,0.6838962427440767,1.1043962665135822
2.553753622352602,-2.1814696422844984,1.7396981770062245,0.6878274170446979,1.1231457997279115
2.538029227307849,-2.180150664508846,1.7405715434219076,0.6918637174056963,1.1422063538283584
2.52222736362598,-2.1787512188673848,1.7414657562674813,0.6960056715575984,1.1615793777896872
2.506350685950757,-2.1772708758881225,1.7423809184610228,0.7002538072309337,1.181266320586671
2.4904018489258988,-2.1757092060990693,1.7433171329206079,0.7046086521562307,1.2012686311940843
2.4743835071951708,-2.17406578002823,1.744274502564314,0.7090707340640172,1.221587758586697
2.4582983154023204,-2.1723401682036156,1.7452531303102186,0.7136405806848218,1.2422251517392784
2.4421489281911093,-2.170531941153231,1.7462531190763981,0.7183187197491723,1.2631822596266034
2.425938000205278,-2.168640669405085,1.7472745717809293,0.723105678987598,1.2844605312234378
2.4096681860885525,-2.1666659234871872,1.7483175913418894,0.7280019861306268,1.3060614155045531
2.393342140484709,-2.1646072739275435,1.7493822806773554,0.7330081689087855,1.327986361444724
2.3769625180374803,-2.1624642912541616,1.750468742705404,0.7381247550526053,1.35023681801872
2.3605319733906285,-2.1602365459950508,1.751577080344112,0.7433522722926131,1.372814234201316
2.344053161187894,-2.1579236086782183,1.752707396511557,0.7486912483593358,1.3957200589672762
2.3275287360730204,-2.155525049831672,1.7538597941258152,0.7541422109833036,1.4189557412913736
2.3109613526897697,-2.1530404399834193,1.7550343761049638,0.7597056878950443,1.442522730148383
2.2943536656818857,-2.150469349661468,1.7562312453670796,0.7653822068250857,1.4664224745130703
2.2777083296930947,-2.1478113493938262,1.7574505048302398,0.7711722955039564,1.4906564233602122
2.2610279993671973,-2.145066009708503,1.7586922574125214,0.7770764816621849,1.5152260256645746
2.244315329347902,-2.1422329011335033,1.7599566060320007,0.7830952930302999,1.5401327304009342
2.2275729742789387,-2.139311594196838,1.7612436536067553,0.7892292573388291,1.5653779865440551
2.210803588804122,-2.1363016594265143,1.7625535030548618,0.7954789023183011,1.5909632430687122
2.194009827567143,-2.1332026673505387,1.7638862572943974,0.8018447556992445,1.6168899489496802
2.177194345211781,-2.1300141884969204,1.7652420192434386,0.8083273452121871,1.6431595531617216
2.1603597963817585,-2.126735793393665,1.7666208918200628,0.8149271985876556,1.66977350467962
2.143508835720855,-2.123367052568783,1.7680229779423464,0.8216448435561814,1.6967332524781344
2.1266441178728,-2.1199075365502824,1.7694483805283665,0.8284808078482921,1.7240402455320378
2.109768297481331,-2.116356815866169,1.7708972024962004,0.8354356191945156,1.751695932816105
2.0928840291902198,-2.112714461044452,1.7723695467639249,0.8425098053253786,1.7797017633051073
2.0759939676432175,-2.1089800426131378,1.7738655162496166,0.8497038939714114,1.8080591859738178
2.05910076748404,-2.105153131100236,1.7753852138713526,0.857018412863142,1.8367696497970023
2.0422070833564803,-2.1012332970337537,1.77692874254721,0.8644538897310978,1.865834603749434
2.025315569904258,-2.0972201109416986,1.7784962051952653,0.8720108523058094,1.8952554968058806
2.0084288817711275,-2.0931131433520784,1.7800877047335961,0.8796898283178018,1.9250337779411186
1.9915496736008507,-2.088911964792902,1.7817033440802788,0.8874913454976054,1.955170896129916
1.9746806000371393,-2.084616145792177,1.7833432261533906,0.895415931575748,1.985668300347049
1.95782431572378,-2.0802252568779096,1.785007453871008,0.903464114282758,2.0165274395672785
1.9409834753045132,-2.075738868578111,1.7866961301512083,0.911636421349165,2.0477497627653864
1.9241607334230864,-2.071156551420784,1.7884093579120686,0.9199333805054941,2.079336718916137
1.9073587447232399,-2.0664778759339404,1.7901472400716656,0.9283555194822766,2.1112897569943065
1.890580163848714,-2.0617024126455883,1.791909879548076,0.9369033660100401,2.1436103259746577
1.8738276454432992,-2.0568297320837337,1.793697379259377,0.9455774478193115,2.1762998748319724
1.8571038441506929,-2.0518594047763834,1.795509842123645,0.9543782926406212,2.2093598525410165
1.840411414614664,-2.046791001251549,1.7973473710589583,0.9633064282044961,2.242791708076558
1.8237530114789884,-2.0416240920372353,1.7992100689833923,0.9723623822414664,2.276596890413371
1.8071312893873674,-2.0363582476614512,1.8010980388150246,0.9815466824820565,2.310776848526226
1.790548902983577,-2.0309930386522037,1.8030113834719323,0.9908598566567983,2.345333031389897
1.7740085069113611,-2.0255280355375023,1.8049502058721922,1.0003024324962189,2.380266887979154
1.757512755814485,-2.019962808845353,1.806914608933881,1.0098749377308467,2.4155798672687645
1.7410643043366782,-2.0142969291037662,1.8089046955750758,1.0195779000912104,2.451273418233498
1.7246658071216672,-2.0085299668407464,1.8109205687138534,1.0294118473078377,2.4873489898481367
1.7083199188132454,-2.002661492584304,1.8129623312682908,1.0393773071112573,2.5238080310874373
1.6920292940551462,-1.9966910768624464,1.815030086156465,1.049474807231995,2.5606519909261856
1.6757965874911065,-1.990618290203181,1.817123936296453,1.0597048754005867,2.5978823183391384
1.6596244537648666,-1.9844427031345155,1.8192439846063317,1.070068039347552,2.6355004623010743
1.64351554752022,-1.9781638861844577,1.821390334004178,1.080564826803423,2.6735078717867715
1.6274725234008898,-1.9717814098810171,1.8235630874080686,1.0911957654987274,2.7119059957709872
1.6114980360505982,-1.965294844752198,1.82576234773608,1.101961383163994,2.7506962832284962
1.5955947401131318,-1.958703761326011,1.8279882179062907,1.1128622075297532,2.7898801831340805
1.5797652902322206,-1.9520077301304646,1.8302408008367765,1.1238987663265272,2.8294591444625006
1.5640123410516118,-1.945206321693564,1.8325201994456137,1.135071587284851,2.869434616188528
1.5483385472150673,-1.9382991065433197,1.8348265166508808,1.1463811981352503,2.90980804728693
1.5327465633663309,-1.9312856552077386,1.8371598553706536,1.1578281266082513,2.9495753017213246
1.5172390441491572,-1.9241655382148277,1.8395203185230098,1.1694129004343852,2.986896884183011
1.501818644207276,-1.9169383260925956,1.8419080090260254,1.1811360473441797,3.021821434548656
1.4864880181844313,-1.9096035893690502,1.8443230297977782,1.1929980950681607,3.054397592696546
1.4712498207244096,-1.9021608985721992,1.8467654837563445,1.2049995713368604,3.0846739985040585
1.4561067064709405,-1.8946098242300495,1.8492354738198011,1.2171410038808057,3.112699291848344
1.441061330067761,-1.8869499368706109,1.8517331029062258,1.2294229204305234,3.13852211260712
1.4261163461586293,-1.8791808070218892,1.8542584739336954,1.2418458487165447,3.1621911006575374
1.4112744093872749,-1.871302005211895,1.856811689820286,1.2544103164693947,3.1837548958772004
1.3965381743974774,-1.8633131019686324,1.8593928534840751,1.2671168514196038,3.2032621381436
1.3819102958329808,-1.855213667820112,1.8620020678431395,1.279965981297699,3.2207614673346825
1.367393428337536,-1.8470032732943427,1.864639435815556,1.2929582338342094,3.2363015233264605
1.3529902265548657,-1.8386814889193275,1.867305060319402,1.306094136759663,3.249930945998244
1.338703345128728,-1.8302478852230797,1.8699990442727539,1.3193742178045884,3.2616983752260467
1.3245354387028812,-1.8217020327336035,1.8727214905936889,1.332799004699515,3.271652450888041
1.3104891619210832,-1.8130435019789086,1.875472502200284,1.346369025174968,3.279841812861946
1.2965671694270569,-1.8042718634870027,1.878252182010616,1.3600848069614786,3.28631510102457
1.2827721158645744,-1.795386687785892,1.8810606329427615,1.3739468777895736,3.2911209552527225
1.2691066558773798,-1.7863875454035876,1.8838979579147983,1.3879557653897843,3.294308015426168
1.2555734441092028,-1.7772740068680948,1.8867642598448022,1.402111997492634,3.2959249214205784
1.2421751352038228,-1.7680456427074196,1.8896596416508509,1.416416101828653,3.296020313113104
1.2289143838049483,-1.758702023449576,1.8925842062510212,1.4308686061283726,3.2946428303825996
1.215793844556373,-1.749242719622564,1.89553805656339,1.4454700381223171,3.2918411131053062
1.2028161721018051,-1.7396673017543982,1.8985212955060342,1.4602209255410177,3.287663801159283
1.1899840210850243,-1.7299753403730849,1.9015340259970306,1.4751217961150012,3.2821595344219077
1.1773000461497674,-1.7201664060066273,1.9045763509544567,1.490173177574797,3.2753769527711256
1.1647669019397995,-1.7102400691830395,1.9076483732963885,1.5053755976509313,3.26736469608295
1.1523872430988291,-1.7001959004303266,1.9107501959409037,1.5207295840739352,3.258171404236464
1.1401637242706286,-1.6900334702764948,1.9138819218060785,1.5362356645743338,3.247845717108362
1.128099000098949,-1.679752349249556,1.9170436538099906,1.5518943668826566,3.2364362745761355
1.1161957252275343,-1.669352107877513,1.9202354948707165,1.567706218729433,3.223991716517048
1.1044565543001568,-1.658832316688378,1.9234575479063336,1.5836717478451936,3.2105606828096143
1.0928841419605178,-1.648192546210157,1.926709915834918,1.5997914819604615,3.196191813329733
1.0814811428523967,-1.6374323669708586,1.9299927015745473,1.616065948805768,3.180933747955578
1.0702502116195447,-1.6265513494984898,1.933306008043298,1.6324956761116391,3.164835126565208
1.0591940029057056,-1.6155490643210593,1.9366499381592475,1.6490811916086061,3.147944589034637
1.0483151713546306,-1.6044250819665749,1.9400245948404722,1.6658230230271984,3.1303107752431742
1.0376163716100706,-1.5931789729630408,1.9434300810050498,1.6827216980979403,3.1119823250674017
1.027100258315727,-1.5818103078384702,1.9458494040450205,1.699777744551361,3.093007878383787
1.0167694861154146,-1.570318657120871,1.946266152553335,1.716991690117987,3.073436075071072
1.0066267096528705,-1.5587035913382454,1.944771952209976,1.7343640625283525,3.053315555006975
0.9966745835718243,-1.546964681018606,1.9414584286946592,1.7518953895129838,3.0326949580673954
0.986915762516027,-1.5351014966899603,1.9364172076857358,1.769586198802405,3.0116229241308474
0.9773529011292013,-1.5231136088803128,1.9297399148597378,1.7874370181271493,2.9901480930750495
0.9679886540551621,-1.5110005881176756,1.9215181758979725,1.8054483752177424,2.968319104776697
0.9588256759376179,-1.4987620049300538,1.9118436164778814,1.8236207978047139,2.9461845991140763
0.9498666214202913,-1.4863974298454572,1.9008078622782705,1.8419548136185915,2.923793215963542
0.9411141451469902,-1.4739064333918916,1.88850253897931,1.8604509503898994,2.901193595204404
0.9325709017614372,-1.461288586097366,1.8750192722573047,1.879109735849176,2.8784343767121072
0.924239545907362,-1.4485434584898895,1.86044968779197,1.89793169772694,2.855564200364938
0.9161227322285086,-1.4356706210974668,1.8448854112634763,1.9169173637537265,2.8326317060405017
0.9082231153686919,-1.422669644448109,1.8284180683488103,1.9360672616600576,2.8096855336160615
0.9005433499715778,-1.4095400990698241,1.8111392847263232,1.9553819191764648,2.786774322968654
0.8930860906809599,-1.3962815554906136,1.7931406860764127,1.9748618640334792,2.763946713976793
0.885853992140575,-1.3828935842384942,1.7745138980767479,1.994507623961625,2.7412513465174015
0.8788497089942027,-1.3693757558414656,1.7553505464072714,2.014319726691432,2.718736860467857
0.872075895885537,-1.355727640827543,1.735742256744743,2.0342986999534256,2.6964518957053087
0.8655352074583718,-1.3419488097247294,1.7157806547688779,2.0544450714781393,2.6744450921079306
0.8592302983564011,-1.3280388330610355,1.6955573661580274,2.074759368996099,2.6527650895520765
0.8531638232234613,-1.3139972813644674,1.675164016593044,2.09524212023783,2.6314605279169427
0.8473384367032111,-1.2998237251630336,1.654692231748868,2.1158938529338682,2.6105800470788836
0.8417567934394512,-1.285517734984741,1.6342336373063517,2.1367150948147335,2.5901722869145942
0.8364215480759327,-1.271078881357596,1.613879858944756,2.157706373610961,2.5702858873033847
0.8313353552563783,-1.256506734809614,1.59372252234175,2.1788682170530747,2.5509694881214955
0.8265008696245317,-1.2418008658687913,1.573853253177731,2.2002011528716006,2.532271729245849
0.8219207458241797,-1.2269608450631466,1.554363677127867,2.2217057087970753,2.5142412505559832
0.8175976384990378,-1.2119862429206822,1.53534541987392,2.2433824125600212,2.4969266919270012
0.8135342022928782,-1.196876629969406,1.5168901070946958,2.265231791890968,2.480376693237531
0.8097330918494023,-1.1816315767373275,1.499089364466954,2.287254374520443,2.464639894365291
0.8061969618124252,-1.1662506537524564,1.4820348176706375,2.309450688178976,2.4497649351874315
0.8029284668256764,-1.1507334315427933,1.4658180923847794,2.3318212605970947,2.4358004555809885
0.7999302615328858,-1.1350794806363513,1.4505308142886406,2.354366619505323,2.4227950954239077
0.7972050005777831,-1.1246239895699546,1.4362646090578437,2.3770872926342017,2.4107974945933393
0.7947553386041406,-1.1238511087940424,1.4231111023739231,2.399983807714248,2.399856292967229
0.7925839302557307,-1.1307394504692638,1.41116191991523,2.42305669247599,2.390020130422954
0.7906934301762831,-1.143267626845045,1.400508687359661,2.473840767983347,2.38133764683721
0.7890864930095347,-1.15941425015626,1.3912430303864767,2.5631373532814905,2.373857482088283
0.7877657733992436,-1.177157932666887,1.3834565746740282,2.6740614734299015,2.367628276053324
0.7867339259891608,-1.194477286633628,1.3772409459013488,2.7897281535551883,2.362698668609937
0.7859936054230232,-1.209350924298633,1.3726877697479267,2.893252418114571,2.359117299635045
0.7855474663446103,-1.219757457911328,1.369888671891431,2.967749292263761,2.3569328090070485
0.7853981633976304,-1.2236754997211392,1.3689352780099853,2.996333800285356,2.35619383660287
