oscarkremer/mentor-optimization/notebooks/traject_2/adaptive/angles_11.csv
theta1,theta2,theta3,theta4,theta5
3.7295952571373574,-0.7943678438589166,1.973043134264813,1.9629173631838936,3.2059965904706873
3.7295786783233904,-0.7944041990979456,1.9730111701340474,1.9628760781351298,3.2057370474040674
3.729529106174177,-0.794512978500371,1.9729165884908224,1.9627525748091905,3.204961889837554
3.729446787128752,-0.7946937525942006,1.9727613554587462,1.9625473809366039,3.2036763252211653
3.7293319676261483,-0.7949460919074425,1.972547437161426,1.9622610242478986,3.201885561004921
3.7291848941054004,-0.7952695669681045,1.97227679972247,1.9618940324736027,3.19959480463884
3.729005813005541,-0.7956637483041941,1.9719514092654857,1.9614469333442446,3.1968092635729404
3.7287949707656045,-0.7961282064437196,1.9715732319140813,1.9609202545903526,3.1935341452572414
3.7285526138246237,-0.7966625119146886,1.9711442337918643,1.9603145239424549,3.189774657141762
3.7282789886216325,-0.7972662352451091,1.9706663810224427,1.95963026913108,3.185536006676521
3.7279743415956648,-0.7979389469629888,1.970141639729424,1.9588680178867561,3.1808234013115375
3.727638919185754,-0.7986802175963357,1.9695719760364165,1.9580282979400114,3.1756420484968295
3.7272729678309333,-0.7994896176731575,1.9689593560670273,1.9571116370213748,3.1699971556824176
3.726876733970237,-0.8003667177214622,1.9683057459448647,1.956118562861374,3.1638939303183187
3.7264504640426988,-0.8013110882692576,1.9676131117935367,1.9550496031905373,3.1573375798545533
3.7259944044873516,-0.8023222998445515,1.9668834197366505,1.9539052857393933,3.150333311741139
3.7255088017432296,-0.8033999229753518,1.966118635897814,1.9526861382384704,3.142886333428095
3.724993902249366,-0.8045435281896662,1.9653207264006354,1.9513926884182964,3.1350018523654413
3.724449952444795,-0.8057526860155029,1.964491657368722,1.9500254640094001,3.1266850760031955
3.7238771987685495,-0.8070269669808694,1.9636333949256823,1.9485849927423098,3.117941211791377
3.723275887659664,-0.8083659416137738,1.9627479051951235,1.9470718023475537,3.108775467180004
3.7226462655571715,-0.8097691804422238,1.9618371543006536,1.9454864205556601,3.0991930496190965
3.721988578900105,-0.8112362539942274,1.9609031083658803,1.9438293750971571,3.0891991665586724
3.7213030741274995,-0.8127667327977922,1.9599477335144118,1.9421011937025732,3.078799025448751
3.720589997678388,-0.8143601873809263,1.9589729958698552,1.940302404102437,3.0679978337393514
3.7198495959918034,-0.8160161882716374,1.9579808615558187,1.9384335340272765,3.0568007988804924
3.7190821155067804,-0.8177343059979334,1.9569732966959101,1.9364951112076199,3.0452131283221924
3.7182878026623523,-0.8195141110878222,1.955952267413737,1.9344876633739958,3.0332400295144706
3.7174669038975523,-0.8213551740693116,1.954919739832908,1.9324117182569325,3.0208867099073458
3.7166196656514146,-0.8232570654704094,1.9538776800770294,1.930267803586958,3.0081583769508367
3.715746334362972,-0.8252193558191235,1.9528280542697105,1.9280564470946011,2.995060238094963
3.7148471564712593,-0.827241615643462,1.9517728285345581,1.9257781765103896,2.981597500789742
3.713922378415309,-0.8293234154714323,1.950713968995181,1.9234335195648522,2.9677753724851943
3.7129722466341555,-0.8314643258310426,1.9496534417751856,1.9210230039885172,2.953599060631338
3.7119970075668323,-0.8336639172503005,1.9485932129981807,1.9185471575119128,2.9390737726781917
3.710996907652372,-0.8359217602572141,1.947535248787774,1.9160065078655673,2.9242047160757747
3.70997219332981,-0.8382374253797911,1.946481515267573,1.9134015827800088,2.9089970982741056
3.708923111038178,-0.8406104831460394,1.9454339785611856,1.910732909985766,2.8934561267232035
3.7078499072165116,-0.8430405040839668,1.9443946047922198,1.9080010172133672,2.8775870088730873
3.7067528283038427,-0.8455270587215812,1.9433653600842833,1.9052064321933402,2.8613949521737756
3.705632120739206,-0.8480697175868904,1.9423482105609837,1.902349682656214,2.844885164075288
3.7044880309616346,-0.8506680512079023,1.9413451223459293,1.8994312963325166,2.8280628520276423
3.7033208054101623,-0.8533216301126249,1.9403580615627272,1.8964518009527762,2.8109332234808577
3.702130690523822,-0.8560300248290656,1.9393889943349856,1.8934117242475215,2.793501485884954
3.700917932741649,-0.8587928058852328,1.9384398867863122,1.89031159394728,2.7757728466899483
3.6996827785026754,-0.861609543809134,1.9375127050403151,1.8871519377825812,2.7577525133458614
3.698425474245935,-0.8644798091287771,1.9366094152206017,1.8839332834839524,2.7394456933027107
3.697146266410462,-0.8674031723721701,1.93573198345078,1.8806561587819224,2.720857594010516
3.6958454014352897,-0.8703792040673207,1.9348823758544575,1.8773210914070195,2.701993422919296
3.6945231257594524,-0.8734074747422368,1.9340625585552427,1.8739286090897718,2.682858387479069
3.693179685821982,-0.8764875549249264,1.9332744976767426,1.8704792395607075,2.6634576951398548
3.6918153280619137,-0.8796190151433971,1.9325201593425654,1.8669735105503555,2.643796553351671
3.6904302989182804,-0.8828014259256568,1.9318015096763188,1.8634119497892436,2.623880169564538
3.6890248448301164,-0.8860343577997135,1.9311205148016108,1.8597950850079004,2.6037137512284736
3.6875992122364547,-0.889317381293575,1.930479140842049,1.8561234439368544,2.583302505793497
3.686153647576329,-0.8926500669352491,1.929879353921241,1.852397554306633,2.5626516407096274
3.6846883972887725,-0.8960319852527437,1.9293231201627952,1.8486179438477655,2.5417663634268823
3.68320370781282,-0.8994627067740665,1.9288124056903189,1.8447851402907798,2.520651881395283
3.681699825587504,-0.9029418020272255,1.9283491766274201,1.8408996713662042,2.499313402064846
3.6801769970518587,-0.9064688415402288,1.9279353990977064,1.836962064804567,2.4777561328855917
3.6786354686449174,-0.9100433958410838,1.9275730392247856,1.8329728483363967,2.455985281307538
3.677075486805714,-0.9136650354577984,1.927264063132266,1.8289325496922215,2.4340060547807045
3.675497297973282,-0.9173333309183808,1.9270104369437548,1.8248416966025698,2.41182366075511
3.673901148586655,-0.9210478527508386,1.9268141267828602,1.82070081679797,2.3894433066807723
3.6722872850848662,-0.9248081714831796,1.9266770987731896,1.8165104380089496,2.366870200007712
3.67065595390695,-0.9286138576434119,1.9266013190383513,1.8122710879660382,2.344109548185947
3.6690074014919394,-0.932464481759543,1.9265887537019526,1.8079832943997634,2.321166558665496
3.6673418742788684,-0.936359614359581,1.9266413688876016,1.8036475850406535,2.298046438896378
3.6656596187067705,-0.9402988259715337,1.926761130718906,1.7992644876192367,2.274754396328613
3.6639608812146793,-0.944281687123409,1.926950005319474,1.794834529866042,2.251295638412218
3.6622459082416285,-0.9483077683432147,1.9272099588129126,1.790358239511597,2.227675372597213
3.6605149462266513,-0.9523766401589587,1.9274942837914517,1.7858361442864301,2.203898806333617
3.658768241608782,-0.9564878730986487,1.927757754110977,1.7812687719210698,2.1799711470714476
3.6570060408270537,-0.9606410376902927,1.9280004642329274,1.7766566501460443,2.1558976022607257
3.6552285903205,-0.9648357044618985,1.9282225086187423,1.7720003066918824,2.1316833793514687
3.653436136528155,-0.969071443941474,1.9284239817298614,1.7673002692891118,2.1073336857936957
3.651628925889052,-0.973347826657027,1.9286049780277232,1.762557065668261,2.082853729037426
3.6498072048422245,-0.9776644231365654,1.9287655919737683,1.7577712235598584,2.058248716532678
3.6479712198267062,-0.9820208039080971,1.9289059180294348,1.7529432706944323,2.033523855729471
3.646121217281531,-0.9864165394996298,1.9290260506561627,1.748073734802511,2.008684354077823
3.644257443645732,-0.9908512004391714,1.9291260843153917,1.7431631436146224,1.9837354190277545
3.6423801453583433,-0.9953243572547297,1.9292061134685605,1.7382120248612956,1.9586822580292829
3.6404895688583983,-0.9998355804743128,1.9292662325771088,1.7332209062730586,1.9335300785324279
3.6385859605849302,-1.0043844406259281,1.9293065361024755,1.7281903155804395,1.9082840879872076
3.6366695669769733,-1.0089705082375844,1.9293271185061003,1.7231207805139668,1.8829494938436417
3.634740634473561,-1.013593353837288,1.929328074249423,1.7180128288041687,1.8575315035517486
3.632799409513727,-1.0182525479530482,1.9293094977938816,1.7128669881815737,1.8320353245615473
3.630846138536505,-1.022947661112872,1.929271483600917,1.70768378637671,1.8064661643230566
3.628881067980928,-1.027678263844768,1.9292141261319675,1.702463751120106,1.7808292302862956
3.62690444428603,-1.0324439266767431,1.9291375198484728,1.6972074101422896,1.755129729901283
3.624916513890845,-1.037244220136806,1.9290417592118725,1.6919152911737898,1.7293728706180378
3.6229175232344057,-1.042078714752964,1.9289269386836052,1.6865879219451343,1.7035638598865783
3.620907718755747,-1.046946981053225,1.9287931527251114,1.6812258301868517,1.6777079051569241
3.618887346893901,-1.0518485895655976,1.9286404957978291,1.6758295436294703,1.6518102138790938
3.6168566540879024,-1.0567831108180885,1.9284690623631986,1.6703995900035185,1.6258759935031066
3.614815886776785,-1.0617501153387061,1.9282789468826593,1.6649364970395246,1.5999104514789808
3.6127652913995814,-1.0667491736554586,1.9280702438176496,1.6594407924680166,1.5739187952567355
3.610705114395326,-1.0717798562963534,1.9278430476296096,1.6539130040195233,1.547906232286389
3.608635602203052,-1.0768417337893985,1.9275974527799788,1.6483536594245727,1.5218779700179614
3.6065570012617933,-1.0819343766626017,1.9273335537301959,1.6427632864136932,1.4958392159014713
3.6044695580105834,-1.0870573554439709,1.9270514449417009,1.637142412717413,1.4697951773869369
3.602373518888456,-1.0922102406615137,1.9267512208759325,1.6314915660662606,1.4437510619243774
3.6002691303344445,-1.0973926028432384,1.9264329759943304,1.625811274190764,1.4177120769638119
3.5981566387875827,-1.1026040125171523,1.9260968047583344,1.620102064821452,1.391683429955259
3.596036290686904,-1.1078440402112641,1.925742801629383,1.6143644656888527,1.3656703283487373
3.593908332471443,-1.1131122564535807,1.925371061068916,1.6085990045234944,1.3396779795942666
3.5917730105802317,-1.1184082317721107,1.9249816775383728,1.6028062090559052,1.3137115911418642
3.5896305714523047,-1.1237315366948613,1.9245747454991922,1.5969866070166137,1.2877763704415512
3.5874812615266958,-1.1290817417498409,1.9241503594128144,1.591140726136148,1.2618775249433443
3.5853253272424377,-1.134458417465057,1.923708613740678,1.5852690941450367,1.2360202620972642
3.583163015038565,-1.1398611343685177,1.9232496029442225,1.5793722387738076,1.2102097893533281
3.5809945713541107,-1.1452894629882309,1.922773421484888,1.57345068775299,1.1844513141615554
3.5788202426281086,-1.1507429738522041,1.9222801638241127,1.567504968813111,1.1587500439719662
3.5766402752995927,-1.1562212374884453,1.921769924423337,1.5615356096847,1.1331111862345775
3.5744549158075953,-1.1617238244249624,1.9212427977439992,1.5555431380982845,1.1075399483994102
3.572264410591152,-1.1672503051897634,1.9206988782475394,1.549528081784393,1.082041537916481
3.5700690060892946,-1.172800250310856,1.920138260395397,1.543490968473554,1.0566211622358104
3.567868948741058,-1.178373230316248,1.9195610386490107,1.5374323258962959,1.0312840288074168
3.5656644849854753,-1.1839688157339472,1.9189673074698206,1.5313526817831469,1.0060353450813186
3.56345586126158,-1.1895865770919616,1.9183571613192651,1.525252563864635,0.9808803185075348
3.5612433240084056,-1.195226084918299,1.9177306946587847,1.5191324998712894,0.9558241565360852
3.5590271196649863,-1.2008869097409676,1.9170880019498175,1.5129930175336375,0.9308720666169878
3.5568074946703554,-1.2065686220879746,1.9164291776538038,1.5068346445822076,0.9060292562002616
3.554584695463546,-1.2122707924873282,1.9157543162321828,1.500657908747529,0.8813009327359256
3.552358968483593,-1.2179929914670364,1.9150635121463935,1.4944633377601289,0.8566923036739982
3.5501305601695288,-1.2237347895551067,1.9143568598578755,1.4882514593505358,0.8322085764644997
3.547899716960387,-1.229495757279547,1.9136344538280683,1.4820228012492789,0.8078549585574473
3.5456666852952026,-1.2352754651683655,1.9128963885184107,1.4757778911868853,0.7836366574028615
3.5434317116130076,-1.2410734837495698,1.912142758390343,1.4695172568938846,0.7595588804507589
3.5411950423528364,-1.2468893835511679,1.9113736579053031,1.4632414261008042,0.7356268351511597
3.538956923953723,-1.2527227351011674,1.9105891815247316,1.4569509265381722,0.7118457289540838
3.5367176028547,-1.2585731089275762,1.9097894237100677,1.4506462859365181,0.6882207693095481
3.5344773254948016,-1.2644400755584022,1.9089744789227499,1.4443280320263687,0.6647571636675735
3.5322363383130613,-1.2703232055216536,1.9081444416242184,1.4379966925382535,0.6414601194781775
3.529994887748513,-1.2762220693453377,1.907299406275912,1.4316527952027007,0.618334844191379
3.5277532202401902,-1.2821362375574625,1.9064394673392704,1.425296867750238,0.5953865452571976
3.5255115822271264,-1.2880652806860362,1.9055647192757332,1.4189294379113941,0.5726204301256512
3.523270220148355,-1.2940087692590665,1.9046752565467389,1.4125510334166973,0.5500417062467586
3.5210293804429096,-1.2999662738045612,1.9037711736137275,1.4061621819966756,0.5276555810705408
3.5187893095498244,-1.3059373648505275,1.9028525649381383,1.399763411381858,0.5054672620470151
3.516550253908133,-1.3119216129249742,1.90191952498141,1.3933552493027723,0.48348195662619897
3.514312459956868,-1.3179185885559088,1.9009721482049833,1.3869382234899468,0.46170487225811385
3.5120761741350637,-1.3239278622713395,1.900010529070296,1.3805128616739102,0.4401412163927776
3.5098416428817543,-1.3299490045992732,1.8990347620387888,1.3740796915851903,0.4187961964802085
3.5076091126359725,-1.3359815860677189,1.8980449415719,1.3676392409543157,0.39767501997042487
3.5053788298367525,-1.3420251772046836,1.8970411621310694,1.3611920375118147,0.3767828943134486
3.5031510409231275,-1.3480793485381757,1.8960235181777367,1.3547386089882154,0.35612502695929615
3.500925992334132,-1.3541436705962027,1.8949921041733402,1.3482794831140466,0.33570662535798634
3.4987039305087975,-1.3602177139067724,1.8939470145793207,1.3418151876198363,0.31553289695953923
3.4964851018861602,-1.3663010489978933,1.892888343857116,1.3353462502361126,0.2956090492139718
3.494269752905252,-1.3723932463975725,1.8918161864681662,1.3288731986934044,0.275940289571305
3.4920581300051072,-1.378493876633818,1.8907306368739112,1.3223965607222397,0.2565318254815563
3.489850479624759,-1.3846025102346378,1.8896317895357893,1.3159168640531465,0.2373888643947466
3.487647048203242,-1.3907187177280398,1.8885197389152404,1.3094346364166536,0.21851661376089204
3.4854480821795883,-1.3968420696420318,1.8873945794737041,1.3029504055432888,0.19992028103001358
3.483253827992833,-1.402972136504622,1.8862564056726192,1.2964646991635809,0.18160507365212863
3.4810645320820086,-1.4091084888438172,1.885105311973425,1.2899780450080585,0.16357619907725685
3.4788804408861496,-1.4152506971876264,1.8839413928375617,1.2834909708072488,0.14583886475541696
3.476701800844289,-1.4213983320640569,1.8827647427264673,1.2770040042916813,0.12839827813662774
3.4745288583954608,-1.4275509640011168,1.881575456101583,1.2705176731918835,0.11125964667090837
3.472361859978698,-1.4337081635268134,1.880373627424346,1.2640325052383838,0.0944281778082785
3.4702010520330346,-1.4398695011691551,1.8791593511561968,1.257549028161711,0.07790907899875421
3.4680466809975043,-1.4460345474561498,1.8779327217585753,1.2510677696923933,0.06170755769235736
3.4658989933111406,-1.4522028729158052,1.8766938336929195,1.2445892575609585,0.045828821339105374
3.463758235412978,-1.458374048076129,1.87544278142067,1.2381140194979352,0.030278077389017444
3.461624653742048,-1.464547643465129,1.8741796594032651,1.2316425832338522,0.015060533292112765
3.4594984947373866,-1.4707232296108135,1.8729045621021447,1.2251754764992373,0.00018139649840875904
3.4573800048380257,-1.47690037704119,1.8716175839787483,1.2187132270246188,-0.014354125542072715
3.455269430483,-1.4830786562842664,1.8703188194945146,1.2122563625405252,-0.02854082537931646
3.4531670181113423,-1.4892576378680502,1.869008363110884,1.2058054107774847,-0.042373495563301056
3.4510730141620867,-1.4954368923205499,1.867686309289295,1.1993608994660256,-0.05584692864400864
3.4489876650742666,-1.5016159901697732,1.8663527524911867,1.1929233563366766,-0.06895591717142047
3.4469112172869156,-1.5077945019437275,1.8650077871779995,1.1864933091199654,-0.081695253695516
3.4448439172390675,-1.5139719981704216,1.8636515078111715,1.1800712855464204,-0.09405973076627738
3.442786011369756,-1.520148049377862,1.8622840088521435,1.1736578133465703,-0.10604414093368675
3.440737746118015,-1.5263222260940579,1.8609053847623533,1.1672534202509435,-0.11764327674772446
3.4386993679228772,-1.5324940988470162,1.8595157300032412,1.1608586339900677,-0.12885193075837176
3.4366711232233764,-1.5386632381647454,1.8581151390362467,1.1544739822944718,-0.139664895515609
3.434653258458547,-1.5448292145752527,1.8567037063228082,1.1480999928946838,-0.15007696356941924
3.432646020067422,-1.5509915986065463,1.8552815263243665,1.1417371935212322,-0.16008292746978015
3.4306496544890352,-1.5571499607866344,1.853848693502359,1.135386111904645,-0.1696775797666774
3.42866440816242,-1.5633038716435244,1.8524053023182265,1.1290472757754508,-0.17885571301008962
3.4266905275266106,-1.5694529017052237,1.8509514472334083,1.122721212864178,-0.18761211974999714
3.4247282590206396,-1.5755966214997412,1.849487222709343,1.1164084509013543,-0.1959415925363821
3.4227778490835417,-1.5817346015550842,1.8480127232074708,1.1101095176175093,-0.20383892391922576
3.420839544154349,-1.5878664123992605,1.8465280431892301,1.10382494074317,-0.21129890644850846
3.4189135906720973,-1.593991624560278,1.8450332771160607,1.0975552480088648,-0.21831633267421324
3.417000235075819,-1.6001098085661447,1.8435285194494027,1.0913009671451226,-0.2248859951463178
3.4150997238045475,-1.6062205349448684,1.842013864650694,1.0850626258824718,-0.23100268641480604
3.4132123032973167,-1.612323374224457,1.840489407181375,1.0788407519514405,-0.23666119902965743
3.41133821999316,-1.618417896932918,1.8389552415028845,1.0726358730825567,-0.2418563255408568
3.4094777203311115,-1.6245036735982599,1.8374114620766622,1.0664485170063491,-0.2465828584983809
3.407631050750205,-1.6305802747484899,1.8358581633641478,1.060279211453346,-0.25083559045221193
3.405798457689473,-1.6366472709116162,1.8342954398267792,1.0541284841540757,-0.25460931395233466
3.40398018758795,-1.6427042326156465,1.8327233859259977,1.0479968628390663,-0.2578988215487241
3.402176486884669,-1.6487507303885884,1.831142096123241,1.041884875238846,-0.26069890579136334
3.4003876020186645,-1.6547863347584506,1.8295516648799488,1.0357930490839435,-0.263004359230238
3.3986137794289695,-1.6608106162532406,1.8279521866575617,1.029721912104887,-0.2648099744153214
3.396855265554618,-1.6668231454009659,1.8263437559175173,1.023671992032205,-0.2661105438966027
3.3951123068346427,-1.672823492729634,1.824726467121256,1.0176438165964252,-0.2669008602240579
3.3933851497080787,-1.678811228767254,1.823100414730217,1.0116379135280766,-0.26717571594767175
3.391674040613958,-1.6847859240418324,1.8214656932058395,1.005654810557687,-0.2669299036174184
3.3899792259913157,-1.690747149081378,1.8198223970095628,0.9996950354157852,-0.2661582157832889
3.388300952279184,-1.6966944744138983,1.8181706206028267,0.9937591158328992,-0.2648554449952565
3.386639465916598,-1.7026274705674016,1.81651045844707,0.9878475795395572,-0.2630163838033033
3.38499501334259,-1.7085457080698951,1.814842005003732,0.9819609542662883,-0.26063582475741587
3.3833678409961947,-1.7144487574493872,1.8131653547342519,0.9760997677436193,-0.2577085604075702
3.3817581953164453,-1.7203361892338844,1.8114806021000702,0.9702645477020801,-0.2542293833037492
3.3801663227423746,-1.7262075739513967,1.8097878415626247,0.964455821872198,-0.2501930859959307
3.378592469713017,-1.7320624821299306,1.808087167583356,0.958674117984502,-0.24559446103410298
3.377036882667406,-1.7379004842974934,1.8063786746237032,0.9529199637695198,-0.2404283009682402
3.3754998080445766,-1.7437211509820947,1.8046624571451046,0.9471938869577794,-0.23468939834832625
3.37398149228356,-1.7495240527117413,1.8029386096090012,0.9414964152798103,-0.22837254572434595
3.3724821818233908,-1.755308760014441,1.8012072264768308,0.9358280764661406,-0.22147253564627256
3.3710021231031027,-1.7610748434182015,1.7994684022100336,0.930189398247298,-0.21398416066409354
3.3695415625617295,-1.7668218734510317,1.797722231270049,0.9245809083538108,-0.2059022133277857
3.368100746638305,-1.7725494206409382,1.7959688081183158,0.9190031345162079,-0.19722148618733648
3.366679921771862,-1.7782570555159296,1.7942082272162738,0.9134566044650163,-0.1879367717927174
3.3652793344014347,-1.7839443486040132,1.7924405830253622,0.9079418459307663,-0.17804286269392122
3.3638992309660565,-1.7896108704331972,1.7906659700070204,0.9024593866439845,-0.16753455144091767
3.3625398579047614,-1.79525619153149,1.7888844826226882,0.8970097543352005,-0.15640663058369775
3.3612014616565826,-1.800879882426899,1.7870962153338037,0.8915934767349419,-0.14465389267223472
3.3598842886605538,-1.8064815136474308,1.785301262601807,0.886211081573737,-0.13227113025651427
3.358588585355709,-1.8120606557210952,1.7834997188881379,0.8808630965821145,-0.1192531358865132
3.3573145981810812,-1.817616879175899,1.781691678654235,0.8755500494906021,-0.105594702112219
3.3560625735757044,-1.8231497545398505,1.779877236361538,0.8702724680297291,-0.09129062148360845
3.3548327579786115,-1.8286588523409577,1.7780564864714863,0.8650308799300228,-0.0763356865506637
3.3536253978288375,-1.8341437431072276,1.776229523445519,0.859825812922012,-0.060724689863363324
3.352440739565415,-1.8396039973666678,1.7743964417450757,0.854657794736225,-0.0444524239716948
3.3512790296273782,-1.8450391856472879,1.7725573358315951,0.8495273531031895,-0.027513681425631376
3.3501405144537597,-1.8504488784770947,1.770712300166518,0.844435015753435,-0.00990325477516052
3.349025440483594,-1.855832646384096,1.768861429211282,0.8393813104174892,0.008384063429739186
3.347934054155915,-1.8611900598962996,1.7670048174273276,0.8343667648258801,0.027353480639085603
3.3468666019097553,-1.8665206895417135,1.7651425592760939,0.8293919067091362,0.04701020430290015
3.3458233301841496,-1.8718241058483458,1.76327474921902,0.8244572637977863,0.06735944187120069
3.3448044854181305,-1.8770998793442042,1.7614014817175452,0.8195633638223578,0.08840640079400153
3.343810314050732,-1.8823475805572962,1.7595228512331094,0.8147107345133806,0.11015628852132586
3.3428410625209883,-1.8875667800156295,1.7576389522271514,0.8098999036013812,0.1326143125031951
3.341896977267932,-1.892757048247213,1.7557498791611104,0.8051313988168884,0.1557856801896218
3.340978304730598,-1.897917955780054,1.7538557264964265,0.8004057478904316,0.17967559903063268
3.340085291348018,-1.9030490731421597,1.751956588694539,0.7957234785525378,0.20428927647624207
3.339218183559227,-1.9081499708615388,1.750052560216886,0.7910851185337355,0.22963191997646248
3.3383772278032593,-1.9132202194661994,1.748143735524908,0.7864911955645544,0.255708736981326
3.337562670519147,-1.9182593894841484,1.7462302090800446,0.7819422373755207,0.28252493494083986
3.3367747581459244,-1.9232670514433938,1.744312075343734,0.7774387716971645,0.31008572130503254
3.3360137371226255,-1.928242775871944,1.7423894287774164,0.7729813262600134,0.33839630352391303
3.3352798538882826,-1.9331861332978069,1.7404623638425312,0.7685704287945956,0.3674618890475063
3.3345733548819307,-1.9380966942489897,1.7385309750005167,0.7642066070314391,0.3972876853258338
3.3338944865426026,-1.9429740292535007,1.7365953567128132,0.7598903887010733,0.42787889980890625
3.333243495309332,-1.9478177088393478,1.7346556034408602,0.7556223015340253,0.4592407399467504
3.332620627621153,-1.952627303534538,1.7327118096460965,0.751402873260824,0.4913784131893806
3.3320261299170992,-1.9574023838670807,1.7307640697899616,0.7472326316119982,0.5242971269868182
3.331460248636204,-1.9621425203649823,1.7288124783338947,0.7431121043180753,0.5580020887890793
3.330923230217501,-1.9668472835562514,1.7268571297393358,0.739041819109584,0.5924985060461854
3.3304153211000234,-1.9715162439688958,1.7248981184677235,0.7350223037170525,0.6277915862081542
3.3299367677228053,-1.976148972130923,1.7229355389804974,0.73105408587101,0.6638865367250038
3.32948781652488,-1.9807450385703416,1.7209694857390971,0.7271376933019831,0.7007885650467554
3.329068713945282,-1.9853040138151588,1.7190000532049612,0.7232736537405016,0.7385028786234269
3.3286797064230433,-1.9898254683933825,1.7170273358395298,0.7194624949170936,0.7770346849050327
3.3283210403971992,-1.994308972833021,1.7150514281042422,0.7157047445622866,0.8163891913415977
3.3279929623067823,-1.998754097662081,1.713072424460537,0.7120009304066093,0.8565716053831398
3.3276957185908267,-2.003160413408572,1.711090419369855,0.7083515801805909,0.8975871344796786
3.3274295556883655,-2.007527490600501,1.7091055072936339,0.7047572216147584,0.939440986081225
3.327194720038433,-2.0118548997658747,1.7071177826933137,0.7012183824396405,0.9821383676378108
3.3269914580800615,-2.0161422114327037,1.7051273400303342,0.6977355903857658,1.0256844865994417
3.3268200162522867,-2.020388996128993,1.7031342737661341,0.6943093731836627,1.0700845504161478
3.326680640994141,-2.0245948243827527,1.7011386783621538,0.6909402585638589,1.1153437665379435
3.3265735787446578,-2.02875926672199,1.699140648279831,0.6876287742568841,1.161467342414845
3.3264990759428708,-2.0328818936747113,1.697140277980606,0.6843754479932649,1.2084604854968717
3.3264573790278145,-2.036962275768926,1.6951376619259184,0.6811808075035302,1.2563284032340505
3.3264487344385216,-2.040999983532642,1.6931328945772068,0.678045380518209,1.3050763030763903
3.3264733886140254,-2.044994587493866,1.6911260703959115,0.6749696947678288,1.3547093924739144
3.326531587993361,-2.0489456581806067,1.6891172838434707,0.6719542779829177,1.4052328788766388
3.32662357901556,-2.052852766120872,1.6871066293813244,0.6689996578940056,1.4566519697345868
3.3265831689595604,-2.0567154818426694,1.6850942014709125,0.666106362231619,1.5089718724977708
3.326244954835298,-2.060533375874007,1.683080094573673,0.663274918726287,1.562197794616221
3.3256115912865205,-2.0643060187428928,1.6810644031510467,0.6605058551085381,1.6163349435399503
3.3246857329569863,-2.068032980977334,1.6790472216644714,0.6577996991089006,1.671388526718971
3.3234700344904304,-2.0717138331053393,1.6770286445753877,0.6551569784579017,1.7273637516033098
3.3219671505306163,-2.0753481456549157,1.6750087663452344,0.6525782208860718,1.7842658256429793
3.320179735721279,-2.0789354891540714,1.6729876814354512,0.6500639541239372,1.8420999562880063
3.3181104447061944,-2.0824754341308145,1.6709654843074775,0.6476147059020272,1.9008713509883997
3.3157619321290586,-2.0859675511131526,1.6689422694227518,0.64523100395087,1.9605852171941933
3.313136852633672,-2.0894114106290935,1.666918131242714,0.6429133760009946,2.021246762355389
3.3102378608637544,-2.092806583206646,1.6648931642288034,0.6406623497829271,2.0828611939220245
3.307067611463074,-2.096152639373816,1.6628674628424598,0.6384784530271979,2.1454337193441013
3.3036287590753535,-2.0994491496586134,1.6608411215451215,0.6363622134643354,2.2089695460716428
3.299923958344369,-2.102695684589044,1.6588142347982293,0.6343141588248671,2.2734738815546756
3.295955863913848,-2.105891814693118,1.6567868970632214,0.6323348168393206,2.3389519332432016
3.291727130427555,-2.109037110498841,1.654759202801537,0.6304247152382254,2.405408908587262
3.2872404125292327,-2.112131142534223,1.6527312464746167,0.6285843817521102,2.472850015036858
3.2824983648626382,-2.11517348132727,1.6507031225438984,0.6268143441115022,2.541280460042021
3.277503642071485,-2.1181636974059908,1.6486749254708224,0.6251151300469291,2.6107054510527625
3.2722588987995813,-2.1211013612983933,1.6466467497168276,0.6234872672889216,2.6811301955191027
3.2667667896906156,-2.123986043532484,1.6446186897433537,0.6219312835680055,2.752559900891061
3.261029969388373,-2.1268173146362734,1.6425908400118396,0.6204477066147112,2.82499977461865
3.25505109253659,-2.1295947451377657,1.6405632949837257,0.6190370641595657,2.898455024151904
3.24883281377903,-2.132317905564973,1.6385361491204495,0.6176998839330974,2.971991000438429
3.242377787759416,-2.1349863664459003,1.6365094968834517,0.6164366936658352,3.0439954709461787
3.2356886691215205,-2.1375996983085557,1.634483432734172,0.6152480210883073,3.114480032375255
3.2287681125090764,-2.140157471680949,1.6324580511340483,0.6141343939310415,3.183456281425862
3.221618772565847,-2.1426592570910845,1.6304334465445212,0.6130963399245668,3.250935814798062
3.2142433039355502,-2.1451046250669727,1.628409713427029,0.6121343867994113,3.316930229192238
3.20664436126199,-2.1474931461366213,1.626386946243012,0.6112490622861029,3.3814511213082667
3.1988245991888515,-2.1498243908280377,1.624365239453909,0.61044089411517,3.44451008784646
3.190786672359925,-2.152097929669229,1.6223446875211598,0.6097104100171413,3.5061187255070223
3.182533235418946,-2.1543133331882047,1.620325384906203,0.609058137722545,3.5662886309900372
3.1740669430096773,-2.156470171912972,1.618307426070479,0.6084846049619088,3.6250314009957023
3.16539044977584,-2.158568016371538,1.616290905475426,0.6079903394657618,3.6823586322241653
3.15650641036121,-2.160606437091911,1.614275917582484,0.6075758689646329,3.738281921375581
3.1474174794095173,-2.162585004602099,1.6122625568530928,0.6072417211890477,3.7928128651501325
3.1381263115645286,-2.1645032894301095,1.6102509177486906,0.6069884238695384,3.8459630602479677
3.12863556146997,-2.166360862103951,1.608241094730718,0.606816504736631,3.8977441033692486
3.1189478837696107,-2.1681572931516313,1.6062331822606126,0.606726491520853,3.948167591214194
3.1090659331071855,-2.169892153101158,1.6042272747998154,0.606718911952735,3.9972451204828516
3.098992364126447,-2.171565012480538,1.6022234668097655,0.6067942937628032,4.044988287875455
3.0887298314711433,-2.17317544181778,1.6002218527519014,0.6069531646815878,4.0914086900921305
3.0782809897850374,-2.1747230116408933,1.5982225270876633,0.6071960524396154,4.136517923833132
3.06764849371185,-2.1762072924778835,1.5962255842784898,0.6075234847674156,4.180327585798501
3.056834997895356,-2.1776278548567594,1.594231118785821,0.6079359893955156,4.222849272688471
3.0458431569792843,-2.178984269305528,1.5922392250710957,0.6084340940544446,4.264094581203267
3.0346756256074077,-2.180276106352199,1.5902499975957536,0.6090183264747315,4.304075108042866
3.0233350584234486,-2.1815029365247787,1.588263530821234,0.6096892143869024,4.342802449907545
3.0118241100711742,-2.1826643303512747,1.586279919208976,0.610447285521488,4.380288203497457
3.0001454351943195,-2.183759858359696,1.5842992572204189,0.6112930676090156,4.416543965512858
2.988301688436641,-2.1847890910780507,1.5823216393170025,0.6122270883800125,4.451581332653703
2.9762955244418876,-2.1857515990343455,1.5803471599601657,0.6132498755650087,4.485411901620338
2.9641295978538125,-2.1866469527565893,1.5783759136113484,0.6143619568945318,4.5180472691128415
2.951806563316145,-2.187474722772788,1.576407994731989,0.61556386009911,4.549499031831388
2.939329075472658,-2.1882344796109514,1.5744434977835273,0.6168561129092724,4.57977878647614
2.9266997889670847,-2.1889257937990876,1.5724825172274033,0.6182392430555459,4.608898129747246
2.9139213584431953,-2.1895482358652028,1.5705251475250557,0.6197137782684599,4.636868658344909
2.9009964385446985,-2.1901013763373056,1.5685714831379238,0.621280246278543,4.663701968969207
2.887927683915386,-2.190584785743404,1.5666216185274475,0.622939174816322,4.689409658320429
2.8747177491989717,-2.1909980346115066,1.564675648155065,0.6246910916123274,4.714003323098581
2.8613692890392386,-2.19134069346962,1.562733666482217,0.6265365243970842,4.737494560004052
2.847884958079902,-2.1916123328457524,1.5607957679703421,0.6284760009011245,4.759894965736734
2.8342674109647277,-2.191812523267911,1.5588620470808796,0.630510048854974,4.781216136996974
2.8205193023374626,-2.1919408352641057,1.556932598275269,0.6326391959891629,4.801469670484892
2.8066432868418545,-2.191996839362342,1.5550075160149497,0.6348639700342171,4.820667162900662
2.7926420191216472,-2.1919801060906288,1.5530868947613614,0.6371848987206676,4.838820210944348
2.778518153820613,-2.1918902059769745,1.551170828975943,0.6396025097790412,4.855940411316169
2.764274345582457,-2.1917267095493864,1.5492594131201334,0.6421173309398664,4.8720393607164425
2.749913249050973,-2.191489187335872,1.5473527416553727,0.6447298899336702,4.887128655845075
2.735437518869883,-2.1911772098644393,1.5454509090431001,0.6474407144909851,4.901219893402313
2.720849809682946,-2.190790347663097,1.543554009744755,0.6502503323423339,4.91432467008849
2.7061527761338944,-2.190328171259853,1.5416621382217761,0.6531592712182483,4.926454582603498
2.691349072866508,-2.1897902511827128,1.5397753889356043,0.6561680588492567,4.937621227647668
2.6764413545244956,-2.1891761579596865,1.5378938563476767,0.6592772229658856,4.94783620192112
2.6614322757516398,-2.188485462118781,1.5360176349194343,0.6624872912986652,4.957111102124102
2.6463244911916775,-2.187717734188006,1.5341468191123155,0.6657987915781236,4.965457524956676
2.6311206554883775,-2.186872544695366,1.5322815033877608,0.6692122515347885,4.972887067118933
2.6158234232854305,-2.185949464168872,1.530421782207209,0.6727281988991871,4.979411325311219
2.6004354492266444,-2.1849480631365306,1.5285677500320989,0.6763471614018486,4.98504189623354
2.584959387955738,-2.183867912126349,1.5267195013238701,0.6800696667733024,4.989790376586086
2.5693978941164772,-2.182708581666336,1.5248771305439621,0.6838962427440767,4.993668363069119
2.553753622352602,-2.1814696422844984,1.5230407321538149,0.6878274170446979,4.99668745238273
2.538029227307849,-2.180150664508846,1.5212104006148666,0.6918637174056963,4.998859241227123
2.52222736362598,-2.1787512188673848,1.5193862303885575,0.6960056715575984,5.000195326302332
2.506350685950757,-2.1772708758881225,1.5175683159363262,0.7002538072309337,5.0007073043086905
2.4904018489258988,-2.1757092060990693,1.5157567517196127,0.7046086521562307,5.000406771946274
2.4743835071951708,-2.17406578002823,1.5139516321998563,0.7090707340640172,4.999305325915188
2.4582983154023204,-2.1723401682036156,1.5121530518384954,0.7136405806848218,4.997414562915708
2.4421489281911093,-2.170531941153231,1.510361105096971,0.7183187197491723,4.994746079647896
2.425938000205278,-2.168640669405085,1.508575886436721,0.723105678987598,4.991311472812072
2.4096681860885525,-2.1666659234871872,1.506797490319185,0.7280019861306268,4.987122339108183
2.393342140484709,-2.1646072739275435,1.5050260112058034,0.7330081689087855,4.982190275236519
2.3769625180374803,-2.1624642912541616,1.5032615435580141,0.7381247550526053,4.976526877897285
2.3605319733906285,-2.1602365459950508,1.5015041818372576,0.7433522722926131,4.970143743790601
2.344053161187894,-2.1579236086782183,1.4997540205049722,0.7486912483593358,4.963052469616542
2.3275287360730204,-2.155525049831672,1.4980111540225978,0.7541422109833036,4.9552646520753
2.3109613526897697,-2.1530404399834193,1.4962756768515744,0.7597056878950443,4.946791887867121
2.2943536656818857,-2.150469349661468,1.4945476834533402,0.7653822068250857,4.937645773692097
2.2777083296930947,-2.1478113493938262,1.4928272682893353,0.7711722955039564,4.927837906250474
2.2610279993671973,-2.145066009708503,1.4911145258209983,0.7770764816621849,4.917379882242287
2.244315329347902,-2.1422329011335033,1.4894095505097693,0.7830952930302999,4.906283298367811
2.2275729742789387,-2.139311594196838,1.487712436817087,0.7892292573388291,4.894559751327122
2.210803588804122,-2.1363016594265143,1.4860232792043921,0.7954789023183011,4.882220837820427
2.194009827567143,-2.1332026673505387,1.4843421721331223,0.8018447556992445,4.869278154547899
2.177194345211781,-2.1300141884969204,1.482669210064718,0.8083273452121871,4.855743298209703
2.1603597963817585,-2.126735793393665,1.4810044874606176,0.8149271985876556,4.84162786550597
2.143508835720855,-2.123367052568783,1.4793480987822611,0.8216448435561814,4.826943453136863
2.1266441178728,-2.1199075365502824,1.4777001384910882,0.8284808078482921,4.811701657802573
2.109768297481331,-2.116356815866169,1.4760607010485374,0.8354356191945156,4.795914076203232
2.0928840291902198,-2.112714461044452,1.4744298809160488,0.8425098053253786,4.779592305038932
2.0759939676432175,-2.1089800426131378,1.4728077725550603,0.8497038939714114,4.762747941010062
2.05910076748404,-2.105153131100236,1.4711944704270137,0.857018412863142,4.745392580816613
2.0422070833564803,-2.1012332970337537,1.4695900689933463,0.8644538897310978,4.727537821158634
2.025315569904258,-2.0972201109416986,1.4679946627154985,0.8720108523058094,4.709195258736543
2.0084288817711275,-2.0931131433520784,1.466408346054909,0.8796898283178018,4.690376490250387
1.9915496736008507,-2.088911964792902,1.464831213473017,0.8874913454976054,4.671093112400328
1.9746806000371393,-2.084616145792177,1.4632633594312634,0.895415931575748,4.651356721886501
1.95782431572378,-2.0802252568779096,1.4617048783910853,0.903464114282758,4.631178915409123
1.9409834753045132,-2.075738868578111,1.460155864813924,0.911636421349165,4.610571289668286
1.9241607334230864,-2.071156551420784,1.4586164131612174,0.9199333805054941,4.5895454413642085
1.9073587447232399,-2.0664778759339404,1.4570866178944053,0.9283555194822766,4.568112967197038
1.890580163848714,-2.0617024126455883,1.4555665734749272,0.9369033660100401,4.546285463866994
1.8738276454432992,-2.0568297320837337,1.4540563743642227,0.9455774478193115,4.524074528074152
1.8571038441506929,-2.0518594047763834,1.4525561150237316,0.9543782926406212,4.501491756518632
1.840411414614664,-2.046791001251549,1.4510658899148914,0.9633064282044961,4.478548745900795
1.8237530114789884,-2.0416240920372353,1.4495857934991427,0.9723623822414664,4.455257092920547
1.8071312893873674,-2.0363582476614512,1.4481159202379255,0.9815466824820565,4.431628394278192
1.790548902983577,-2.0309930386522037,1.4466563645926782,0.9908598566567983,4.407674246673935
1.7740085069113611,-2.0255280355375023,1.4452072210248395,1.0003024324962189,4.3834062468079225
1.757512755814485,-2.019962808845353,1.4437685839958507,1.0098749377308467,4.358835991380246
1.7410643043366782,-2.0142969291037662,1.442340547967149,1.0195779000912104,4.333975077090983
1.7246658071216672,-2.0085299668407464,1.440923207400175,1.0294118473078377,4.308835100640579
1.7083199188132454,-2.002661492584304,1.4395166567563682,1.0393773071112573,4.283427658728897
1.6920292940551462,-1.9966910768624464,1.4381209904971672,1.049474807231995,4.257764348056327
1.6757965874911065,-1.990618290203181,1.436736303084012,1.0597048754005867,4.231856765322789
1.6596244537648666,-1.9844427031345155,1.4353626889783413,1.070068039347552,4.205716507228686
1.64351554752022,-1.9781638861844577,1.4340002426415945,1.080564826803423,4.1793551704741105
1.6274725234008898,-1.9717814098810171,1.432649058535212,1.0911957654987274,4.152784351759266
1.6114980360505982,-1.965294844752198,1.431309231120632,1.101961383163994,4.1260156477840155
1.5955947401131318,-1.958703761326011,1.4299808548592945,1.1128622075297532,4.099060655248962
1.5797652902322206,-1.9520077301304646,1.4286640242126378,1.1238987663265272,4.07193097085397
1.5640123410516118,-1.945206321693564,1.4273588336421028,1.135071587284851,4.044638191299271
1.5483385472150673,-1.9382991065433197,1.4260653776091279,1.1463811981352503,4.017193913285183
1.5327465633663309,-1.9312856552077386,1.424783750575152,1.1578281266082513,3.989609733511543
1.5172390441491572,-1.9241655382148277,1.4235140470016157,1.1694129004343852,3.9618972486788664
1.501818644207276,-1.9169383260925956,1.4222563613499575,1.1811360473441797,3.934068055487046
1.4864880181844313,-1.9096035893690502,1.421010788081617,1.1929980950681607,3.9061337506363714
1.4712498207244096,-1.9021608985721992,1.4197774216580328,1.2049995713368604,3.878105930826962
1.4561067064709405,-1.8946098242300495,1.4185563565406463,1.2171410038808057,3.849996192759022
1.441061330067761,-1.8869499368706109,1.4173476871908943,1.2294229204305234,3.8218161331326996
1.4261163461586293,-1.8791808070218892,1.4161515080702178,1.2418458487165447,3.7935773486481423
1.4112744093872749,-1.871302005211895,1.414967913640056,1.2544103164693947,3.7652914360054694
1.3965381743974774,-1.8633131019686324,1.4137969983618468,1.2671168514196038,3.7369699919049424
1.3819102958329808,-1.855213667820112,1.4126388566970318,1.279965981297699,3.708624613046709
1.367393428337536,-1.8470032732943427,1.4114935831070485,1.2929582338342094,3.6802668961308598
1.3529902265548657,-1.8386814889193275,1.4103612720533378,1.306094136759663,3.6519084378575144
1.338703345128728,-1.8302478852230797,1.409242017997337,1.3193742178045884,3.6235608349270194
1.3245354387028812,-1.8217020327336035,1.408135915400488,1.332799004699515,3.5952356840393804
1.3104891619210832,-1.8130435019789086,1.4070430587242275,1.346369025174968,3.566944581894859
1.2965671694270569,-1.8042718634870027,1.4059635424299972,1.3600848069614786,3.5386991251936024
1.2827721158645744,-1.795386687785892,1.4048974609792346,1.3739468777895736,3.5105109106355883
1.2691066558773798,-1.7863875454035876,1.4038449088333804,1.3879557653897843,3.4823915349211916
1.2555734441092028,-1.7772740068680948,1.402805980453873,1.402111997492634,3.4543525947505884
1.2421751352038228,-1.7680456427074196,1.401780770302152,1.416416101828653,3.426405686823756
1.2289143838049483,-1.758702023449576,1.4007693728396573,1.4308686061283726,3.398562407841041
1.215793844556373,-1.749242719622564,1.3997718825278276,1.4454700381223171,3.3708343545024775
1.2028161721018051,-1.7396673017543982,1.3987883938281023,1.4602209255410177,3.34323312350827
1.1899840210850243,-1.7299753403730849,1.3978190012019218,1.4751217961150012,3.3157703115585946
1.1773000461497674,-1.7201664060066273,1.3968637991107231,1.490173177574797,3.288457515353741
1.1647669019397995,-1.7102400691830395,1.3959228820159486,1.5053755976509313,3.2613063315935733
1.1523872430988291,-1.7001959004303266,1.394996344379035,1.5207295840739352,3.234328356978523
1.1401637242706286,-1.6900334702764948,1.3940842806614229,1.5362356645743338,3.207535188208567
1.128099000098949,-1.679752349249556,1.3931867853245508,1.5518943668826566,3.180938421983967
1.1161957252275343,-1.669352107877513,1.3923039528298593,1.567706218729433,3.1545496550048995
1.1044565543001568,-1.658832316688378,1.3914358776387872,1.5836717478451936,3.1283804839714833
1.0928841419605178,-1.648192546210157,1.390582654212774,1.5997914819604615,3.1024425055839515
1.0814811428523967,-1.6374323669708586,1.3897443770132587,1.616065948805768,3.0767473165422814
1.0702502116195447,-1.6265513494984898,1.3889211405016795,1.6324956761116391,3.0513065135468196
1.0591940029057056,-1.6155490643210593,1.3881130391394785,1.6490811916086061,3.0261316932976854
1.0483151713546306,-1.6044250819665749,1.3873201673880933,1.6658230230271984,3.0012344524950265
1.0376163716100706,-1.5931789729630408,1.3865426197089634,1.6827216980979403,2.976626387838877
1.027100258315727,-1.5818103078384702,1.3857804905635283,1.699777744551361,2.9523190960297256
1.0167694861154146,-1.570318657120871,1.3850338744132267,1.716991690117987,2.9283241737674075
1.0066267096528705,-1.5587035913382454,1.3843028657194996,1.7343640625283525,2.9046532177522124
0.9966745835718243,-1.546964681018606,1.3835875589437847,1.7518953895129838,2.881317824684345
0.986915762516027,-1.5351014966899603,1.3828880485475217,1.769586198802405,2.8583295912639812
0.9773529011292013,-1.5231136088803128,1.38220442899215,1.7874370181271493,2.835700114191127
0.9679886540551621,-1.5110005881176756,1.3815367947391095,1.8054483752177424,2.8134409901660433
0.9588256759376179,-1.4987620049300538,1.3808852402498395,1.8236207978047139,2.7915638158888214
0.9498666214202913,-1.4863974298454572,1.3802498599857789,1.8419548136185915,2.7700801880598362
0.9411141451469902,-1.4739064333918916,1.3796307484083674,1.8604509503898994,2.7490017033790934
0.9325709017614372,-1.461288586097366,1.3790279999790434,1.879109735849176,2.7283399585467407
0.924239545907362,-1.4485434584898895,1.3784417091592471,1.89793169772694,2.708106550262869
0.9161227322285086,-1.4356706210974668,1.3778719704104172,1.9169173637537265,2.6883130752278817
0.9082231153686919,-1.422669644448109,1.3773188781939945,1.9360672616600576,2.6689711301417276
0.9005433499715778,-1.4095400990698241,1.376782526971418,1.9553819191764648,2.6500923117046966
0.8930860906809599,-1.3962815554906136,1.376263011204125,1.9748618640334792,2.6316882166168227
0.885853992140575,-1.3828935842384942,1.3757604253535562,1.994507623961625,2.6137704415783958
0.8788497089942027,-1.3693757558414656,1.3752748638811523,2.014319726691432,2.596350583289535
0.872075895885537,-1.355727640827543,1.3748064212483506,2.0342986999534256,2.5794402384502746
0.8655352074583718,-1.3419488097247294,1.3743551919165913,2.0544450714781393,2.563051003761018
0.8592302983564011,-1.3280388330610355,1.3739212703473138,2.074759368996099,2.5471944759218843
0.8531638232234613,-1.3139972813644674,1.373504751001957,2.09524212023783,2.5318822516327373
0.8473384367032111,-1.2998237251630336,1.373105728341961,2.1158938529338682,2.5171259275939804
0.8417567934394512,-1.285517734984741,1.3727242968287643,2.1367150948147335,2.502937100505875
0.8364215480759327,-1.271078881357596,1.3723605509238073,2.157706373610961,2.489327367068398
0.8313353552563783,-1.256506734809614,1.3720145850885277,2.1788682170530747,2.4763083239817263
0.8265008696245317,-1.2418008658687913,1.3716864937843662,2.2002011528716006,2.463891567946149
0.8219207458241797,-1.2269608450631466,1.371376371472762,2.2217057087970753,2.4520886956617005
0.8175976384990378,-1.2119862429206822,1.3710843126151548,2.2433824125600212,2.4409113038285284
0.8135342022928782,-1.196876629969406,1.370810411672983,2.265231791890968,2.430370989146894
0.8097330918494023,-1.1816315767373275,1.3705547631076858,2.287254374520443,2.420479348317002
0.8061969618124252,-1.1662506537524564,1.3703174613807028,2.309450688178976,2.411247978038915
0.8029284668256764,-1.1507334315427933,1.370098600953475,2.3318212605970947,2.4026884750127238
0.7999302615328858,-1.1350794806363513,1.3698982762874392,2.354366619505323,2.394812435938718
0.7972050005777831,-1.1246239895699546,1.3697165818440362,2.3770872926342017,2.3876314575171023
0.7947553386041406,-1.1238511087940424,1.369553612084705,2.399983807714248,2.381157136447854
0.7925839302557307,-1.1307394504692638,1.3694094614708852,2.42305669247599,2.375401069431234
0.7906934301762831,-1.143267626845045,1.369284224464016,2.473840767983347,2.3703748531675046
0.7890864930095347,-1.15941425015626,1.3691779955255363,2.5631373532814905,2.366090084356614
0.7877657733992436,-1.177157932666887,1.3690908691168864,2.6740614734299015,2.362558359698994
0.7867339259891608,-1.194477286633628,1.3690229396995048,2.7897281535551883,2.35979127589448
0.7859936054230232,-1.209350924298633,1.368974301734831,2.893252418114571,2.3578004296435324
0.7855474663446103,-1.219757457911328,1.3689450496843043,2.967749292263761,2.356597417646128
0.7853981633976304,-1.2236754997211392,1.368935278009365,2.996333800285356,2.3561938366025004
