oscarkremer/mentor-optimization/notebooks/traject_2/adaptive/angles_29.csv
theta1,theta2,theta3,theta4,theta5
3.7295952571373574,-0.7943678438589166,1.973043134264813,1.9629173631838936,3.2059965904706873
3.729581239043204,-0.7943830566552483,1.9730377164852093,1.9628932993910564,3.205889320922217
3.7295393951714315,-0.7944285829296149,1.9730215048242814,1.9628213024792236,3.205568475964615
3.7294700411380695,-0.7945042545100739,1.9729945617988536,1.9627016641484136,3.2050355011295952
3.729373492559148,-0.7946099032246825,1.9729569499257502,1.962534676098645,3.204291841948873
3.729250065050698,-0.794745360901498,1.9729087317217955,1.9623206300299358,3.203338943954161
3.7291000742287497,-0.7949104593685778,1.9728499697038142,1.962059817642305,3.202178252677174
3.7289238357093333,-0.7951050304539791,1.97278072638863,1.9617525306357704,3.2008112136496263
3.7287216651084782,-0.7953289059857593,1.9727010642930676,1.9613990607103506,3.1992392724032315
3.728493878042216,-0.7955819177919756,1.9726110459339516,1.9609996995660643,3.197463874469704
3.7282407901265766,-0.7958638977006854,1.9725107338281063,1.9605547389029296,3.1954864653807586
3.7279627169775895,-0.7961746775399462,1.9724001904923554,1.960064470420965,3.193308490668108
3.7276599742112855,-0.796514089137815,1.972279478443524,1.9595291858201889,3.1909313958634673
3.727332877443695,-0.7968819643223494,1.9721486601984362,1.9589491768006198,3.1883566264985506
3.7269817422908487,-0.7972781349216064,1.9720077982739161,1.958324735062276,3.1855856281050716
3.726606884368776,-0.7977024327636435,1.9718569551867886,1.9576561523051756,3.182619846214745
3.7262086192935073,-0.798154689676518,1.9716961934538775,1.9569437202293376,3.1794607263592845
3.7257872626810733,-0.7986347374882873,1.9715255755920076,1.95618773053478,3.176109714070404
3.7253431301475044,-0.7991424080270085,1.9713451641180029,1.9553884749215213,3.1725682548798178
3.72487653730883,-0.7996775331207392,1.9711550215486877,1.9545462450895799,3.1688377943192405
3.724387799781081,-0.8002399445975364,1.9709552104008867,1.9536613327389742,3.1649197779203857
3.723877233180288,-0.8008294742854577,1.970745793191424,1.9527340295697226,3.1608156512149677
3.7233451531224806,-0.8014459540125604,1.9705268324371241,1.9517646272818436,3.1565268597347007
3.722791875223689,-0.8020892156069015,1.9702983906548113,1.9507534175753556,3.1520548490112987
3.7222177150999443,-0.8027590908965385,1.97006053036131,1.9497006921502769,3.1474010645764756
3.7216229883672765,-0.8034554117095288,1.9698133140734446,1.9486067427066258,3.1425669519619466
3.721008010641715,-0.8041780098739297,1.9695568043080391,1.9474718609444208,3.1375539566994246
3.720373097539291,-0.8049267172177986,1.9692910635819183,1.9462963385636807,3.1323635243206236
3.7197185646760347,-0.8057013655691926,1.9690161544119062,1.9450804672644235,3.1269971003572588
3.719044727667976,-0.806501786756169,1.9687321393148274,1.9438245387466673,3.121456130341043
3.718351902131145,-0.8073278126067853,1.968439080807506,1.9425288447104312,3.115742059803692
3.7176404036815724,-0.8081792749490987,1.9681370414067667,1.9411936768557332,3.1098563342769183
3.716910547935289,-0.8090560056111666,1.9678260836294335,1.9398193268825916,3.103800399292437
3.716162650508324,-0.8099578364210462,1.967506269992331,1.938406086491025,3.0975757003819617
3.715397027016708,-0.8108845992067951,1.9671776630122833,1.9369542473810522,3.091183683077207
3.7146139930764717,-0.8118361257964702,1.9668403252061153,1.9354641012526907,3.0846257929098866
3.713813864303645,-0.8128122480181291,1.9664943190906505,1.9339359398059595,3.077903475411715
3.7129969563142584,-0.8138127976998291,1.966139707182714,1.9323700547408769,3.071018176114406
3.7121635847243417,-0.8148376066696273,1.9657765519991295,1.9307667377574613,3.0639713405496742
3.7113140651499257,-0.8158865067555813,1.9654049160567222,1.9291262805557312,3.056764414249233
3.7104487132070405,-0.8169593297857483,1.9650248618723156,1.9274489748357049,3.0493988427447967
3.7095678445117164,-0.8180559075881855,1.9646364519627346,1.9257351122974007,3.04187607156808
3.708671774679983,-0.8191760719909502,1.9642397488448033,1.923984984640837,3.0341975462507964
3.707760819327872,-0.8203196548221,1.9638348150353462,1.9221988835660326,3.0263647123246606
3.706835294071413,-0.8214864879096919,1.9634217130511875,1.9203771007730057,3.0183790153213863
3.705895514526635,-0.8226764030817835,1.9630005054091517,1.9185199279617742,3.0102419007726873
3.7049417963095705,-0.823889232166432,1.9625712546260627,1.9166276568323573,3.0019548142102783
3.703974455036248,-0.8251248069916945,1.9621340232187456,1.9147005790847729,2.9935192011658733
3.7029938063226986,-0.8263829593856288,1.9616888737040246,1.9127389864190394,2.984936507171186
3.7020001657849524,-0.8276635211762917,1.9612358685987235,1.9107431705351756,2.9762081777579317
3.7009938490390404,-0.8289663241917409,1.960775070419667,1.9087134231331995,2.967335658457823
3.699975171700991,-0.8302912002600336,1.9603065416836793,1.9066500359131293,2.958320394802575
3.698944449386836,-0.8316379812092268,1.9598303449075851,1.9045533005749842,2.949163832323902
3.697901997712606,-0.8330064988673783,1.9593465426082084,1.9024235088187822,2.939867416553517
3.6968481322943303,-0.8343965850625452,1.9588551973023738,1.9002609523445417,2.930432593023135
3.695783168748039,-0.8358080716227848,1.9583563715069054,1.8980659228522807,2.92086080726447
3.6947074226897634,-0.8372407903761545,1.9578501277386278,1.8958387120420181,2.9111535048092363
3.6936212097355328,-0.8386945731507114,1.9573365285143653,1.8935796116137724,2.901312131189147
3.692524845501378,-0.8401692517745131,1.9568156363509421,1.8912889132675617,2.8913381319359175
3.691418645603329,-0.8416646580756167,1.9562875137651827,1.8889669087034044,2.8812329525812617
3.6903029256574165,-0.8431806238820798,1.9557522232739113,1.8866138896213192,2.8709980386568925
3.6891780012796707,-0.8447169810219594,1.9552098273939522,1.8842301477213241,2.8606348356945253
3.688044188086121,-0.8462735613233129,1.9546603886421303,1.8818159747034375,2.8501447892258747
3.6869018016927986,-0.8478501966141977,1.954103969535269,1.8793716622676784,2.8395293447826533
3.6857511577157336,-0.849446718722671,1.9535406325901936,1.8768975021140646,2.828789947896576
3.6845925717709562,-0.8510629594767902,1.952970440323728,1.8743937859426147,2.817928044099357
3.6834263594744963,-0.8526987507046127,1.9523934552526967,1.8718608054533472,2.8069450789227095
3.682252836442385,-0.8543539242341955,1.9518097398939238,1.8692988523462801,2.795842497898349
3.6810723182906524,-0.8560283118935963,1.951219356764234,1.8667082183214325,2.7846217465579888
3.6798851206353276,-0.8577217455108722,1.950622368380451,1.8640891950788223,2.7732842704333436
3.6786915590924427,-0.8594340569140806,1.9500188372594,1.8614420743184683,2.761831515056127
3.6774919492780263,-0.8611650779312788,1.949408825917905,1.8587671477403884,2.750264925958053
3.6762866068081097,-0.862914640390524,1.9487923968727903,1.8560647070446012,2.738585948670836
3.675075847298723,-0.8646825761198738,1.94816961264088,1.853335043931125,2.7267960287261905
3.673859986365896,-0.8664687169473851,1.947540535738999,1.8505784500999787,2.71489661165583
3.6726393396256594,-0.8682728947011156,1.9469052286839712,1.84779521725118,2.702889142991469
3.671414222694043,-0.8700949412091223,1.946263753992621,1.844985637084748,2.690775068264821
3.6701849511870783,-0.8719346882994629,1.9456161741817728,1.8421500013007004,2.678555833007601
3.668951840720794,-0.8737919678001944,1.9449625517682514,1.8392886015990562,2.666232882751523
3.6677152069112218,-0.8756666115393741,1.9443029492688806,1.8364017296798334,2.6538076630283
3.666475365374391,-0.8775584513450595,1.943637429200485,1.833489677243051,2.6412816193696473
3.6652326317263317,-0.8794673190453078,1.9429660540798885,1.8305527359887264,2.628656197307279
3.663987321583075,-0.8813930464681765,1.9422888864239163,1.827591197616879,2.6159328423729082
3.6627397505606507,-0.8833354654417227,1.9416059887493922,1.8246053538275264,2.6031130000982503
3.6614902342750892,-0.8852944077940037,1.9409174235731403,1.8215954963206877,2.590198116015019
3.660239088342421,-0.887269705353077,1.9402232534119856,1.818561916796381,2.577189635654928
3.658986628378676,-0.8892611899469998,1.9395235407827522,1.8155049069546247,2.5640890045496914
3.6577331699998843,-0.8912686934038294,1.938818348202264,1.8124247584954372,2.5508976682310243
3.6564790288220768,-0.8932920475516233,1.9381077381873462,1.8093217631188367,2.5376170722306397
3.6552245204612834,-0.8953310842184385,1.9373917732548225,1.806196212524842,2.524248662080252
3.653969960533534,-0.8973856352323325,1.9366705159215172,1.8030483984134713,2.510793883311576
3.6527156646548598,-0.8994555324213627,1.935944028704255,1.799878612484743,2.4972541814563245
3.6514619484412902,-0.9015406076135862,1.9352123741198601,1.7966871464386753,2.483631002046213
3.6502091275088557,-0.9036406926370605,1.9344756146851572,1.793474291975287,2.469925790612955
3.648957517473587,-0.9057556193198428,1.93373381291697,1.7902403407945966,2.4561399926882643
3.647707433951514,-0.9078852194899906,1.9329870313321234,1.786985584596622,2.4422750538038556
3.646459192558667,-0.9100293249755609,1.9322353324474415,1.7837103150813818,2.428332419491443
3.645213108911076,-0.9121877676046114,1.9314787787797485,1.7804148239488944,2.4143135352827403
3.6439694986247724,-0.914360379205199,1.9307174328458692,1.7770994028991784,2.4002198467094615
3.6427286773157848,-0.9165469916053813,1.9299513571626277,1.773764343632252,2.3860527993033216
3.641490960600145,-0.9187474366332156,1.9291806142468482,1.7704099378481335,2.3718138385960335
3.640256664093882,-0.9209615461167592,1.9284052666153553,1.7670364772468417,2.357504410119312
3.6390261034130273,-0.9231891518840692,1.9276253767849731,1.7636442535283947,2.3431259594048717
3.63779959417361,-0.9254300857632033,1.9268410072725264,1.760233558392811,2.328679931984426
3.636577451991661,-0.9276841795822185,1.9260522205948392,1.756804683540109,2.3141677733896877
3.635359992483211,-0.9299512651691723,1.9252590792687356,1.753357920670307,2.299590929152374
3.634147531264289,-0.9322311743521218,1.9244616458110404,1.7498935614834235,2.284950844804197
3.6329403839509267,-0.9345237389591244,1.9236599827385779,1.7464118976794767,2.270248965876871
3.631738866159153,-0.9368287908182377,1.9228541525681724,1.7429132209584854,2.2554867379021104
3.6305432935049997,-0.9391461617575187,1.9220442178166481,1.7393978230204676,2.2406656064116297
3.6293539816044964,-0.9414756836050248,1.9212302410008295,1.7358659955654423,2.2257870169371423
3.6281712460736726,-0.9438171881888133,1.920412284637541,1.7323180302934271,2.2108524150103626
3.626995402528559,-0.9461705073369415,1.9195904112436066,1.728754218904441,2.195863246163005
3.6258267665851864,-0.9485354728774669,1.9187646833358514,1.7251748530985023,2.1808209559267837
3.6246656538595845,-0.9509119166384465,1.9179351634310988,1.721580224575629,2.1657269898334115
3.6235123799677846,-0.953299670447938,1.9171019140461738,1.71797062503584,2.1505827934146042
3.6223672605258157,-0.9556985661339983,1.9162649976979007,1.7143463461791535,2.135389812202075
3.6212306111497083,-0.9581084355246849,1.9154244769031035,1.710707679705588,2.1201494917275383
3.620102747455493,-0.9605291104480552,1.914580414178607,1.707054917315162,2.1048632775227083
3.6189839850592005,-0.9629604227321666,1.9137328720412352,1.7033883507078933,2.089532615119299
3.61787463957686,-0.965402204205076,1.9128819130078125,1.699708271583801,2.0741589500490245
3.6167750266245027,-0.9678542866948413,1.9120275995951634,1.6960149716429034,2.058743727843599
3.615685461818159,-0.9703165020295192,1.9111699943201124,1.6923087425852186,2.0432883940347364
3.614606260773858,-0.9727886820371674,1.9103091596994832,1.688589876110765,2.027794394154151
3.61353773910763,-0.9752706585458432,1.909445158250101,1.6848586639195613,2.0122631737335572
3.6124802124355075,-0.9777622633836037,1.9085780524887896,1.6811153977116258,1.9966961783046684
3.6114339963735183,-0.9802633283785066,1.9077079049323733,1.6773603691869767,1.9810948533991994
3.610399406537694,-0.9827736853586087,1.9068347780976769,1.6735938700456328,1.965460644548864
3.609376758544064,-0.9852931661519678,1.9059587345015243,1.669816191987612,1.9497949972853765
3.6083663680086593,-0.987821602586641,1.90507983666074,1.6660276267129333,1.9340993571404508
3.6073685505475104,-0.9903588264906854,1.9041981470921487,1.6622284659216147,1.9183751696458011
3.6063836217766463,-0.9929046696921588,1.9033137283125743,1.6584190013136744,1.9026238803331414
3.6054118973120985,-0.995458964019118,1.902426642838841,1.6545995245891312,1.8868469347341863
3.604453692769897,-0.9980215412996208,1.901536953187774,1.6507703274480037,1.8710457783806498
3.603509323766071,-1.0005922333617243,1.9006447218761966,1.6469317015903098,1.8552218568042453
3.6025791059166523,-1.0031708720334855,1.8997500114209338,1.643083938716068,1.839376615536688
3.6016633548376706,-1.0057572891429625,1.89885288433881,1.639227330525297,1.8235115001096907
3.600762386145156,-1.0083513165182116,1.8979534031466494,1.6353621687180149,1.807627956054969
3.599876515455139,-1.0109527859872913,1.8970516303612759,1.6314887449942403,1.7917274289042358
3.5990060583836496,-1.0135615293782578,1.8961476284995147,1.6276073510539915,1.775811364189206
3.598151330546718,-1.0161773785191688,1.8952414600781895,1.6237182785972868,1.7598812074415935
3.597312647560375,-1.018800165238082,1.8943331876141247,1.6198218193241447,1.7439384041931123
3.596490325040651,-1.0214297213630543,1.893422873624145,1.6159182649345838,1.7279843999754765
3.5956846786035754,-1.0240658787221433,1.8925105806250744,1.6120079071286224,1.7120206403204006
3.594896023865179,-1.0267084691434059,1.8915963711337376,1.6080910376062787,1.6960485707595985
3.594124676441492,-1.0293573244549,1.8906803076669587,1.6041679480675712,1.6800696368247836
3.5933709519485446,-1.0320122764846822,1.8897624527415622,1.6002389302125184,1.6640852840476712
3.5926351660023674,-1.0346731570608103,1.8888428688743721,1.5963042757411388,1.6480969579599751
3.5919176342189902,-1.0373397980113415,1.8879216185822132,1.5923642763534507,1.6321061040934086
3.5912186722144432,-1.0400120311643333,1.8869987643819097,1.588419223749472,1.6161141679796873
3.5905385956047575,-1.0426896883478427,1.8860743687902861,1.584469409629222,1.6001225951505238
3.589877720005963,-1.0453726013899274,1.8851484943241663,1.5805151256927183,1.5841328311376328
3.5892363610340894,-1.048060602118644,1.884221203500375,1.5765566636399804,1.5681463214727287
3.5886148343051674,-1.0507535223620508,1.8832925588357363,1.572594315171025,1.5521645116875253
3.588013455435227,-1.0534511939482043,1.8823626228470751,1.5686283719858718,1.5361888473137373
3.587432540040299,-1.056153448705162,1.8814314580512153,1.5646591257845393,1.5202207738830782
3.5868724037364137,-1.0588601184609818,1.8804991269649811,1.5606868682670454,1.5042617369272624
3.5863333621396007,-1.0615710350437202,1.8795656921051973,1.5567118911334084,1.488313181978004
3.5858157308658907,-1.064286030281435,1.8786312159886878,1.5527344860836467,1.4723765545670169
3.5853198255313137,-1.0670049360021834,1.8776957611322773,1.5487549448177793,1.4564533002260154
3.5848459617519004,-1.0697275840340228,1.87675939005279,1.544773559035824,1.4405448644867134
3.584394455143681,-1.0724538062050102,1.8758221652670504,1.5407906204377997,1.4246526928808256
3.583965621322686,-1.0751834343432032,1.8748841492918829,1.5368064207237242,1.4087782309400647
3.5835597759049445,-1.0779163002766592,1.8739454046441113,1.5328212515936164,1.3929229241961467
3.583177234506488,-1.0806522358334352,1.8730059938405603,1.5288354047474941,1.3770882181807846
3.582818312743346,-1.0833910728415888,1.8720659793980547,1.524849171885377,1.3612755584256935
3.5824833262315496,-1.086132643129177,1.8711254238334183,1.5208628447072818,1.345486390462586
3.5821725905871284,-1.0888767785242572,1.8701843896634756,1.516876714913228,1.3297221598231779
3.581886421426113,-1.0916233108548874,1.869242939405051,1.512891074203234,1.3139843120391816
3.5816251343645336,-1.0943720719491241,1.8683011355749686,1.5089062142773177,1.2982742926423125
3.5813890450184203,-1.0971228936350246,1.867359040690053,1.504922426835498,1.282593547164284
3.581178469003803,-1.0998756077406469,1.8664167172671287,1.5009400035777924,1.266943521136811
3.580993721936713,-1.1026300460940477,1.8654742278230196,1.4969592362042206,1.251325660091607
3.5808351194331802,-1.1053860405232845,1.8645316348745504,1.4929804164148002,1.2357414095603856
3.580702977109234,-1.1081434228564147,1.8635890009385454,1.4890038359095499,1.2201922150748625
3.580597610580906,-1.1109020249214954,1.8626463885318287,1.4850297863884876,1.2046795221667506
3.580519335464226,-1.1136616785465843,1.8617038601712252,1.4810585595516326,1.1892047763677647
3.5804684673752236,-1.116422215559738,1.8607614783735587,1.4770904470990023,1.1737694232096174
3.58044532192993,-1.1191834677890147,1.859819305655654,1.4731257407306155,1.1583749082240244
3.5804502147443746,-1.1219452670624714,1.858877404534335,1.4691647321464911,1.1430226769427
3.5804834614345884,-1.124707445208165,1.8579358375264263,1.465207713046647,1.1277141748973576
3.580545377616602,-1.1274698340541534,1.8569946671487523,1.4612549751311017,1.1124508476197112
3.5806362789064443,-1.1302322654284938,1.856053955918137,1.4573068100998738,1.0972341406414756
3.5807564809201464,-1.1329945711592428,1.8551137663514052,1.4533635096529811,1.082065499494364
3.580906299273739,-1.1357565830744587,1.854174160965381,1.4494253654904425,1.0669463697100907
3.5810860495832513,-1.1385181330021985,1.853235202276889,1.4454926693122765,1.0518781968203712
3.5811952781951293,-1.1412790527705192,1.8522969528027533,1.4415657128185013,1.0368624263569177
3.581132983825996,-1.1440391742074782,1.8513594750597984,1.437644787709135,1.0219005038514453
3.580900261993994,-1.1467983291411332,1.8504228315648483,1.4337301856841966,1.0069938748356677
3.5804982082172696,-1.1495563493995413,1.849487084834728,1.429822198443704,0.9921439848412998
3.579927918013966,-1.15231306681076,1.8485522973862611,1.4259211176876763,0.9773522794000553
3.579190486902228,-1.1550683132028459,1.8476185317362726,1.422027235116131,0.9626202040436482
3.5782870104002,-1.157821920403857,1.8466858504015866,1.4181408424290871,0.9479492043037925
3.577218584026024,-1.1605737202418505,1.8457543158990273,1.4142622313265627,0.9333407257122022
3.575986303297846,-1.1633235445448835,1.8448239907454194,1.4103916935085767,0.9187962138005921
3.574591263733809,-1.1660712251410135,1.8438949374575868,1.4065295206751471,0.9043171141006761
3.5730345608520566,-1.168816593858298,1.842967218552354,1.402676004526292,0.8899048721441678
3.57131729017073,-1.1715594825247937,1.8420408965465456,1.3988314367620305,0.8755609334627827
3.5694405472079804,-1.1742997229685588,1.8411160339569856,1.3949961090823806,0.8612867435882325
3.567405427481944,-1.17703714701765,1.8401926933004988,1.3911703131873607,0.847083748052234
3.5652130265107695,-1.1797715865001246,1.8392709370939095,1.387354340776989,0.8329533923864993
3.562864439812601,-1.1825028732440401,1.8383508278540415,1.3835484835512848,0.8188971221227426
3.56036076290558,-1.1852308390774537,1.8374324280977195,1.3797530332102652,0.8049163827926804
3.557703091307851,-1.1879553158284228,1.8365158003417679,1.37596828145395,0.7910126199280239
3.5548925205375577,-1.1906761353250048,1.835601007103011,1.3721945199823564,0.7771872790604881
3.551930146112846,-1.1933931293952569,1.834688110898273,1.3684320404955037,0.7634418057217887
3.5488170635518577,-1.1961061298672364,1.8337771742443787,1.3646811346934096,0.7497776454436389
3.545554368372736,-1.1988149685690008,1.832868259658152,1.3609420942760928,0.736196243757751
3.542143156093627,-1.2015194773286073,1.8319614296564175,1.3572152109435716,0.7226990461958405
3.538584522232675,-1.204219487974113,1.8310567467559993,1.3535007763958649,0.7092874982896227
3.5348795623080216,-1.2069148323335754,1.830154273473722,1.3497990823329904,0.6959630455708106
3.531029371837813,-1.2096053422350521,1.82925407232641,1.3461104204549668,0.6827271335711185
3.527035046340191,-1.2122908495066,1.8283562058308873,1.342435082461813,0.6695812078222603
3.522897681333301,-1.2149711859762764,1.8274607365039786,1.3387733600535465,0.656526713855949
3.518618372335286,-1.217646183472139,1.8265677268625078,1.3351255449301862,0.6435650972039002
3.514198214864294,-1.220315673822245,1.8256772394233,1.3314919287917504,0.6306978033978283
3.509638304438461,-1.222979488854651,1.8247893367031787,1.3278728033382579,0.6179262779694477
3.5049397365759365,-1.2256374603974156,1.823904081218969,1.3242684602697263,0.6052519664504721
3.5001036067948648,-1.2282894202785952,1.823021535487495,1.3206791912861746,0.5926763143726141
3.4951310106133873,-1.2309352003262473,1.8221417620255806,1.317105288087621,0.5802007672675886
3.490023043549647,-1.2335746323684287,1.8212648233500508,1.313547042374084,0.5678267706671112
3.4847808011217922,-1.2362075482331982,1.8203907819777294,1.3100047458455821,0.5555557701028944
3.4794053788479644,-1.2388337797486118,1.8195197004254413,1.3064786902021335,0.5433892111066521
3.4738978722463068,-1.2414531587427273,1.8186516412100104,1.3029691671437567,0.5313285392101004
3.4682593768349643,-1.2440655170436017,1.8177866668482616,1.2994764683704698,0.5193751999449514
3.4624909881320804,-1.2466706864792927,1.8169248398570184,1.296000885582292,0.5075306388429204
3.4565938016557993,-1.2492684988778575,1.816066222753106,1.2925427104792409,0.4957963014357216
3.4505689129242643,-1.2518587860673533,1.8152108780533482,1.289102234761335,0.48417363325506724
3.4444174174556212,-1.2544413798758376,1.8143588682745695,1.2856797501285933,0.4726640798326738
3.43814041076801,-1.2570161121313674,1.8135102559335943,1.2822755482810335,0.46126908670025424
3.4317389883795784,-1.2595828146620005,1.8126651035472467,1.2788899209186744,0.44999009938952206
3.425214245808471,-1.262141319295794,1.8118234736323517,1.2755231597415344,0.43882856343219334
3.4185672785728287,-1.264691457860805,1.8109854287057332,1.2721755564496315,0.42778592435998064
3.4117991821907965,-1.267233062185091,1.8101510312842155,1.2688474027429848,0.41686362770459917
3.4049110521805157,-1.2697659640967094,1.8093203438846228,1.2655389903216119,0.40606311899776193
3.397903984060138,-1.272289995423717,1.8084934290237802,1.2622506108855318,0.39538584377118324
3.3907790733477983,-1.2748049879941719,1.807670349218511,1.258982556134763,0.38483324755657744
3.383537415561644,-1.2773107736361307,1.8068511669856404,1.2557351177693235,0.3744067758856593
3.376180106219822,-1.2798071841776517,1.8060359448419927,1.2525085874892317,0.36410787429014224
3.3687082408404736,-1.282294051446791,1.8052247453043917,1.2493032569945064,0.3539379883017393
3.3611229149417423,-1.2847712072716067,1.804417630889662,1.2461194179851653,0.3438985634521665
3.353425224041774,-1.2872384834801558,1.8036146641146282,1.2429573621612275,0.33399104527313694
3.345616263658709,-1.289695711900496,1.8028159074961143,1.2398173812227116,0.3242168792963658
3.3376971293106963,-1.292142724360684,1.8020214235509446,1.2366997668696347,0.31457751105356646
3.329668916515875,-1.2945793526887774,1.801231274795944,1.2336048108020166,0.30507438607645243
3.321532720792392,-1.2970054287128339,1.8004455237479364,1.230532804719875,0.29570894989673846
3.3132896376583862,-1.2994207842609102,1.7996642329237464,1.2274840403232283,0.2864826480461389
3.3049407626320124,-1.301825251161064,1.7988874648401978,1.2244588093120954,0.27739692605636757
3.2964871912314035,-1.3042186612413527,1.798115282014116,1.2214574033864944,0.26845322945913974
3.2879300189747087,-1.3066008463298333,1.7973477469623242,1.2184801142464436,0.2596530037861662
3.279270341380069,-1.3089716382545629,1.7965849222016474,1.2155272335919614,0.2509976945691643
3.2705092539656326,-1.3113308688435996,1.7958268702489097,1.2125990531230664,0.24248874733984715
3.2616478522495393,-1.3136783699250003,1.795073653620936,1.2096958645397766,0.23412760762993035
3.252687231749938,-1.3160139733268221,1.7943253348345496,1.2068179595421111,0.2259157209711251
3.2436284879849664,-1.3183375108771225,1.793581976406576,1.2039656298300876,0.21785453289514667
3.234472716472771,-1.3206488144039588,1.7928436408538388,1.201139167103725,0.2099454889337098
3.2252210127314993,-1.3229477157353886,1.7921103906931626,1.1983388630630412,0.2021900346185288
3.215874472279289,-1.3252340466994688,1.7913822884413717,1.1955650094080554,0.1945896154813167
3.2064341906342886,-1.3275076391242566,1.7906593966152906,1.1928178978387853,0.1871456770537887
3.1969012633146394,-1.3297683248378103,1.7899417777317435,1.1900978200552492,0.17985966486765737
3.1872767858384865,-1.3320159356681858,1.7892294943075546,1.1874050677574663,0.17273302445463923
3.1775618537239763,-1.3342503034434412,1.7885226088595485,1.1847399326454542,0.16576720134644685
3.167757562489247,-1.3364712599916342,1.7878211839045497,1.182102706419232,0.15896364107479322
3.157865007652449,-1.3386786371408212,1.787125281959382,1.1794936807788177,0.152323789171394
3.1478852847317196,-1.3408722667190598,1.7864349655408702,1.1769131474242294,0.14584909116796485
3.137819489245207,-1.3430519805544083,1.7857502971658386,1.1743613980554861,0.13954099259621788
3.1276687167110566,-1.3452176104749225,1.7850713393511115,1.1718387243726058,0.13340093898786698
3.1174340626474084,-1.347368988308661,1.7843981546135133,1.1693454180756073,0.12743037587462602
3.107116622572407,-1.34950594588368,1.7837308054698682,1.1668817708645085,0.12163074878821067
3.096717492004197,-1.3516283150280375,1.7830693544370004,1.1644480744393286,0.11600350326033482
3.0862377664609255,-1.3537359275697909,1.7824138640317349,1.1620446205000847,0.11055008482271145
3.0756785414607313,-1.3558286153369967,1.7817643967708952,1.1596717007467965,0.10527193900705445
3.0650409125217597,-1.3579062101577137,1.7811210151713066,1.1573296068794816,0.10017051134507948
3.0543259751621585,-1.3599685438599975,1.7804837817497927,1.1550186305981591,0.09524724736849954
3.0435348249000644,-1.3620154482719067,1.779852759023178,1.1527390636028467,0.09050359260903118
3.0326685572536305,-1.3640467552214979,1.779228009508287,1.1504911975935628,0.08594099259838384
3.0217282677409916,-1.366062296536829,1.7786095957219445,1.1482753242703267,0.08156089286827495
3.010715051880299,-1.3680619040459565,1.7779975801809738,1.146091735333156,0.0773647389504184
2.9996300051896907,-1.3700454095769388,1.7773920254022,1.143940722482069,0.07335397637652807
2.988474223187315,-1.3720126449578323,1.7767929939024472,1.1418225774170847,0.06953005067831608
2.977248801391313,-1.3739634420166942,1.7762005481985397,1.139737591838221,0.06589440738750163
2.9659548353198284,-1.3758976325815828,1.7756147508073024,1.1376860574454968,0.06244849203579328
2.954593420491009,-1.3778150484805551,1.7750356642455587,1.1356682659389299,0.059193750154908464
2.943165652422997,-1.3797155215416674,1.7744633510301335,1.1336845090185395,0.05613162727655929
2.931672626633934,-1.3815988835929782,1.7738978736778512,1.131735078384343,0.05326356893246231
2.9201154386419628,-1.3834649664625442,1.7733392947055362,1.1298202657363594,0.05059102065432963
2.9084951839652335,-1.3853136019784231,1.7727876766300128,1.1279403627746076,0.048115427973876024
2.8968129581218864,-1.3871446219686723,1.7722430819681052,1.126095661199105,0.045838236422813594
2.8850698566300634,-1.3889578582613482,1.7717055732366376,1.1242864527098704,0.043760891532862445
2.873266975007911,-1.3907531426845094,1.7711752129524347,1.122513029006922,0.04188483883573024
2.8614054087735763,-1.3925303070662125,1.7706520636323209,1.120775681790279,0.04021152386313265
2.849486253445198,-1.3942891832345143,1.77013618779312,1.119074702759959,0.03874239214678532
2.837510604540922,-1.3960296030174733,1.769627647951657,1.117410383615981,0.037478889218402145
2.8254795575788894,-1.3977513982431464,1.769126506624756,1.1157830160583628,0.03642246060969612
2.813394208077244,-1.39945440073959,1.7686328263292412,1.114192891787123,0.03557455185238467
2.8012556515541425,-1.401138442334863,1.7681466695819372,1.11264030250228,0.03493660847817637
2.789064983527708,-1.4028033548570213,1.767668098899668,1.1111255399038527,0.03451007601878864
2.7768232995161,-1.4044489701341232,1.7671971767992585,1.109648895691858,0.034296400005936256
2.7645316950374594,-1.4060751199942254,1.7667339657975323,1.1082106615663165,0.034297025971333994
2.7521912656099268,-1.4076816362653854,1.7662785284113145,1.1068111292272458,0.03451339944669218
2.739803106751647,-1.4092683507756605,1.7658309271574293,1.1054505903746632,0.03494696596372826
2.7273683139807643,-1.4108350953531081,1.7653912245527006,1.1041293367085883,0.035599171054153445
2.7148879828154238,-1.4123817018257858,1.7649594831139532,1.1028476599290382,0.036471460249683396
2.702363208773768,-1.4139080020217505,1.7645357653580112,1.1016058517360332,0.037565279082033776
2.689795087373942,-1.4154138277690593,1.764120133801699,1.1004042038295905,0.03888207308291669
2.67718471413409,-1.41689901089577,1.7637126509618413,1.0992430079097286,0.040423287784046025
2.664533184572349,-1.4183633832299396,1.7633133793552618,1.098122555676466,0.04219036871713833
2.6518415942068767,-1.4198067765996258,1.762922381498785,1.0970431388298216,0.044184761413905704
2.639111038555809,-1.4212290228328854,1.7625397199092359,1.0960050490698128,0.04640791140606382
2.626342613137286,-1.4226299537577765,1.7621654571034382,1.0950085780964585,0.04886126422532655
2.613537413469455,-1.4240094012023554,1.7617996555982167,1.094054017609777,0.051546265403403346
2.600696535070462,-1.4253671969946797,1.7614423779103952,1.0931416593097876,0.054464360472015194
2.587821073458451,-1.4267031729628072,1.7610936865567985,1.092271794896507,0.057616994962873314
2.574912124151563,-1.4280171609347958,1.7607536440542508,1.0914447160699552,0.06100561440768981
2.5619707826679408,-1.429308992738701,1.7604223129195762,1.09066071453015,0.06463166433818213
2.5489981445257355,-1.4305785002025813,1.7600997556695999,1.0899200819771093,0.06849659028606148
2.5359953052430875,-1.431825515154494,1.7597860348211452,1.0892231101108523,0.07260183778304619
2.5229633603381334,-1.4330498694224962,1.759481212891037,1.088570090631397,0.07694885236084748
2.5099034053290286,-1.4342513948346451,1.7591853523960994,1.087961315238762,0.08153907955117834
2.4968165357339114,-1.4354299232189982,1.7588985158531574,1.0873970756329654,0.08637396488575266
2.4837038470709256,-1.4365852864036124,1.7586207657790343,1.086877663514026,0.09145495389628877
2.470566434858216,-1.437717316216546,1.7583521646905553,1.0864033705819613,0.09678349211449522
2.457405394613926,-1.438825844485855,1.7580927751045443,1.0859744885367912,0.10236102507209388
2.4442218218561997,-1.4399107030395981,1.7578426595378263,1.0855913090785332,0.10818899830078976
2.4310168121031808,-1.4409717237058315,1.7576018805072249,1.085254123907205,0.1142688573323003
2.4177914608730138,-1.4420087383126132,1.7573705005295643,1.084963224722827,0.1206020476983447
2.4045468636838407,-1.4430215786880005,1.7571485821216697,1.0847189032254159,0.12719001493062976
2.3912841160538107,-1.4440100766600499,1.7569361878003649,1.0845214511149903,0.13403420456087645
2.3780043135010613,-1.4449740640568198,1.7567333800824745,1.0843711600915689,0.14113606212079155
2.36470855154374,-1.4459133727063664,1.7565402214848227,1.0842683218551707,0.14849703314209428
2.351397925699988,-1.4468278344367482,1.7563567745242339,1.0842132281058132,0.1561185631565003
2.3380735314879564,-1.447717281076022,1.7561831017175322,1.0842061705435153,0.1640020976957164
2.3247364644257775,-1.4485815444522445,1.7560192655815425,1.0842474408682947,0.17214908229146353
2.311387820031606,-1.4494204563934738,1.7558653286330888,1.0843373307801707,0.18056096247545206
2.298028693823581,-1.4502338487277668,1.7557213533889953,1.0844761319791614,0.1892391837794012
2.284660181319847,-1.4510215532831818,1.755587402366087,1.0846641361652851,0.19818519173501237
2.2712833780385466,-1.4517834018877747,1.7554635380811872,1.0849016350385603,0.20740043187401902
2.257899379497827,-1.4525192263696034,1.7553498230511209,1.0851889202990055,0.21688634972811904
2.2445092812158274,-1.453228858556726,1.7552463197927126,1.085526283646638,0.22664439082903343
2.2311141787107003,-1.4539121302771982,1.7551530908227866,1.085914016781478,0.23667600070847605
2.217715167500577,-1.4545688733590783,1.7550701986581665,1.0863524114035432,0.24698262489815725
2.204313343103614,-1.4551989196304236,1.7549977058156778,1.0868417592128519,0.257565708929798
2.190909801037942,-1.4558021009192916,1.754935674812144,1.0873823519094217,0.2684266983351069
2.1775056368217145,-1.4563782490537391,1.7548841681643899,1.0879744811932723,0.2795670386458031
2.1641019459730773,-1.456927195861824,1.7548432483892398,1.0886184387644213,0.2909881753935917
2.1506998240101662,-1.4574487731716026,1.7548129780035178,1.0893145163228886,0.3026915541101953
2.1373003664511323,-1.4579428128111331,1.7547934195240484,1.0900630055686895,0.31467862032732263
2.1239046688141165,-1.4584091466084732,1.754784635467656,1.0908641982018452,0.3269508195766946
2.110513826617262,-1.4588476063916789,1.754786688351165,1.0917183859223736,0.33950959739001974
2.097128935378712,-1.4592580239888084,1.7547996406913995,1.092625860430292,0.35235639929901197
2.083751090616615,-1.459640231227919,1.7548235550051838,1.09358691342562,0.3654926708353887
2.0703813878491095,-1.4599940599370678,1.7548584938093428,1.0946018366083756,0.3789198575308621
2.0570209225943428,-1.4603193419443126,1.7549045196207005,1.095670921678577,0.39263940491714777
2.0436707903704576,-1.4606159090777096,1.7549616949560811,1.0967944603362427,0.40665275852595606
2.030332086695598,-1.4608835931653172,1.7550300823323093,1.097972744281391,0.4209613638890026
2.017005907087908,-1.4611222260351922,1.7551097442662094,1.0992060652140403,0.4355666665380049
2.0036933470655285,-1.4613316395153921,1.7552007432746053,1.1004947148342088,0.450470112004675
1.9903955021466118,-1.4615116654339741,1.7553031418743217,1.101838984841916,0.46567314582072683
1.977113467849291,-1.4616621356189958,1.755417002582183,1.103239166937179,0.48117721351787424
1.9638483396917188,-1.4617828818985144,1.7555423879150136,1.1046955528200169,0.4969837606278311
1.9506012131920354,-1.461873736100586,1.7556793603896375,1.1062084341904486,0.5130942326823131
1.9373731838683845,-1.4619345300532707,1.7558279825228793,1.1077781027484908,0.5295100752130324
1.92416534723891,-1.4619650955846228,1.7559883168315635,1.1094048501941636,0.5462327337517046
1.910978798821752,-1.4619652645227015,1.756160425832514,1.1110889682274845,0.5632636538300435
1.8978146341350666,-1.4619348686955633,1.7563443720425558,1.1128307485484723,0.5806042809797596
1.8846739486969888,-1.461873739931266,1.7565402179785128,1.1146304828571454,0.598256060732572
1.8715578380256623,-1.4617817100578667,1.756748026157209,1.1164884628535217,0.6162204386201946
1.8584673976392345,-1.461658610903423,1.7569678590954694,1.1184049802376204,0.6344988601743378
1.8454037230558438,-1.4615042742959918,1.7571997793101182,1.1203803267094594,0.6530927709267189
1.8323679097936392,-1.4613185320636306,1.7574438493179798,1.1224147939690572,0.6720036164090537
1.819361053370761,-1.4611012160343964,1.7577001316358785,1.124508673716432,0.6912328421530507
1.8063842493053581,-1.460852158036347,1.7579686887806385,1.1266622576516023,0.7107818936904273
1.7934385931155727,-1.4605711898975395,1.7582495832690843,1.1288758374745869,0.7306522165528992
1.7805251803195432,-1.4602581434460304,1.7585428776180398,1.1311497048854036,0.7508452562721732
1.767645106435415,-1.459912850509879,1.75884863434433,1.1334841515840717,0.7713624583799739
1.7547994669813445,-1.4595351429171413,1.7591669159647791,1.1358794692706082,0.7922052684080114
1.7419893574754628,-1.459124852495874,1.7594977849962112,1.1383359496450334,0.8133751318879963
1.729215873435912,-1.4586818110741353,1.759841303955451,1.1408538844073632,0.834873494351644
1.7164801103808465,-1.4582058504799833,1.7601975353593224,1.1434335652576184,0.856701801330674
1.703783163828403,-1.4576968025414736,1.76056654172465,1.1460752838958164,0.8788614983567964
1.6911261292967286,-1.4571544990866645,1.7609483855682582,1.1487793320219755,0.9013540309617198
1.6785101023039637,-1.456578771943613,1.7613431294069715,1.1515460013361136,0.9241808446771671
1.6659361783682556,-1.4559694529403773,1.761750835757614,1.1543755835382505,0.9473433850348503
1.6534054530077462,-1.455326373905013,1.7621715671370097,1.1572683703284041,0.9708430975664832
1.6409190217405794,-1.4546493666655789,1.762605386061984,1.1602246534065919,0.9946814278037763
1.6284779800849059,-1.4539382630501316,1.7630523550493602,1.1632447244728334,1.0188598212784488
1.616083423558857,-1.4531928948867294,1.7635125366159632,1.166328875227146,1.0433797235222073
1.6037364476805855,-1.4524130940034286,1.763985993278617,1.1694773973695494,1.0682425800667765
1.5914381479682334,-1.4515986922282864,1.7644727875541464,1.1726905826000604,1.0934498364438614
1.5791896199399442,-1.4507495213893602,1.7649729819593758,1.1759687226186988,1.1190029381851812
1.5669919591138601,-1.4498654133147078,1.765486639011129,1.1793121091254828,1.1449033308224497
1.554846261008132,-1.4489461998323865,1.7660138212262302,1.1827210338204295,1.1711524598873808
1.5427536211408928,-1.4479917127704531,1.7665545911215046,1.186195788403559,1.197751770911685
1.5307151350302952,-1.4470017839569655,1.767109011213776,1.1897366645748888,1.2247027094270813
1.5187318981944777,-1.4459762452199802,1.7676771440198689,1.1933439540344382,1.2520067209652836
1.506805006151593,-1.4449149283875558,1.7682590520566075,1.197017948482224,1.279665251057997
1.4949355544197758,-1.4438176652877484,1.7688547978408162,1.2007589396182659,1.3076797452369497
1.4831246385171735,-1.4426842877486163,1.7694644438893197,1.2045672191425814,1.3360516490338465
1.471373353961928,-1.441514627598216,1.770088052718942,1.2084430787551899,1.3647824079804067
1.4596827962721868,-1.4403085166646052,1.7707256868465078,1.2123868101561093,1.3938734676083389
1.4480540609660864,-1.439065786775841,1.771377408788841,1.2163987050453575,1.4233262734493604
1.436488243561783,-1.4377862697599806,1.772043281062766,1.2204790551229538,1.4531422710351851
1.4249864395774132,-1.4364697974450822,1.7727233661851072,1.2246281520889166,1.4833229058975217
1.4135497445311174,-1.4351162016592018,1.773417726672689,1.2288462876432638,1.5138696235680982
1.402179253941048,-1.4337253142303985,1.7741264250423363,1.2331337534860127,1.5447838695786178
1.39087606332534,-1.4322969669867278,1.7748495238108721,1.2374908413171846,1.5760670894607962
1.379641268202148,-1.4308309917562478,1.7755870854951223,1.2419178428367954,1.6077207287463438
1.3684759640896047,-1.4293272203670162,1.7763391726119107,1.2464150497448654,1.639746232966985
1.3573812465058577,-1.4277854846470894,1.7771058476780608,1.2509827537414098,1.6721450476544213
1.3463582109690595,-1.426205616424525,1.7778871732103978,1.2556212465264505,1.7049186183403826
1.3354079529973397,-1.4245874475273805,1.7786832117257463,1.2603308198000054,1.7380683905565686
1.3245315681088563,-1.4229308097837141,1.7794940257409295,1.2651117652620902,1.771595809834702
1.3137301518217406,-1.4212355350215815,1.7803196777727732,1.269964374612727,1.8055023217064932
1.303004799654147,-1.4195014550690408,1.781160230338101,1.2748889395519316,1.8397893717036506
1.2923566071242156,-1.4177284017541498,1.782015745953737,1.2798857517797222,1.8744584053579008
1.2817866697500815,-1.4159162069049644,1.782886287136506,1.2849551029961201,1.9095108682009485
1.2712960830499043,-1.4140647023495436,1.7837719164032322,1.2900972849011403,1.9449482057645096
1.2608859425418117,-1.4121737199159439,1.7846726962707402,1.2953125891948027,1.9807718635803067
1.2505573437439637,-1.4102430914322222,1.785588689255854,1.3006013075771272,2.0169832871800413
1.2403113821744949,-1.4082726487264368,1.7865199578753974,1.305963731748129,2.053583922095436
1.230149153351551,-1.4062622236266433,1.787466564646196,1.311400153407829,2.0905752138582
1.2200717527932738,-1.4042116479609015,1.7884285720850737,1.316910864256244,2.1279586080000517
1.2100802760178127,-1.4021207535572668,1.7894060427088543,1.3224961559933943,2.1657355500527
1.200175818543304,-1.3999893722437973,1.7903990390343627,1.3281563203192968,2.203907485547859
1.190359475887897,-1.3978173358485502,1.7914076235784233,1.333891648933971,2.2424758600172545
1.1806323435697337,-1.395604476199583,1.7924318588578603,1.3397024335374335,2.281442118992583
1.170995517106963,-1.3933506251249517,1.7934718073894977,1.345588965829704,2.320807708005571
1.1614500920177289,-1.391055614452715,1.7945275316901605,1.351551537510801,2.3605740725879336
1.1519971638201625,-1.388719276010931,1.7955990942766724,1.3575904402807422,2.4007426582713762
1.1426378280324148,-1.3863414416276547,1.7966865576658582,1.363705965839547,2.441314910587618
1.1333731801726383,-1.3839219431309457,1.7977899843745424,1.3698984058872332,2.4812102368588285
1.124204315758968,-1.3814606123488593,1.7989094369195486,1.3761680521238193,2.518705327225348
1.1151323303095513,-1.3789572811094541,1.8000449778177021,1.3825151962493236,2.5538535023989652
1.106158319342521,-1.3764117812407872,1.8011966695858264,1.3889401299637645,2.586708083091594
1.0972833783760425,-1.3738239445709155,1.8023645747407464,1.3954431449671612,2.617322390016966
1.088508602928247,-1.3711936029278973,1.803548755799286,1.4020245329595307,2.645749743886654
1.0798350885172727,-1.3685205881397882,1.8047492752782706,1.4086845856408914,2.6720434654134806
1.0712639306612708,-1.365804732034647,1.805966195694523,1.415423594711263,2.696256875309473
1.0627962248783849,-1.363045866440531,1.8071995795648683,1.4222418518706634,2.718443294286999
1.054433066686764,-1.3602438231854963,1.8084494894061316,1.4291396488191115,2.738656043059109
1.046175551604538,-1.3573984340976013,1.809715987735136,1.4361172772566233,2.756948442337489
1.0380247751498626,-1.3545095310049033,1.8109991370687066,1.4431750288832204,2.7733738128346204
1.0299818328408836,-1.351576945735459,1.8122989999236674,1.4503131953989188,2.7879854752636675
1.0220478201957395,-1.348600510117326,1.8136156388168427,1.4575320685037383,2.800836750336316
1.014223832732565,-1.3455800559785618,1.8149491162650577,1.4648319398976968,2.8119809587655027
1.0065109659695253,-1.3425154151472238,1.8162994947851356,1.472213101280813,2.8214714212632543
0.9989103154247445,-1.339406419451369,1.8176668368939013,1.479675844353105,2.829361458542053
0.9914229766163771,-1.336252900719055,1.8190512051081793,1.4872204608145907,2.8357043913149482
0.9840500450625669,-1.3330546907783387,1.8204526619447934,1.4948472423652905,2.8405535402932856
0.9767926162814504,-1.329811621457277,1.8218712699205686,1.5025564807052207,2.8439622261900013
0.9696517857911786,-1.3265235245839282,1.8233070915523286,1.510348467534401,2.845983769717691
0.9626286491098988,-1.32319023198635,1.8247601893568985,1.51822349455285,2.846671491588495
0.9557243017557475,-1.319811575492598,1.8262306258511019,1.5261818534605842,2.8460787125147817
0.9489398392468686,-1.3163873869307308,1.827718463551764,1.5342238359576221,2.844258753210056
0.9422763571014094,-1.3129174981288059,1.8292237649757082,1.5423497337439844,2.841264934385549
0.9357349508375066,-1.3094017409148795,1.8307465926397595,1.5505598385196873,2.8371505767538565
0.9293167159733215,-1.3058399471170095,1.832287009060742,1.558854441984752,2.831969001027346
0.9230227480269733,-1.3022319485632532,1.83384507675548,1.5672338358391933,2.8257735279185
0.9168541425166268,-1.298577577081669,1.8354208582407983,1.5756983117830323,2.818617478140254
0.9108119949604117,-1.294876664500313,1.8370144160335207,1.5842481615162853,2.8105541724044087
0.904897400876493,-1.291129042647242,1.8386258126504718,1.592883676738973,2.8016369314239
0.899111455782986,-1.2873345433505148,1.840255110608476,1.6016051491511112,2.7919190759113235
0.8934552551980595,-1.2834929984381866,1.8419023724243573,1.6104128704527225,2.7814539265779104
0.8879298946398428,-1.2796042397383176,1.8435676606149407,1.6193071323438213,2.770294804137734
0.8825364696264835,-1.2756680990789624,1.84525103769705,1.6282882265244254,2.758495029301116
0.8772760756761251,-1.2716844082881797,1.8469525661875095,1.637356444694558,2.746107922782585
0.8721498083069186,-1.2676529991940266,1.848672308603144,1.6465120785542329,2.7331868052932577
0.8671587630369899,-1.2635737036245618,1.8504103274607775,1.6557554198034703,2.719784997546526
0.8623040353845042,-1.2594463534078404,1.8521666852772345,1.6650867601422892,2.705955820253962
0.857586720867598,-1.2552707803719199,1.8539414445693398,1.6745063912707066,2.6917525941282747
0.853007915004401,-1.2510468163448576,1.8557346678539166,1.684014604888742,2.6772286398820597
0.8485687133130781,-1.2467742931547137,1.8575464176477903,1.6936116926964138,2.662437278227685
0.8442702113117662,-1.2424530426295415,1.859376756467785,1.7032979463937394,2.6474318298769504
0.8401135045186052,-1.2380828965974011,1.8612257468307247,1.713073657680738,2.6322656155438153
0.836099688451732,-1.2336636868863482,1.8630934512534338,1.722939118257428,2.6169919559389427
0.832229858629308,-1.229195245324441,1.8649799322527372,1.7328946198238269,2.6016641717754965
0.8285051105694663,-1.2246774037397365,1.8668852523454587,1.742940454079954,2.5863355837661857
0.8249265397903542,-1.2201099939602926,1.868809474048423,1.7530769127258283,2.5710595126229236
0.8214952418101156,-1.2154928478141658,1.870752659878454,1.7633042874614677,2.5558892790592154
0.8182123121468976,-1.210825797129413,1.8727148723523768,1.7736228699868892,2.5408782037860647
0.8150788463188441,-1.2061086737340938,1.8746961739870152,1.7840329520021125,2.5260796075162943
0.8120959398440739,-1.2013413094562622,1.8766966272991932,1.7945348252071556,2.511546810963182
0.8092646882407699,-1.1965235361239777,1.8787162948057357,1.805128781302038,2.497333134837959
0.8065861870270581,-1.1916551855652981,1.8807552390234674,1.8158151119867778,2.483491899853334
0.8040615317210751,-1.1876785449940144,1.882813522469212,1.8265941089613928,2.470076426721903
0.8016918178409789,-1.185476358282358,1.884891207659794,1.8374660639259002,2.457140036157057
0.7994781409049025,-1.184839182763426,1.8869883571120378,1.8484312685803204,2.4447360488702543
0.7974215964310041,-1.1855575757558654,1.8891050333427677,1.8594900146246713,2.432917785573636
0.7955232799374059,-1.1874220945787783,1.8912412988688079,1.870642593758971,2.4217385669797977
0.793784286942266,-1.1902232965503572,1.8933972162069834,1.8818892976832364,2.4112517138021303
0.7922057129637281,-1.193751738987885,1.8955728478741176,1.893230418097489,2.4015105467516378
0.7907886535199289,-1.197797979220013,1.897768256387036,1.9046662467017468,2.392568386541143
0.7895342041290228,-1.2021525745572035,1.899983504262562,1.916197075196025,2.3844785538838096
0.7884434603091499,-1.2066060823235603,1.90221865401752,1.9278231952803448,2.377294369491665
0.7875175175784577,-1.210949059840459,1.904473768168735,1.9395448986547246,2.3710691540770767
0.7867574714550756,-1.2149720644238187,1.906748909233031,1.951362477019181,2.3658562283526408
0.786164417457158,-1.2184656533972884,1.909044139727232,1.963276222073734,2.361708913030043
0.7857394511028524,-1.2212203840736038,1.911359522168163,1.9752864255184015,2.358680528822788
0.7854836679102917,-1.2230268137800522,1.9136951190726477,1.987393379053203,2.3568243964423345
0.7853981633976304,-1.2236754998357355,1.9160509929575107,1.9995973743781539,2.3561938366021877
