oscarkremer/mentor-optimization/notebooks/traject_2/adaptive/angles_4.csv
theta1,theta2,theta3,theta4,theta5
3.7295952571373574,-0.7943678438589166,1.973043134264813,1.9629173631838936,3.2059965904706873
3.7295612594610525,-0.7943951629507627,1.97274350128315,1.9628981218870953,3.2052295914234206
3.729460165643493,-0.7944769119283214,1.9718571432678274,1.96284058120082,3.2029678496094545
3.729293324501713,-0.7946127783446226,1.970402871613346,1.9627450159312476,3.1992702480205413
3.729062084852745,-0.7948024497526969,1.9683994977142056,1.9626117008845572,3.194195669648433
3.7287677955136234,-0.7950456137055741,1.9658658329649072,1.9624409108669287,3.1878029974848805
3.728411805301381,-0.7953419577562849,1.9628206887599502,1.962232920684542,3.180151114521637
3.727995463033051,-0.7956911694578591,1.9592828764938355,1.9619880051435763,3.1712989037504538
3.727520117525667,-0.7960929363633272,1.955271207561063,1.961706439050211,3.161305248163083
3.7269871175962628,-0.7965469460257192,1.9508044933561333,1.9613884972106266,3.150229030751276
3.7263978120618715,-0.7970528859980656,1.9459015452735464,1.9610344544310019,3.1381291345067854
3.725753549739527,-0.7976104438333962,1.940581174707803,1.9606445855175172,3.1250644424213627
3.7250556794462617,-0.7982193070847418,1.934862193053403,1.9602191652763514,3.11109383748676
3.724305549999109,-0.798879163305132,1.9287634117048464,1.9597584685136846,3.096276202694728
3.723504510215104,-0.7995897000475974,1.9223036420566342,1.9592627700356964,3.080670421037021
3.7226539089112785,-0.8003506048651681,1.9155016955032662,1.9587323446485658,3.0643353755053884
3.721755094904666,-0.8011615653108745,1.9083763834392429,1.9581674671584735,3.0473299490915835
3.7208094170123007,-0.8020222689377465,1.9009465172590645,1.9575684123715982,3.029713024787358
3.7198182240512154,-0.8029324032988147,1.8932309083572314,1.9569354550941198,3.011543485584464
3.7187828648384436,-0.803891655947109,1.8852483681282435,1.9562688701322182,2.9928802144746527
3.717704688191019,-0.8048997144356597,1.8770177079666015,1.9555689322920726,2.9737820944496764
3.716585042925975,-0.8059562663174972,1.8685577392668056,1.9548359163798628,2.954308008501287
3.7154252778603443,-0.8070609991456515,1.8598872734233558,1.9540700972017686,2.934516839621237
3.7142267418111614,-0.8082136004731529,1.8510251218307527,1.9532717495639693,2.9144674708012768
3.7129907835954583,-0.8094137578530316,1.8419900958834965,1.9524411482726447,2.8942187850331598
3.71171875203027,-0.8106611588383179,1.8328010069760876,1.9515785681339743,2.873829665308637
3.7104119959326285,-0.811955490982042,1.823476666503026,1.9506842839541378,2.8533589946194606
3.7090718641195686,-0.813296441837234,1.8140358858588121,1.949758570539315,2.8328656559573826
3.707699705408122,-0.8146836989569243,1.8044974764379462,1.948801702695685,2.812408532314154
3.7062968686153237,-0.816116949894143,1.7948802496349283,1.947813955229428,2.7920465066815288
3.7048647025582064,-0.8175958822019204,1.7852030168442594,1.9467956029467235,2.771838462051256
3.7034045560538034,-0.8191201834332865,1.7754845894604392,1.9457469206537508,2.7518432814150904
3.7019177779191486,-0.8206895411412719,1.7657437788779682,1.9446681831566894,2.7321198477647815
3.7004057169712747,-0.8223036428789064,1.7559993964913463,1.9435596652617195,2.712727044092083
3.6988697220272155,-0.8239621761992207,1.7462702536950743,1.9424216417750204,2.6937237533887455
3.697311141904005,-0.8256648286552446,1.7365751618836525,1.941254387502772,2.675168858646522
3.6957313254186754,-0.8274112878000086,1.7269329324515805,1.9400581772511534,2.6571212428571633
3.6941316213882605,-0.8292012411865426,1.7173623767933592,1.9388332858263444,2.639639789012422
3.692513378629794,-0.8310343763678772,1.707882306303489,1.9375799880345248,2.6227833801040497
3.6908779459603096,-0.8329103808970424,1.6985115323764695,1.9362985586818742,2.6066108991237984
3.6892266721968405,-0.8348289423270685,1.6892688664068016,1.934989272574572,2.59118122906342
3.6875609061564196,-0.8367897482109856,1.680173119788985,1.9336524045187984,2.5765532529146666
3.6858819966560805,-0.838792486101824,1.6712431039175208,1.9322882293207322,2.5627858536692893
3.684191292512857,-0.8408368435526139,1.6624976301869088,1.9308970217865533,2.5499379143190413
3.682490142543782,-0.8429225081163857,1.6539555099916492,1.9294790567224416,2.5380683178556733
3.6807798955658892,-0.8450491673461694,1.645635554726242,1.9280346089345763,2.5272359472709383
3.679061900396212,-0.8472165087949953,1.6375565757851884,1.9265639532291376,2.517499685556587
3.677337505851784,-0.8494242200158936,1.6297373845629881,1.9250673644123046,2.508918415704372
3.6756080607496386,-0.8516719885618945,1.622196792454141,1.9235451172902571,2.501551020706045
3.673874913906809,-0.8539595019860283,1.6149536108531481,1.9219974866691747,2.495456383553358
3.6721394141403274,-0.8562864478413251,1.6080266511545092,1.920424747355237,2.490693387238063
3.6704029102672293,-0.8586525136808153,1.6014347247527252,1.9188271741546237,2.4873209147519115
3.6686667511045474,-0.861057387057529,1.5951966430422955,1.9172050418735143,2.485397849086656
3.6669322854693145,-0.8635007555244963,1.589331217417721,1.9155586253180883,2.4849830732340474
3.665200862178565,-0.8659823066347478,1.583857259273502,1.9138881992945258,2.4861354701858387
3.6634738300493312,-0.8685017279413134,1.5787935800041386,1.912194038609006,2.488913922933781
3.6617525378986473,-0.8710587069972233,1.5741589910041305,1.9104764180677085,2.493377314469627
3.6600383345435463,-0.8736529313555079,1.5699723036679791,1.9087356124768133,2.499584527785128
3.658332568801062,-0.8762840885691974,1.566252329390184,1.9069718966424996,2.5075944458720363
3.656636589488227,-0.8789518661913218,1.5630178795652456,1.9051855453709472,2.5174659517221025
3.6549517454220752,-0.8816559517749116,1.5602877655876641,1.9033768334683356,2.52925792832708
3.6532793854196406,-0.884396032872997,1.5580807988519403,1.9015460357408447,2.5430292586787204
3.651620858297956,-0.8871717970386079,1.5564157907525737,1.899693426994654,2.5588388257687757
3.649977512874055,-0.889982931824775,1.5553115526840653,1.897819282035943,2.576745512588997
3.6483506979649705,-0.8928291247845281,1.5547868960409146,1.8959238756708914,2.596808202131136
3.6467417623877365,-0.8957100634708975,1.5548606322176224,1.8940074827056788,2.6190857773869465
3.6451520549593868,-0.8986254354369138,1.5555515726086893,1.8920703779464847,2.643637121348179
3.643582924496953,-0.9015749282356067,1.5568785286086146,1.8901128361994888,2.669218658242727
3.6420357198174704,-0.9045582294200067,1.5588603116118993,1.8881351322708708,2.6945544044971363
3.640511789737972,-0.9075750265431441,1.5615157330130438,1.8861375409668102,2.7196452251990606
3.6390124830754904,-0.910625007158049,1.564863604206548,1.8841203370934867,2.744491985436153
3.63753914864706,-0.9137078588177515,1.568922736586912,1.88208379545708,2.769095550296068
3.636093135269713,-0.9168232690752819,1.5737119415486367,1.8800281908637695,2.7934567848664584
3.6346757917604844,-0.9199709254836707,1.579250030486222,1.877953798119735,2.817576554234979
3.6332884669364063,-0.9231505155959476,1.5855558147941682,1.8758608920311561,2.841455723489284
3.6319325096145127,-0.9263617269651433,1.5926481058669755,1.8737497474042122,2.8650951577170254
3.6306092686118365,-0.9296042471442877,1.600545715099145,1.8716206390450831,2.8884957220058576
3.629320092745412,-0.9328777636864112,1.6092674538851754,1.8694738417599486,2.911658281443435
3.628066330832272,-0.9361819641445439,1.6188321336195681,1.867309630354988,2.9345837011174107
3.6268493316894497,-0.9395165360717161,1.6292585656968235,1.865128279636381,2.9572728461154387
3.6256704441339793,-0.9428811670209581,1.6405655615114412,1.8629300644103073,2.9797265815251732
3.624531016982893,-0.9462755445453002,1.6527719324579222,1.8607152594829468,3.0019457724342673
3.6234323990532253,-0.9496993561977721,1.6658964899307658,1.8584841396604783,3.023931283930375
3.6223759391620094,-0.9531522895314045,1.6799580453244733,1.856236979749082,3.0456839811011496
3.6213629861262784,-0.9566340320992276,1.6949754100335443,1.8539740545549377,3.067204729034245
3.6203948887630655,-0.9601442714542714,1.71096739545248,1.8516956388842245,3.0884943928173167
3.6194729958894047,-0.9636826951495663,1.7279528129757793,1.8494020075431226,3.1095538375380154
3.6185986563223294,-0.9672489907381423,1.7459504739979435,1.847093435337811,3.130383928283997
3.6177732188788725,-0.9708428457730298,1.7649791899134721,1.8447701970744697,3.150985530142915
3.6169980323760678,-0.9744639478072593,1.7844104459193182,1.842432567559278,3.171359508202422
3.6162744456309484,-0.9781119843938606,1.803638292604156,1.8400808215984161,3.1915067275501725
3.615603807460548,-0.9817866430858637,1.822663492233274,1.8377152339980631,3.2114280532738206
3.6149874666819,-0.9854876114362995,1.8414868070719572,1.8353360795643987,3.2311243504610205
3.6144267721120373,-0.9892145769981978,1.8601089993854911,1.8329436331036026,3.2505964841994244
3.613923072567994,-0.9929672273245889,1.8785308314391647,1.8305381694218545,3.269845319576687
3.613477716866803,-0.9967452499685032,1.8967530654982607,1.828119963325334,3.2888717216804615
3.613092053825498,-1.0005483324829705,1.9147764638280682,1.8256892896202204,3.3076765555984036
3.612767432261112,-1.0043761624210215,1.9326017886938727,1.823246423112694,3.326260686418164
3.6125052009906793,-1.0082284273356859,1.950229802360959,1.8207916386089336,3.3446249792273983
3.612306708831232,-1.0121048147799943,1.9676612670946156,1.8183252109151191,3.36277029911376
3.6121733045998052,-1.0160050123069768,1.984896945160127,1.8158474148374306,3.380697511164902
3.6121063371134308,-1.019928707469664,2.001937598822781,1.8133585251820472,3.3984074804684807
3.612107155189143,-1.0238755878210855,2.0187839903478633,1.8108588167551485,3.415901072112146
3.6121771076439746,-1.0278453409142718,2.03543688200066,1.8083485643629145,3.433179151183555
3.6123175432949592,-1.0318376543022532,2.051897036046457,1.8058280428115243,3.4502425827703593
3.612529810959131,-1.0358522155380596,2.0681652147505414,1.803297526907158,3.467092231960214
3.612815259453522,-1.0398887121747216,2.0842421803781987,1.800757291455995,3.4837289638407714
3.613175237595167,-1.0439468317652694,2.100128695194716,1.7982076112642151,3.5001536434996874
3.6136110942010986,-1.048026261862733,2.1158255214653785,1.7956487611379977,3.5163671360246136
3.6141241780883506,-1.0521266900201427,2.1313334214554738,1.7930810158835224,3.5323703065032044
3.614715838073956,-1.0562478037905285,2.1466531574302867,1.790504650306969,3.548164020023115
3.6153874229749485,-1.0603892907269215,2.161785491655105,1.7879199392145169,3.5637491416719964
3.616140281608361,-1.0645508383823508,2.176731186395214,1.7853271574123457,3.579126536537505
3.616975762791228,-1.068732134309847,2.1914910039159015,1.7827265797066354,3.594297069707293
3.6178952153405817,-1.0729328660624409,2.20606570648245,1.7801184809035655,3.6092616062690137
3.6188999880734563,-1.077152721193162,2.2204560563601503,1.7775031358093152,3.624021011310323
3.619991429806885,-1.0813913872550407,2.234662815814286,1.7748808192300642,3.6385761499188725
3.6211708893579013,-1.0856485518011074,2.2486867471101437,1.772251805971993,3.652927887182318
3.622439715543538,-1.089923902384392,2.262528612513011,1.76961637084128,3.667077088188311
3.6237992571808295,-1.094217126557925,2.276189174288173,1.7669747886441056,3.681024618024506
3.625250863086808,-1.0985279118747369,2.289669194700915,1.764327334186649,3.6947713417785586
3.626795882078508,-1.1028559458878573,2.3029694360165256,1.7616742822750902,3.70831812453812
3.6284356629729624,-1.1072009161503167,2.31609066050029,1.7590159077156085,3.7216658313908457
3.630171554587205,-1.1115625102151454,2.329033630417494,1.7563524853143835,3.7348153274243883
3.632004905738268,-1.1159404156353734,2.3417991080334244,1.7536842898775953,3.747767477726402
3.6339370652431864,-1.120334319964031,2.3543878556133677,1.7510115962114228,3.76052314738454
3.635969381918993,-1.1247439107541488,2.3668006354226097,1.7483346791220462,3.7730832014864575
3.6379845682803933,-1.1291688755587566,2.379038209726436,1.7456538134156447,3.785448505119807
3.6398551832403743,-1.1336089019308844,2.3911013407901347,1.7429692738983984,3.7976199233722423
3.6415819759864956,-1.138063677423563,2.4029907908789916,1.7402813353764868,3.809598321331418
3.6431656957063154,-1.1425328895898224,2.414707322258291,1.7375902726560888,3.821384564084987
3.6446070915873916,-1.1470162259826928,2.426251697193322,1.734896360543385,3.832979516720604
3.645906912817282,-1.1515133741552044,2.437624677949369,1.7321998738445543,3.844384044325921
3.647065908583545,-1.1560240216603872,2.44882702679172,1.7295010873657768,3.855599011988593
3.6480848280737397,-1.160547856051272,2.459859505985658,1.726800275913232,3.8666252847962745
3.6489644204754237,-1.1650845648808885,2.4707228777964727,1.7240977142930993,3.8774637278366173
3.6497054349761546,-1.169633835702267,2.4814179044894495,1.7213936773115586,3.8881152061972775
3.650308620763493,-1.174195356068438,2.491945348329873,1.7186884397747892,3.8985805849659068
3.650774727024994,-1.1787688135324312,2.5023059715830316,1.715982276488971,3.908860729230159
3.6511045029482188,-1.1833538956472776,2.5125005365142106,1.7132754622602837,3.91895650407769
3.6512986977207236,-1.1879502899660066,2.5225298053886958,1.7105682718949065,3.928868774596151
3.6513580605300677,-1.1925576840416492,2.5323945404717745,1.7078609801990192,3.938598405873197
3.6512833405638094,-1.1971757654272348,2.542095504028733,1.7051538619788018,3.948146262996482
3.651075287009506,-1.2018042216757943,2.551633458324856,1.7024471920404334,3.9575132110536586
3.650734649054717,-1.2064427403403577,2.5610091656254323,1.6997412451900937,3.9667001151323826
3.650262175887,-1.211091008973955,2.5702233881957457,1.6970362962339625,3.975707840320305
3.6496586166939124,-1.2157487151296165,2.5792768883010853,1.6943326199782194,3.984537251705083
3.648924720663015,-1.2204155463603727,2.5881704282067335,1.691630491229044,3.9931892143743672
3.648061236981863,-1.2250911902192538,2.59690477017798,1.688930184792616,4.001664593415812
3.6470689148380164,-1.2297753342592896,2.6054806764801093,1.6862319754751145,4.009964253917072
3.645948503419034,-1.2344676660335108,2.613898909378408,1.6835361380827196,4.018089060965801
3.644700751912473,-1.2391678730949474,2.622160231138163,1.6808429474216111,4.026039879649653
3.6433264095058924,-1.2438756429966296,2.6302654040246605,1.678152678297968,4.03381757505628
3.641826225386849,-1.2485906632915873,2.638215190303185,1.6754656055179709,4.041423012273338
3.640200948742902,-1.2533126215328512,2.646010352239026,1.6727820038877983,4.048857056388477
3.6384513287616107,-1.258041205273452,2.653651652097467,1.6701021482136302,4.056120572489356
3.636578114630532,-1.2627761020664185,2.661139852143796,1.6674263133016467,4.063214425663626
3.634582055537224,-1.2675169994647821,2.668475714643298,1.6647547739580268,4.0701394809989395
3.6324639006692463,-1.2722635850215727,2.67566000186126,1.6620878049889507,4.076896603582952
3.630224399214156,-1.2770155462898205,2.682693476062968,1.6594256812005974,4.083486658503318
3.627864300359512,-1.2817725708225556,2.689576899513708,1.6567686773991466,4.08991051084769
3.6253843532928727,-1.2865343461728085,2.6963110344787675,1.6541170683907784,4.096169025703721
3.6227853072017955,-1.291300559893609,2.7028966432234314,1.651471128981672,4.102263068159065
3.6200679112738396,-1.2960708995379875,2.7093344880129866,1.648831133978007,4.1081935033013774
3.6172329146965616,-1.3008450526589743,2.715625331112719,1.6461973581859635,4.113961196218312
3.6142810666575222,-1.3056227068096,2.7217699347879165,1.643570076411721,4.119567011997519
3.6112131163442784,-1.310403549542894,2.727769061303863,1.6409495634614584,4.125011815726657
3.6080298129443884,-1.3151872684118873,2.7336234729258453,1.6383360941413558,4.1302964724933755
3.604731905645411,-1.3199735509696096,2.7393339319191514,1.6357299432575931,4.135421847385331
3.6013201436349034,-1.324762084769091,2.744901200549066,1.6331313856163499,4.1403888054901765
3.597795276100425,-1.3295525573633626,2.7503260410808754,1.6305406960238054,4.145198211895567
3.5941580522295338,-1.3343446563054537,2.755609215779867,1.627958149286139,4.149850931689152
3.590409221209787,-1.3391380691483947,2.7607514869113263,1.6253840202095309,4.15434782995859
3.586549532228745,-1.343932483445216,2.765753616740539,1.622818583600161,4.158689771791534
3.5825797344739625,-1.348727586748948,2.7706163675327926,1.6202621142642077,4.162877622275634
3.5785005771330023,-1.3535230666126208,2.775340501553373,1.617714887007852,4.166912246498547
3.57431280939342,-1.3583186105892644,2.7799267810675663,1.6151771766372724,4.170794509547926
3.5700171804427736,-1.3631139062319089,2.784375968340657,1.6126492579586496,4.174525276511428
3.5656144394686224,-1.3679086410935852,2.7886888256379345,1.610131405778162,4.1781054124767
3.561105335658525,-1.3727025027273227,2.7928661152246836,1.60762389490199,4.181535782531401
3.556490618200038,-1.3774951786861525,2.7969085993661906,1.6051270001363132,4.1848172517631825
3.551771036280721,-1.3822863565231038,2.8008170403277415,1.6026409962873112,4.187950685259699
3.5469473390881325,-1.3870757237912077,2.8045922003746244,1.600166158161163,4.190936948108606
3.54202027580983,-1.3918629680434942,2.808234841772123,1.597702760564049,4.193776905397554
3.5369905956333705,-1.396647776832993,2.8117457267855244,1.5952510783021485,4.196471422214198
3.5318590477463148,-1.4014298377127352,2.815125617680116,1.5928113861816415,4.199021363646191
3.526626381336221,-1.40620883823575,2.818375276721184,1.5903839590087072,4.201427594781188
3.521293345590646,-1.4109844659550688,2.821495466174012,1.587969071589525,4.203690980706843
3.5158606896971483,-1.4157564084237206,2.8244869483038886,1.585566998730275,4.20581238651081
3.510329162843286,-1.4205243531947367,2.8273504853761007,1.5831780152371362,4.207792677280742
3.504699514216618,-1.4252879878211464,2.8300868396559333,1.580802395916289,4.209632718104292
3.498972493004703,-1.4300469998559806,2.8326967734086725,1.5784404155739127,4.211333374069112
3.4931488483950974,-1.4348010768522692,2.835181048899606,1.5760923490161867,4.212895510262861
3.4872293295753622,-1.4395499063630424,2.837540428394017,1.5737584710492905,4.214319991773191
3.481214685733052,-1.4442931759413307,2.8397756741571967,1.5714390564794045,4.215607683687752
3.475105666055729,-1.4490305731401638,2.841887548454427,1.5691343801127076,4.216759451094202
3.4689030197309494,-1.4537617855125726,2.8438768135509958,1.5668447167553798,4.217776159080191
3.4626074959462714,-1.458486500611587,2.8457442317121897,1.5645703412136003,4.218658672733379
3.456219843889254,-1.4632044059902372,2.8474905652032945,1.5623115282935494,4.219407857141413
3.4497408127474545,-1.4679151892015534,2.8491165762895956,1.560068552801406,4.22002457739195
3.4431711517084325,-1.4726185377985659,2.8506230272363835,1.5578416895433502,4.220509698572641
3.436511609959744,-1.4773141393343046,2.8520106803089376,1.555631213325561,4.220864085771145
3.4297629366889506,-1.4820016813618,2.8532802977725495,1.553437398954219,4.2210886040751125
3.422925881083607,-1.4866808514340824,2.8544326418925055,1.5512605212355028,4.221184118572196
3.4160011923312745,-1.491351337104182,2.855468474934087,1.549100854975593,4.221151494350051
3.4089896196195095,-1.496012825925129,2.8563885591625846,1.5469586749806683,4.220991596496331
3.4018919121358704,-1.5006650054499535,2.8571936568432843,1.5448342560569088,4.220705290098689
3.394708819067917,-1.5053075632316855,2.857884530241471,1.542727873010494,4.220293440244783
3.3874410896032057,-1.5099401868233562,2.8584619416224317,1.5406398006476039,4.219756912022259
3.3800894729292956,-1.5145625637779943,2.858926653251452,1.5385703137744173,4.219096570518776
3.372654718233746,-1.5191743816486314,2.859279427393819,1.5365196871971145,4.218313280821988
3.3651375747041126,-1.5237753279882968,2.8595210263148183,1.5344881957218752,4.217407908019547
3.357538791527955,-1.5283650903500214,2.8596522122797383,1.5324761141548784,4.216381317199107
3.3498591178928327,-1.532943356286835,2.8596737475538614,1.530483717302304,4.215234373448321
3.342099302986302,-1.5375098133517684,2.859586394402478,1.5285112799703318,4.213967941854844
3.3342600959959223,-1.5420641490978508,2.85939091509087,1.5265590769651414,4.212582887506329
3.3263422461092516,-1.5466060510781128,2.8590880718843272,1.5246273830929118,4.211080075490433
3.318346502513848,-1.5511352068455855,2.8586786270481355,1.5227164731598237,4.209460370894805
3.3102736143972713,-1.5556513039532982,2.858163342847579,1.5208266219720559,4.2077246388070995
3.302124330947077,-1.5601540299542813,2.8575429815479456,1.5189581043357883,4.205873744314973
3.293899401350824,-1.5646430724015645,2.8568183054145244,1.5171111950572005,4.203908552506077
3.2855995747960733,-1.5691181188481793,2.8559900767125947,1.5152861689424721,4.201829928468067
3.27722560047038,-1.573578856847155,2.8550590577074466,1.5134833007977826,4.199638737288595
3.268778227561303,-1.578024973951522,2.85402601066437,1.5117028654293119,4.197335844055315
3.2602582052564033,-1.5824561577143104,2.8528916978486443,1.5099451376432393,4.194922113855882
3.251666282743234,-1.5868720956885507,2.8516568815255616,1.5082103922457448,4.1923984117779485
3.2430032092093586,-1.591272475427273,2.850322323960405,1.5064989040430075,4.18976560290917
3.2342697338423325,-1.5956569844835073,2.8488887874184616,1.5048109478412075,4.187024552337197
3.2254666058297157,-1.6000253104102846,2.847357034165017,1.503146798446524,4.184176125149687
3.216594574359063,-1.6043771407606342,2.8457278264653603,1.5015067306651368,4.18122118643429
3.2076543886179376,-1.6087121630875867,2.844001926584772,1.499891019303226,4.178160601278664
3.1986467977938924,-1.613030064944172,2.8421800967885433,1.4982999391669705,4.17499523477046
3.1895725510744892,-1.617330533883421,2.8402630993419606,1.49673376506255,4.17172595199733
3.1804323976472864,-1.6216132574583635,2.8382516965103077,1.4951927717961446,4.1683536180469325
3.171227086699841,-1.6258779232220295,2.836146650558873,1.4936772341739335,4.1648790980069155
3.161957367419712,-1.6301242187274494,2.8339487237529397,1.4921874270020967,4.161303256964941
3.152623988994457,-1.6343518315276544,2.8316586783577966,1.490723625086813,4.157626960008655
3.1432277006116354,-1.6385604491756727,2.8292772766387317,1.489286103234263,4.153851072225713
3.1337692514588045,-1.6427497592245366,2.8268052808610262,1.4878751362506257,4.14997645870377
3.124249390723521,-1.646919449227275,2.8242434532899696,1.4864909989420811,4.146003984530481
3.1146688675933474,-1.6510692067369184,2.8215925561908506,1.4851339661148084,4.1419345147934985
3.1050284312558376,-1.655198719306497,2.818853351828949,1.4838043125749878,4.137768914580473
3.0953288308985507,-1.659307674489041,2.8160266024695555,1.4825023131287984,4.1335080489790625
3.0855708157090493,-1.6633957598375808,2.813113070377957,1.48122824258242,4.129152783076922
3.0757551348748864,-1.6674626629051472,2.8101135178194383,1.4799823757420323,4.1247039819617
3.065882537583621,-1.671508071244769,2.807028707059283,1.4787649874138147,4.120162510721057
3.0559537730228143,-1.6755316724094778,2.803859400362785,1.477576352403947,4.115529234442638
3.0459695903800235,-1.6795331539523028,2.8006063599952227,1.4764167455186086,4.110805018214102
3.0359307388428047,-1.6835122034262748,2.7972703482218852,1.4752864415639793,4.105990727123103
3.0258379675987195,-1.6874685083844243,2.7938521273080603,1.4741857153462388,4.101087226257295
3.015692025835323,-1.69140175637978,2.790352459519032,1.4731148416715665,4.09609538070433
3.0054936627401734,-1.6953116349653743,2.786772107120087,1.4720740953461422,4.091016055551863
2.9952436275008325,-1.699197831694236,2.7831118323765134,1.4710637511761457,4.085850115887546
2.984942669304857,-1.7030600341193958,2.779372397553597,1.470084083967756,4.080598426799035
2.9745915373398026,-1.706897929793884,2.775554564916621,1.4691353685271533,4.075261853373984
2.9641909807932305,-1.7107112062707297,2.7716590967308763,1.468217879660517,4.069841260700044
2.9537417488526976,-1.7144995511029648,2.7676867552616455,1.4673318921740268,4.064337513864869
2.943244590705762,-1.7182626518436186,2.763638302774218,1.466477680873862,4.058751477956115
2.9327002555399844,-1.722000196045721,2.7595145015338756,1.4656555205662025,4.053084018061437
2.922109492542919,-1.725711871262303,2.7553161138059084,1.464865686057228,4.047335999268483
2.9114730509021287,-1.729397365046395,2.751043901855602,1.464108452153118,4.041508286664913
2.9007916798051685,-1.733056364951026,2.746698627948241,1.463384093660052,4.035601745338376
2.8900661284395985,-1.7366885585292273,2.742281054349113,1.4626928853842098,4.029617240376528
2.8792971459929744,-1.740293633334029,2.7377919433235065,1.4620351021317708,4.023555636867025
2.8684854816528573,-1.7438712769184608,2.733232057136704,1.4614110187089149,4.017417799897515
2.8576318846068016,-1.747421176835553,2.7286021580539925,1.4608209099218217,4.011204594555657
2.8467371040423717,-1.7509430206383363,2.723903008340662,1.4602650505766706,4.004916885929102
2.8358018891471204,-1.7544364958798404,2.719135370261992,1.4597437154796413,3.998555539105506
2.8248269891086073,-1.7579012901130961,2.714300006083273,1.4592571794369134,3.992121419172518
2.8138131531143915,-1.7613370908911332,2.7093976780697946,1.4588057172546667,3.985615391217799
2.802761130352035,-1.7647435857669822,2.704429148486837,1.4583896037390804,3.9790383203289967
2.7916716700090873,-1.7681204622936733,2.6993951795996876,1.4580091136963347,3.9723910715937665
2.780545521273113,-1.7714674080242359,2.694296533673637,1.457664521932609,3.965674510099763
2.7693834333316696,-1.7747841105117013,2.6891339729739663,1.457356103254082,3.958889500934639
2.758186155372314,-1.7780702573090994,2.683908259765964,1.4570841324669348,3.9520369091860506
2.7469544365826044,-1.7813255359694598,2.678620156314917,1.4568488843773468,3.945117599941648
2.7356890261501015,-1.784549634045814,2.6732704248861103,1.4566506337914964,3.938132438289087
2.7243906732623615,-1.7877422390911912,2.6678598277448313,1.4564896555155644,3.9310822893160213
2.7130601271069428,-1.7909030386586213,2.6623891271563647,1.4563662243557298,3.9239680181101044
2.7016981368714026,-1.7940317203011358,2.6568590853859977,1.4562806151181724,3.9167904897589905
2.6903054517433014,-1.797127971571764,2.6512704646990195,1.4562331026090722,3.9095505693503325
2.678882820910197,-1.8001914800235361,2.64562402736071,1.4562239616346082,3.9022491219717836
2.6674309935596456,-1.8032219332094832,2.6399205356363598,1.4562534670009604,3.894887012710998
2.655950718879211,-1.8062190186826341,2.6341607517912573,1.456321893514308,3.8874651066556347
2.6444427460564417,-1.8091824239960206,2.628345438090682,1.4564295159808314,3.8799842688933377
2.6329078242789037,-1.8121118367026716,2.622475356799925,1.4565766092067096,3.872445364511766
2.6213467027341544,-1.8150069443556185,2.6165512701842744,1.4567634479981222,3.864849258598576
2.6097601306097524,-1.8178674345078898,2.610573940509011,1.4569903071612493,3.8571968162414136
2.598148857093252,-1.8206929947125179,2.6045441300394256,1.4572574615022698,3.8494889025279444
2.5865136313722163,-1.8234833125225312,2.5984626010408,1.457565185827364,3.8417263825458106
2.574855202634201,-1.8262380754909613,2.592330115778426,1.457913754942711,3.8339101213826723
2.5631743200667634,-1.8289569711708369,2.5861474365175843,1.4583034436544908,3.8260409841261787
2.5514717328574625,-1.8316396871151894,2.579915325523567,1.458734526768883,3.8181198358639894
2.5397481901938574,-1.8342859108770488,2.5736345450616542,1.459207279092067,3.810147541683756
2.528004441263507,-1.836895330009445,2.567305857397138,1.4597219754302222,3.8021249666731287
2.516241235253969,-1.839467632065409,2.5609300247953,1.460278890589529,3.794052975919764
2.5044593213528,-1.8420025045979702,2.5545078095214286,1.4608782993761662,3.785932434511316
2.49265944874756,-1.8444996351601592,2.5480399738408135,1.461520476596314,3.7777642075354416
2.4808423666258084,-1.8469587113050059,2.5415272800187347,1.4622056970561514,3.7695491600797864
2.4690088241750985,-1.8493794205855407,2.534970490320479,1.4629342355618586,3.76128815723201
2.457159570582995,-1.8517614505547944,2.528370367011341,1.4637063669196149,3.7529820640797635
2.445295355037053,-1.8541044887657958,2.5217276723565933,1.4645223659356004,3.744631745710706
2.433416926724829,-1.856408222771577,2.515043168621532,1.4653825074159939,3.736238067212486
2.421525034833885,-1.8586723401251664,2.508317618071445,1.4662870661669756,3.7278018936727584
2.409620428551778,-1.8608965283795953,2.501551782971611,1.4672363169947251,3.7193240901791755
2.397703857066061,-1.8630804750878933,2.4947464255873206,1.468230534705422,3.7108055218193927
2.3857760695643,-1.8652238678030917,2.4879023081838616,1.469269994105246,3.7022470536810648
2.373837815234051,-1.8673263940782192,2.481020193026516,1.470354970000376,3.6936495508518457
2.3618898432628725,-1.8693877414663074,2.474100842380571,1.4714857371969925,3.685013878419385
2.3499329028383196,-1.8714075975203859,2.467145018511318,1.4726625705012746,3.6763409014713417
2.337967743147955,-1.8733856497934853,2.4601534836840355,1.4738857447194023,3.6676314850953657
2.3259951133793324,-1.8753215858386345,2.4531270001640166,1.4751555346575547,3.6588864943791153
2.314015762720011,-1.8772150932088654,2.4460663302165453,1.476472215121912,3.6501067944102363
2.3020304403575538,-1.8790658594572074,2.4389722361069013,1.4778360609186532,3.641293250276388
2.2900398954795165,-1.8808735721366907,2.431845480100382,1.4792473468539584,3.6324467270652265
2.27804487727345,-1.882637918800346,2.424686824462269,1.4807063477340077,3.623568089864402
2.2660461349269236,-1.884358587001203,2.4174970314578443,1.4822133383649794,3.614658203761569
2.2540444176274925,-1.8860352642922917,2.410276863352398,1.483768593553054,3.60571793384438
2.2420404745627103,-1.8876676382266437,2.4030270824112208,1.485372388104411,3.5967481452004906
2.230035054920144,-1.889255396357288,2.3957484508995925,1.4870249968252303,3.5877497029175522
2.2180289078873408,-1.890798226237254,2.388441731082801,1.4887266945216902,3.578723472083224
2.2060227826518677,-1.8922958154195741,2.381107685226132,1.490477755999972,3.5696703177851523
2.1940174284012777,-1.8937478514572774,2.3737470755948733,1.4922784560662545,3.560591105110995
2.1820135943231316,-1.8951540219033935,2.3663606644543123,1.4941290695267175,3.5514866991484046
2.1700120296049885,-1.8965140143109538,2.3589492140697317,1.4960298711875404,3.5423579649850367
2.158013483434405,-1.8978275162329876,2.35151348670642,1.4979811358549031,3.5332057677085436
2.146018704998938,-1.8990942152225254,2.344054244629664,1.4999831383349844,3.52403097240658
2.13402844348615,-1.9003137988325984,2.336572250104748,1.5020361534339655,3.5148344441668016
2.122043448083595,-1.901485954616235,2.329068265396957,1.5041404559580245,3.5056170480768536
2.1100644679788303,-1.9026103701264667,2.3215430527715855,1.5062963207133422,3.4963796492244006
2.0980922523594243,-1.9036867329163234,2.3139973744939084,1.5085040225060975,3.4871231126970894
2.086127550412926,-1.9047147305388354,2.3064319928292196,1.51076383614247,3.477848303582575
2.0741711113268924,-1.9056940505470328,2.2988476700428073,1.5130760364286395,3.4685560869685146
2.0622236842888846,-1.9066243804939458,2.291245168399949,1.5154408981707856,3.459247327942556
2.050286018486463,-1.9075054079326048,2.283625250165935,1.517858696175088,3.449922891592359
2.0383588631071827,-1.9083368204160394,2.2759886776060565,1.5203297052477263,3.4405836430055707
2.026442967338606,-1.9091183054972811,2.268336212985594,1.52285420019488,3.4312304472698516
2.014539080368289,-1.9098495507293587,2.2606686185698344,1.5254324558227284,3.4218641694728538
2.0026479513837856,-1.9105302436653027,2.2529866566240653,1.5280647469374522,3.4124856747022294
1.9907703295726593,-1.911160071858145,2.2452910894135742,1.5307513483452302,3.40309582804563
1.978906964122471,-1.911738722860914,2.237582679203644,1.533492534852242,3.393695494590715
1.9670586042207692,-1.91226588422664,2.2298621882595633,1.5362885812646672,3.3842855394251323
1.9552259990551235,-1.9127412435083535,2.222130378846619,1.5391397623886853,3.3748668276365406
1.9434098978130807,-1.9131644882590848,2.2143880132300957,1.5420463530304764,3.3654402243125903
1.9316110496822079,-1.9135353060318643,2.20663585367528,1.54500862799622,3.3560065945409345
1.9198302038500596,-1.9138533843797227,2.198874662447456,1.5480268620920954,3.3465668034092344
1.9080681095041987,-1.9141184108556892,2.191105201811916,1.5511013301242826,3.337121716005135
1.8963255158321752,-1.9143300730127941,2.1833282340339437,1.5542323068989612,3.327672197416293
1.8846031720215546,-1.914488058404069,2.1755445213788214,1.5574200672223109,3.31821911273036
1.8729018272598905,-1.9145920545825428,2.167754826111839,1.560664885900511,3.3087633270349937
1.8612222307347457,-1.9146417491012455,2.1599599104982827,1.5639670377397406,3.2993057054178525
1.8495651316336712,-1.9146368295132077,2.1521605368034367,1.5673267975461802,3.2898471129665765
1.8379312791442297,-1.9145769833714605,2.1443574672925925,1.5707444401260093,3.2803884147688276
1.8263214224539848,-1.9144618982290327,2.1365514642310295,1.5742202402854075,3.2709304759122606
1.8147363107504892,-1.9142912616389554,2.1287432898840386,1.577754472830554,3.2614741614845277
1.8031766932212987,-1.914064761154259,2.1209337065169054,1.5813474125676295,3.252020336573281
1.7916433190539722,-1.913782084327972,2.113123476394912,1.5849993343028115,3.2425698662661775
1.780136937436077,-1.913442918713128,2.1053133617833506,1.5887105128422818,3.233123615650868
1.7686582975551604,-1.9130469518627535,2.0975041249475037,1.5924812229922192,3.223682449815006
1.757208148598786,-1.912593871329881,2.089696528152661,1.5963117395588027,3.214247233846253
1.7457872397545087,-1.9120833646675401,2.081891333664104,1.6002023373482124,3.204818832832249
1.7343963202098927,-1.9115151194287616,2.074089303747127,1.6041532911666287,3.1953981118606594
1.72303613915249,-1.9108888231665744,2.0662912006670053,1.6081648758202296,3.1859859360191294
1.7117074457698624,-1.9102041634340097,2.058497786689035,1.6122373661151972,3.176583170395319
1.7004109892495656,-1.9094608277840974,2.0507098240784956,1.616371036857708,3.1671906800768834
1.6891475187791647,-1.9086585037698676,2.042928075100674,1.6205661628539438,3.1578093301514674
1.6779177835462074,-1.9077968789443518,2.0351533020208628,1.6248230189100838,3.148439985706733
1.6667225327382598,-1.9068756408605783,2.0273862671043403,1.6291418798323072,3.139083511830333
1.6555625155428748,-1.9058944770715782,2.0196277326163976,1.6335230204267934,3.1297407736099165
1.6444384811476187,-1.9048530751303825,2.011878460822321,1.6379667154997235,3.1204126361331426
1.6333511787400399,-1.90375112259002,2.0041392139873953,1.6424732398572757,3.111099964487659
1.6223013575077045,-1.9025883070035214,1.9964107543769058,1.64704286830563,3.1018036237611284
1.611289766638163,-1.9013643159239173,1.9886938442561437,1.651675875650966,3.0925244790411934
1.6003171553189786,-1.9000788369042372,1.9809892458903846,1.6563725366994624,3.083263395415516
1.5893842727377177,-1.8987315574975119,1.9732977215449248,1.6611331262573006,3.0740212379717518
1.5784918680819198,-1.8973221652567718,1.9656200334850533,1.6659579191306593,3.0647988717975414
1.5676406905391618,-1.8958503477350472,1.9579569439760443,1.670847190125718,3.0555971619805575
1.5568314892969886,-1.8943157924853682,1.9503092152831885,1.675801214048656,3.0464169736084328
1.5460650135429672,-1.8927181870607641,1.9426776096717822,1.6808202657056546,3.037259171768837
1.5353420124646453,-1.8910572190142658,1.9350628894070958,1.6859046199028915,3.0281246215494253
1.5246632352495961,-1.8893325758989041,1.9274658167544256,1.691054551446547,3.019014188037837
1.5140294310853655,-1.8875439452677076,1.9198871539790598,1.6962703351428012,3.009928736321739
1.5034413491595195,-1.885691014673709,1.9123276633462778,1.7015522457978327,3.0008691314887734
1.4928997386596068,-1.8837734716699361,1.9047881071213677,1.7069005582178223,2.991836238626602
1.4824053487731987,-1.8817910038094205,1.897269247569617,1.7123155472089482,2.982830922822883
1.4719589286878412,-1.8797432986451925,1.889771846956311,1.7177974875773918,2.9738540491652596
1.4615612275911039,-1.8776300437302806,1.8822966675467354,1.7233466541293319,2.9649064827413874
1.4512129946705317,-1.875450926617718,1.874844471606182,1.7289633216709475,2.955989088638926
1.4409149791136944,-1.8732056348605322,1.867416021399933,1.7346477650084182,2.9471027319455274
1.430667930108144,-1.870893856011754,1.860012079193269,1.7404002589479246,2.9382482777488423
1.420472596841444,-1.8685152776244145,1.8526334072514858,1.7462210782956453,2.9294265911365294
1.410329728501151,-1.8660695872515438,1.8452807678398644,1.7521104978577609,2.9206385371962362
1.4002400742748167,-1.8635564724461715,1.837954923223693,1.7580687924404512,2.911884981015616
1.3902043833500084,-1.8609756207613288,1.830656635668257,1.7640962368498943,2.9031667876823306
1.3802234049142825,-1.8583267197500435,1.8233866674388413,1.7701931058922709,2.8944848222840296
1.3702978881551893,-1.8556094569653494,1.816145780800734,1.7763596743737606,2.8858399499083642
1.360428582260294,-1.8528235199602734,1.8089347380192233,1.7825962171005427,2.877233035642993
1.3506162364171574,-1.849968596287848,1.8017543013595922,1.7889030088787967,2.8686649445755634
1.3408615998133318,-1.8470443735011024,1.7946052330871272,1.7952803245147027,2.8601365417937306
1.3311654216363795,-1.8440505391530677,1.7874882954671172,1.8017284388144406,2.85164869238516
1.321528451073858,-1.840986780796773,1.7804042507648496,1.8082476265841887,2.8432022614374866
1.311951437313322,-1.8378527859852487,1.7733538612456012,1.814838162630127,2.8347981140383762
1.3024351295423333,-1.834648242271526,1.7663378891746664,1.8215003217584367,2.82643711527548
1.2929802769484482,-1.8313728372086335,1.7593570968173378,1.8282343787752966,2.8181201302364514
1.283587628719225,-1.8280262583496039,1.7524122464388832,1.8350406084868855,2.809848024008941
1.2742579340422324,-1.8246081932474647,1.745504100304606,1.8419192856993831,2.801621661680617
1.264991942105011,-1.8211183294552469,1.7386334206797844,1.848870685218969,2.793441908339105
1.2557904020951298,-1.8175563545259807,1.7318009698297008,1.8558950818518247,2.785309629072092
1.2466540632001415,-1.813921956012698,1.7250075100196547,1.862992750404127,2.7772256889672047
1.2375836746076132,-1.8102148214684282,1.7182538035149229,1.8701639656820572,2.769190953112112
1.2285799855050943,-1.8064346384461998,1.7115406125807908,1.8774090024917944,2.7612062865944615
1.219643745080143,-1.8025810944990455,1.7048686994825513,1.8847281356395187,2.7532725545019066
1.2107757025203298,-1.798653877179993,1.6982388264854844,1.89212163993141,2.7453906219221107
1.2019766070131936,-1.7946526740420743,1.6916517558548794,1.8995897901736463,2.7375613539427146
1.1932472077463085,-1.7905771726383195,1.6851082498560235,1.9071328611724088,2.7297856156513784
1.1845882539072257,-1.7864270605217585,1.6786090707541987,1.9147511277338762,2.7220642721357553
1.1760004946835103,-1.7822020252454216,1.672154980814696,1.9224448646642291,2.7143981884834982
1.16748467926271,-1.7779017543623383,1.6657467423027992,1.9302143467696466,2.706788229782262
1.159041556832392,-1.7735259354255386,1.659385117483792,1.9380598488563079,2.699235261119698
1.1506718765801072,-1.7690742559880555,1.6530708686229705,1.9459816457303933,2.691740147583465
1.1423763876934174,-1.7645464036029166,1.6468047579856027,1.9539800121980813,2.68430375426121
1.1341558393598863,-1.7599420658231528,1.6405875478369936,1.9620552230655526,2.676926946240588
1.1260109807670649,-1.7552609302017936,1.6344200004424234,1.9702075531389869,2.669610588609263
1.1179425611025096,-1.7505026842918716,1.6283028780671724,1.9784372772245633,2.662355546454874
1.1099513295537893,-1.7456670156464145,1.622236942976535,1.9867446701284606,2.655162684865081
1.1020380353084516,-1.7407536118184535,1.616222957435797,1.99513000665686,2.6480328689275456
1.0942034275540635,-1.735762160361018,1.6102616837102328,2.003593561615941,2.6409669637299036
1.0864482554781691,-1.730692348827139,1.6043538840651443,2.012135609811882,2.633965834359829
1.0787732682683444,-1.725543864769847,1.598500320765817,2.020756426050864,2.6270303459049558
1.0711792151121333,-1.7203163957421719,1.5927017560775223,2.0294562851390654,2.620161363452956
1.0636668451971083,-1.7150096292971444,1.5869589522655598,2.038235461882666,2.613359752091478
1.056236907710817,-1.7096232529877948,1.5812726715952081,2.047094231087846,2.6066263769081655
1.0488901518408174,-1.704156954367149,1.5756436763317545,2.0560328675607864,2.599962102990684
1.0416273267746714,-1.6986104209882447,1.5700727287404952,2.0650516461076642,2.59336779542668
1.0344491816999355,-1.6929833404041084,1.5645605910867069,2.0741508415346592,2.5868443193038075
1.027356465804166,-1.687275400167768,1.5591080256356733,2.083330728647952,2.5803925397097256
1.020349928274932,-1.681486287832258,1.5537157946526872,2.092591582253722,2.5740133217320817
1.013430318299779,-1.6756156909506057,1.5483846604030411,2.1019336771581494,2.567707530458538
1.0065983850662708,-1.669663297075843,1.543115385152003,2.1113572881674134,2.5614760309767455
0.9998548777619654,-1.6636287937609984,1.5379087311648743,2.120862690087693,2.5553196883743503
0.9932005455744228,-1.6575118685591033,1.5327654607069388,2.1304501577251687,2.549239367739016
0.9866361376911978,-1.651312209023188,1.5276863360434731,2.1401199658860195,2.5432359341583837
0.9801624032998468,-1.645029502706283,1.5226721194397719,2.149872389376425,2.5373102527201254
0.9737800915879316,-1.6386634371614175,1.5177235731611223,2.1597077030025646,2.5314631885118803
0.967489951743012,-1.632213699941623,1.5128414594728081,2.16962618157062,2.5256956066213014
0.9612927329526482,-1.6256799785999272,1.5080265406401168,2.1796280998867688,2.5200083721360578
0.9551891844043858,-1.619061960689363,1.503279578928339,2.18971373275719,2.5144023501437864
0.9491800552857956,-1.6123593337629591,1.4986013366027482,2.1998833549880654,2.5088784057321476
0.9432660947844376,-1.6055717853737468,1.4939925759286403,2.2101372413855738,2.5034374039888068
0.937448052087861,-1.5986990030747563,1.4894540591713028,2.220475666755893,2.4980802100013886
0.9317266763836258,-1.5917406744190172,1.484986548596014,2.2308989059052053,2.4928076888575763
0.9261027168592921,-1.5846964869595581,1.4805908064680704,2.241407233639688,2.4876207056450053
0.9205769227024234,-1.577566128249413,1.4762675950527449,2.2520009247655226,2.482520125451341
0.9151500431005619,-1.5703492858416093,1.4720176766153408,2.262680254088888,2.477506813364233
0.9098228272412872,-1.5630456472891785,1.467841813421133,2.273445496415964,2.4725816344713287
0.9045960243121449,-1.5556549001451492,1.463740767735409,2.2842969265529294,2.4677454538602905
0.8994703835006987,-1.5481767319625535,1.4597153018234525,2.295234819305964,2.462999136618759
0.8944466539944962,-1.5406108302944208,1.4557661779505597,2.3062594494812485,2.4583435478344065
0.8895255849811043,-1.5329568826937807,1.451894158382009,2.3173710918849615,2.4537795525948827
0.8847079256480832,-1.5252145767136644,1.4481000053830861,2.3285700213232845,2.449308015987828
0.879994425182991,-1.5173835999071041,1.4443844812190783,2.3398565126023936,2.444929803100912
0.8753858327733788,-1.509463639827124,1.4407483481552745,2.351230840528472,2.440645779021777
0.8708828976068066,-1.5014543840267605,1.4371923684569623,2.362693279907697,2.4364568088380807
0.866486368870838,-1.4933555200590423,1.43371730438942,2.374244105546249,2.4323637576374786
0.8621969957530293,-1.485166735476997,1.4303239182179457,2.3858835922503063,2.4283674905076182
0.8580155274409353,-1.4768877178336561,1.427012972207816,2.397612014826052,2.4244688725361687
0.8539427131221213,-1.4685181546820516,1.4237852286243236,2.409429648079662,2.4206687688107635
0.8499793019841366,-1.4600577335752112,1.420641449732745,2.4213367668173182,2.4169680444190718
0.8461260432145465,-1.451506142066167,1.4175823977983804,2.433333645845198,2.413367564448736
0.8423836860009075,-1.4428630677079477,1.4146088350865025,2.4454205599694836,2.4098681939874176
0.838752979530776,-1.4341281980535854,1.4117215238624041,2.457597783996354,2.4064707981227755
0.8352346729917084,-1.4253012206561095,1.4089212263913762,2.4698655927319866,2.4031762419424485
0.8318295155712736,-1.4163818230685488,1.4062087049386953,2.482224260982563,2.3999853905341
0.8285382564570138,-1.407369692843936,1.4035847217696524,2.494674063554265,2.3968991089853784
0.825361644836498,-1.3982645175352983,1.4010500391495366,2.507215275253267,2.393918262383945
0.8223004298972878,-1.3890659846956677,1.3986054193436281,2.5198481708857514,2.391043715817448
0.8193553608269291,-1.379773781878077,1.3962516246172196,2.532573025257901,2.3882763343735434
0.8165271868129889,-1.3703875966355517,1.393989417235593,2.5453901131758885,2.3856169831398777
0.8138166570430201,-1.3609071165211244,1.3918195594640324,2.5582997094458992,2.3830665272041234
0.8112245207045916,-1.3513320290878248,1.3897428135678354,2.57130208887411,2.380625831653912
0.808751526985251,-1.341662021888685,1.3877599418122735,2.5843975262667005,2.378295761576913
0.8063984250725618,-1.33189678247673,1.385871706462643,2.599637021903618,2.3760771820607722
0.8041659641540804,-1.3220359984049974,1.3840788697842275,2.6184235763939796,2.3739709581931407
0.8020548934173632,-1.3120793572265113,1.3823821940423127,2.6402575393349252,2.3719779550616806
0.800065962049965,-1.3020265464943046,1.3807824415021823,2.6646392603670392,2.3700990377540414
0.7981999192394582,-1.2918772537614078,1.3792803744291238,2.691069089125449,2.3683350713578797
0.7964575141733885,-1.2816311665808504,1.3778767550884279,2.7190473752452817,2.3666869209608485
0.7948394960393159,-1.2712879725056627,1.3765723457453785,2.748074468372579,2.365155451650594
0.7933466140248076,-1.2608473590888751,1.375367908665261,2.7776507181297347,2.363741528514783
0.7919796173174092,-1.2503090138835162,1.3742642061133594,2.8072764741646097,2.3624460166410586
0.7907392551046879,-1.23967262444262,1.373262000354968,2.836452086110512,2.3612697811170733
0.7896262765741948,-1.228937878319213,1.37236205365536,2.864677903608026,2.3602136870304946
0.7886414309134935,-1.2181044630663278,1.3715651282798422,2.8914542762831843,2.3592785994689613
0.7877854673101403,-1.2071720662369927,1.3708719864936754,2.916281553787485,2.3584653835201372
0.7870591349517024,-1.1961403753842381,1.3702833905621628,2.9386600857415033,2.357774904271672
0.7864631830257167,-1.1850090780610962,1.36980010275059,2.9580902217949188,2.3572080268112217
0.7859983607197645,-1.1737778618205947,1.3694228853242318,2.9740723115792207,2.3567656162264257
0.7856654172213915,-1.1624464142157676,1.3691525005483864,2.9861067047313554,2.356448537604958
0.7854651017181542,-1.1890686564147472,1.3689897106883357,2.9936937508882693,2.356257656034469
0.7853981633976215,-1.2236754957120866,1.3689352780093653,2.9963337996887276,2.3561938366026
