oscarkremer/mentor-optimization/notebooks/traject_2/adaptive/angles_5.csv
theta1,theta2,theta3,theta4,theta5
3.7295952571373574,-0.7943678438589166,1.973043134264813,1.9629173631838936,3.2059965904706873
3.7295612594610525,-0.7943951629507627,1.9730265844341954,1.9628981218870953,3.2056163556067676
3.729460165643493,-0.7944769119283214,1.972977153045927,1.96284058120082,3.204487519197206
3.729293324501713,-0.7946127783446226,1.9728951672553838,1.9627450159312476,3.202627883515297
3.729062084852745,-0.7948024497526969,1.9727809542179422,1.9626117008845572,3.200055250834338
3.7287677955136234,-0.7950456137055741,1.9726348410889785,1.9624409108669287,3.1967874234276237
3.728411805301381,-0.7953419577562849,1.9724571550238688,1.962232920684542,3.19284220356845
3.727995463033051,-0.7956911694578591,1.9722482231779894,1.9619880051435763,3.1882373935301125
3.727520117525667,-0.7960929363633272,1.9720083727067166,1.961706439050211,3.182990795585907
3.7269871175962628,-0.7965469460257192,1.9717379307654268,1.9613884972106266,3.1771202120091293
3.7263978120618715,-0.7970528859980656,1.971437224509496,1.9610344544310019,3.1706434450730754
3.725753549739527,-0.7976104438333962,1.9711065810943005,1.9606445855175172,3.1635782970510404
3.7250556794462617,-0.7982193070847418,1.9707463276752164,1.9602191652763514,3.1559425702163204
3.724305549999109,-0.798879163305132,1.9703567914076203,1.9597584685136846,3.147754066842211
3.723504510215104,-0.7995897000475974,1.9699382994468884,1.9592627700356964,3.1390305892020076
3.7226539089112785,-0.8003506048651681,1.9694911789483966,1.9587323446485658,3.1297899395690068
3.721755094904666,-0.8011615653108745,1.9690157570675215,1.9581674671584735,3.1200499202165033
3.7208094170123007,-0.8020222689377465,1.9685123609596393,1.9575684123715982,3.1098283334177936
3.7198182240512154,-0.8029324032988147,1.967981317780126,1.9569354550941198,3.0991429814461733
3.7187828648384436,-0.803891655947109,1.9674229546843582,1.9562688701322182,3.0880116665749373
3.717704688191019,-0.8048997144356597,1.966837598827712,1.9555689322920726,3.0764521910773817
3.716585042925975,-0.8059562663174972,1.9662255773655635,1.9548359163798628,3.0644823572268027
3.7154252778603443,-0.8070609991456515,1.9655872174532891,1.9540700972017686,3.052119967296496
3.7142267418111614,-0.8082136004731529,1.9649228462462653,1.9532717495639693,3.039382823559757
3.7129907835954583,-0.8094137578530316,1.964232790899868,1.9524411482726447,3.0262887282898814
3.71171875203027,-0.8106611588383179,1.9635173785694733,1.9515785681339743,3.012855483760165
3.7104119959326285,-0.811955490982042,1.962776936410458,1.9506842839541378,2.9991008922439035
3.7090718641195686,-0.813296441837234,1.9620117915781978,1.949758570539315,2.9850427560143924
3.707699705408122,-0.8146836989569243,1.9612222712280691,1.948801702695685,2.9706988773449274
3.7062968686153237,-0.816116949894143,1.9604087025154486,1.947813955229428,2.9560870585088055
3.7048647025582064,-0.8175958822019204,1.959571412595712,1.9467956029467235,2.94122510177932
3.7034045560538034,-0.8191201834332865,1.9587107286242358,1.9457469206537508,2.926130809429768
3.7019177779191486,-0.8206895411412719,1.9578269777563961,1.9446681831566894,2.910821983733446
3.7004057169712747,-0.8223036428789064,1.9569204871475694,1.9435596652617195,2.8953164269636487
3.6988697220272155,-0.8239621761992207,1.9559915839531317,1.9424216417750204,2.8796319413936717
3.697311141904005,-0.8256648286552446,1.9550405953284595,1.941254387502772,2.8637863292968118
3.6957313254186754,-0.8274112878000086,1.9540678484289287,1.9400581772511534,2.8477973929463634
3.6941316213882605,-0.8292012411865426,1.9530736704099159,1.9388332858263444,2.8316829346156225
3.692513378629794,-0.8310343763678772,1.952058388426797,1.9375799880345248,2.815460756577885
3.6908779459603096,-0.8329103808970424,1.9510223296349487,1.9362985586818742,2.799148661106447
3.6892266721968405,-0.8348289423270685,1.949965821189747,1.934989272574572,2.7827644504746036
3.6875609061564196,-0.8367897482109856,1.9488891902465677,1.9336524045187984,2.766325926955651
3.6858819966560805,-0.838792486101824,1.947792763960788,1.9322882293207322,2.749850892822885
3.684191292512857,-0.8408368435526139,1.9466768694877836,1.9308970217865533,2.7333571503496
3.682490142543782,-0.8429225081163857,1.9455418339829307,1.9294790567224416,2.7168625018090937
3.6807798955658892,-0.8450491673461694,1.9443879846016057,1.9280346089345763,2.7003847494746607
3.679061900396212,-0.8472165087949953,1.9432156484991847,1.9265639532291376,2.683941695619597
3.677337505851784,-0.8494242200158936,1.9420251528310444,1.9250673644123046,2.6675511425171976
3.6756080607496386,-0.8516719885618945,1.9408168247525603,1.9235451172902571,2.651230892440759
3.673874913906809,-0.8539595019860283,1.939590991419109,1.9219974866691747,2.634998747663577
3.6721394141403274,-0.8562864478413251,1.938347979986067,1.920424747355237,2.6188725104589468
3.6704029102672293,-0.8586525136808153,1.9370881176088106,1.9188271741546237,2.602869983100164
3.6686667511045474,-0.861057387057529,1.9358117314427155,1.9172050418735143,2.587008967860525
3.6669322854693145,-0.8635007555244963,1.9345191486431585,1.9155586253180883,2.5713072670133252
3.665200862178565,-0.8659823066347478,1.9332106963655156,1.9138881992945258,2.5557826828318597
3.6634738300493312,-0.8685017279413134,1.9318867017651629,1.912194038609006,2.5404530175894253
3.6617525378986473,-0.8710587069972233,1.9305474919974768,1.9104764180677085,2.525336073559317
3.6600383345435463,-0.8736529313555079,1.9291933942178336,1.9087356124768133,2.510449653014831
3.658332568801062,-0.8762840885691974,1.9278247355816096,1.9069718966424996,2.4958115582292626
3.656636589488227,-0.8789518661913218,1.926441843244181,1.9051855453709472,2.4814395914759078
3.6549517454220752,-0.8816559517749116,1.925045044360924,1.9033768334683356,2.4673515550280616
3.6532793854196406,-0.884396032872997,1.9236346660872148,1.9015460357408447,2.4535652511590205
3.651620858297956,-0.8871717970386079,1.9222110355784299,1.899693426994654,2.44009848214208
3.649977512874055,-0.889982931824775,1.9207744799899449,1.897819282035943,2.426969050250536
3.6483506979649705,-0.8928291247845281,1.9193253264771368,1.8959238756708914,2.414194757757684
3.6467417623877365,-0.8957100634708975,1.9178639021953818,1.8940074827056788,2.4017934069368194
3.6451520549593868,-0.8986254354369138,1.9163905343000558,1.8920703779464847,2.3897828000612384
3.643582924496953,-0.9015749282356067,1.914905549946535,1.8901128361994888,2.3781807394042365
3.6420357198174704,-0.9045582294200067,1.9134092762901962,1.8881351322708708,2.3670050272391094
3.640511789737972,-0.9075750265431441,1.9119020404864149,1.8861375409668102,2.356273465839153
3.6390124830754904,-0.910625007158049,1.9103841696905677,1.8841203370934867,2.3460038574776627
3.63753914864706,-0.9137078588177515,1.9088559910580312,1.88208379545708,2.3362140044279345
3.636093135269713,-0.9168232690752819,1.907317831744181,1.8800281908637695,2.3269217089632646
3.6346757917604844,-0.9199709254836707,1.9057700189043938,1.877953798119735,2.318144773356947
3.6332884669364063,-0.9231505155959476,1.904212879694046,1.8758608920311561,2.309900999882279
3.6319325096145127,-0.9263617269651433,1.9026467412685135,1.8737497474042122,2.302208190812556
3.6306092686118365,-0.9296042471442877,1.9010719307831725,1.8716206390450831,2.2950841484210738
3.629320092745412,-0.9328777636864112,1.899488775393399,1.8694738417599486,2.288546674981127
3.628066330832272,-0.9361819641445439,1.8978976022545702,1.867309630354988,2.282613572766013
3.6268493316894497,-0.9395165360717161,1.8962987385220618,1.865128279636381,2.2773026440490263
3.6256704441339793,-0.9428811670209581,1.8946925113512498,1.8629300644103073,2.272631691103463
3.624531016982893,-0.9462755445453002,1.8930792478975107,1.8607152594829468,2.2686185162026193
3.6234323990532253,-0.9496993561977721,1.8914592753162207,1.8584841396604783,2.26528092161979
3.6223759391620094,-0.9531522895314045,1.8898329207627562,1.856236979749082,2.2626367096282713
3.6213629861262784,-0.9566340320992276,1.8882005113924933,1.8539740545549377,2.260703682501359
3.6203948887630655,-0.9601442714542714,1.8865623743608082,1.8516956388842245,2.259499642512349
3.6194729958894047,-0.9636826951495663,1.8849188368230774,1.8494020075431226,2.259042391934536
3.6185986563223294,-0.9672489907381423,1.883270225934677,1.847093435337811,2.2593497330412164
3.6177732188788725,-0.9708428457730298,1.8816168688509831,1.8447701970744697,2.260439468105686
3.6169980323760678,-0.9744639478072593,1.8799590927273722,1.842432567559278,2.262329399401241
3.6162744456309484,-0.9781119843938606,1.8782972247192204,1.8400808215984161,2.2650373292011756
3.615603807460548,-0.9817866430858637,1.876631591981904,1.8377152339980631,2.2685810597787874
3.6149874666819,-0.9854876114362995,1.8749625216707995,1.8353360795643987,2.2729783934073713
3.6144267721120373,-0.9892145769981978,1.8732903409412824,1.8329436331036026,2.2782471323602222
3.613923072567994,-0.9929672273245889,1.8716153769487296,1.8305381694218545,2.284405078910637
3.613477716866803,-0.9967452499685032,1.8699379568485175,1.828119963325334,2.29147003533191
3.613092053825498,-1.0005483324829705,1.8682584077960218,1.8256892896202204,2.299459803897339
3.612767432261112,-1.0043761624210215,1.8665770569466191,1.823246423112694,2.308392186880218
3.6125052009906793,-1.0082284273356859,1.8648942314556856,1.8207916386089336,2.3182849865538433
3.612306708831232,-1.0121048147799943,1.8632102584785972,1.8183252109151191,2.32915600519151
3.6121733045998052,-1.0160050123069768,1.8615254651707307,1.8158474148374306,2.3410230450665157
3.6121063371134308,-1.019928707469664,1.859840178687462,1.8133585251820472,2.3539039084521547
3.612107155189143,-1.0238755878210855,1.8581547261841675,1.8108588167551485,2.3678163976217212
3.6121771076439746,-1.0278453409142718,1.8564694348162236,1.8083485643629145,2.382778314848514
3.6123175432949592,-1.0318376543022532,1.8547846317390062,1.8058280428115243,2.398807462405827
3.612529810959131,-1.0358522155380596,1.8531006441078914,1.803297526907158,2.4159216425669556
3.612815259453522,-1.0398887121747216,1.8514177990782563,1.800757291455995,2.434138657605197
3.613175237595167,-1.0439468317652694,1.8497364238054763,1.7982076112642151,2.4534763097938455
3.6136110942010986,-1.048026261862733,1.848056845444928,1.7956487611379977,2.4739524014061978
3.6141241780883506,-1.0521266900201427,1.8463793911519875,1.7930810158835224,2.49558473471555
3.614715838073956,-1.0562478037905285,1.8447043880820315,1.790504650306969,2.518391111995195
3.6153874229749485,-1.0603892907269215,1.8430321633904356,1.7879199392145169,2.5423893355184317
3.616140281608361,-1.0645508383823508,1.8413630442325766,1.7853271574123457,2.5675972075585545
3.616975762791228,-1.068732134309847,1.8396973577638303,1.7827265797066354,2.5940325303888594
3.6178952153405817,-1.0729328660624409,1.8380354311395732,1.7801184809035655,2.621713106282642
3.6188999880734563,-1.077152721193162,1.8363775915151817,1.7775031358093152,2.6506567375131986
3.619991429806885,-1.0813913872550407,1.8347241660460316,1.7748808192300642,2.680881226353822
3.6211708893579013,-1.0856485518011074,1.8330754818874997,1.772251805971993,2.7124043750778126
3.622439715543538,-1.089923902384392,1.8314318661949618,1.76961637084128,2.7452439859584628
3.6237992571808295,-1.094217126557925,1.8297936461237942,1.7669747886441056,2.779417861269069
3.625250863086808,-1.0985279118747369,1.8281611488293734,1.764327334186649,2.8149438032829277
3.626795882078508,-1.1028559458878573,1.8265347014670756,1.7616742822750902,2.8518396142733344
3.6284356629729624,-1.1072009161503167,1.8249146311922768,1.7590159077156085,2.890123096513584
3.630171554587205,-1.1115625102151454,1.8233012651603535,1.7563524853143835,2.929812052276972
3.632004905738268,-1.1159404156353734,1.8216949305266819,1.7536842898775953,2.970924283836796
3.6339370652431864,-1.120334319964031,1.8200959544466382,1.7510115962114228,3.01347759346635
3.635969381918993,-1.1247439107541488,1.8185046640755986,1.7483346791220462,3.056321358797302
3.6379845682803933,-1.1291688755587566,1.8169213865689398,1.7456538134156447,3.0986780952387973
3.6398551832403743,-1.1336089019308844,1.8153464490820372,1.7429692738983984,3.140549801825652
3.6415819759864956,-1.138063677423563,1.8137801787702676,1.7402813353764868,3.181938477592693
3.6431656957063154,-1.1425328895898224,1.8122229027890073,1.7375902726560888,3.222846121574748
3.6446070915873916,-1.1470162259826928,1.8106749482936326,1.734896360543385,3.263274732806635
3.645906912817282,-1.1515133741552044,1.8091366424395194,1.7321998738445543,3.303226310323182
3.647065908583545,-1.1560240216603872,1.807608312382044,1.7295010873657768,3.342702853159214
3.6480848280737397,-1.160547856051272,1.806090285276583,1.726800275913232,3.3817063603495576
3.6489644204754237,-1.1650845648808885,1.8045828882785122,1.7240977142930993,3.4202388309290312
3.6497054349761546,-1.169633835702267,1.8030864485432083,1.7213936773115586,3.4583022639324676
3.650308620763493,-1.174195356068438,1.8016012932260472,1.7186884397747892,3.4958986583946827
3.650774727024994,-1.1787688135324312,1.8001277494824055,1.715982276488971,3.5330300133505084
3.6511045029482188,-1.1833538956472776,1.7986661444676588,1.7132754622602837,3.5696983278347663
3.6512986977207236,-1.1879502899660066,1.7972168053371842,1.7105682718949065,3.6059056008822816
3.6513580605300677,-1.1925576840416492,1.7957800592463573,1.7078609801990192,3.6416538315278753
3.6512833405638094,-1.1971757654272348,1.7943562333505547,1.7051538619788018,3.676945018806378
3.651075287009506,-1.2018042216757943,1.7929456548051526,1.7024471920404334,3.711781161752609
3.650734649054717,-1.2064427403403577,1.791548650765527,1.6997412451900937,3.746164259401397
3.650262175887,-1.211091008973955,1.7901655483870544,1.6970362962339625,3.780096310787564
3.6496586166939124,-1.2157487151296165,1.7887966748251112,1.6943326199782194,3.8135793149459376
3.648924720663015,-1.2204155463603727,1.7874423572350733,1.691630491229044,3.846615270911336
3.648061236981863,-1.2250911902192538,1.786102922772317,1.688930184792616,3.8792061777185936
3.6470689148380164,-1.2297753342592896,1.7847786985922187,1.6862319754751145,3.9113540344025246
3.645948503419034,-1.2344676660335108,1.7834700118501545,1.6835361380827196,3.943060839997962
3.644700751912473,-1.2391678730949474,1.782177189701501,1.6808429474216111,3.974328593539724
3.6433264095058924,-1.2438756429966296,1.780900559301634,1.678152678297968,4.005159294062637
3.641826225386849,-1.2485906632915873,1.77964044780593,1.6754656055179709,4.035554940601532
3.640200948742902,-1.2533126215328512,1.7783971823697653,1.6727820038877983,4.065517532191226
3.6384513287616107,-1.258041205273452,1.7771710901485158,1.6701021482136302,4.095049067866543
3.636578114630532,-1.2627761020664185,1.7759624982975581,1.6674263133016467,4.124151546662312
3.634582055537224,-1.2675169994647821,1.7747717339722684,1.6647547739580268,4.1528269676133585
3.6324639006692463,-1.2722635850215727,1.773599124328023,1.6620878049889507,4.181077329754499
3.630224399214156,-1.2770155462898205,1.772444996520198,1.6594256812005974,4.2089046321205705
3.627864300359512,-1.2817725708225556,1.7713096777041695,1.6567686773991466,4.236310873746385
3.6253843532928727,-1.2865343461728085,1.770193495035314,1.6541170683907784,4.2632980536667775
3.6227853072017955,-1.291300559893609,1.769096775669008,1.651471128981672,4.2898681709165665
3.6200679112738396,-1.2960708995379875,1.7680198467606272,1.648831133978007,4.31602322453058
3.6172329146965616,-1.3008450526589743,1.7669630354655481,1.6461973581859635,4.3417652135436375
3.6142810666575222,-1.3056227068096,1.7659266689391468,1.643570076411721,4.367096136990568
3.6112131163442784,-1.310403549542894,1.7649110743368,1.6409495634614584,4.392017993906195
3.6080298129443884,-1.3151872684118873,1.7639165788138835,1.6383360941413558,4.416532783325344
3.604731905645411,-1.3199735509696096,1.762943509525774,1.6357299432575931,4.440642504282838
3.6013201436349034,-1.324762084769091,1.761992193627847,1.6331313856163499,4.464349155813505
3.597795276100425,-1.3295525573633626,1.7610629582754793,1.6305406960238054,4.487654736952161
3.5941580522295338,-1.3343446563054537,1.7601561306240474,1.627958149286139,4.5105612467336424
3.590409221209787,-1.3391380691483947,1.759272037828927,1.6253840202095309,4.533070684192762
3.586549532228745,-1.343932483445216,1.7584110070454946,1.622818583600161,4.555185048364356
3.5825797344739625,-1.348727586748948,1.7575733654291263,1.6202621142642077,4.57690633828324
3.5785005771330023,-1.3535230666126208,1.7567594401351987,1.617714887007852,4.598236552984241
3.57431280939342,-1.3583186105892644,1.7559695583190877,1.6151771766372724,4.619177691502188
3.5700171804427736,-1.3631139062319089,1.7552040471361696,1.6126492579586496,4.6397317528719
3.5656144394686224,-1.3679086410935852,1.7544632337418207,1.610131405778162,4.659900736128202
3.561105335658525,-1.3727025027273227,1.7537474452914172,1.60762389490199,4.679686640305923
3.556490618200038,-1.3774951786861525,1.7530570089403357,1.6051270001363132,4.699091464439885
3.551771036280721,-1.3822863565231038,1.7523922518439523,1.6026409962873112,4.718117207564911
3.5469473390881325,-1.3870757237912077,1.7517535011576428,1.600166158161163,4.736765868715827
3.54202027580983,-1.3918629680434942,1.7511410840367836,1.597702760564049,4.755039446927457
3.5369905956333705,-1.396647776832993,1.7505553276367514,1.5952510783021485,4.77293994123463
3.5318590477463148,-1.4014298377127352,1.749996559112922,1.5928113861816415,4.790469350672165
3.526626381336221,-1.40620883823575,1.749465105620672,1.5903839590087072,4.807629674274886
3.521293345590646,-1.4109844659550688,1.7489612943153774,1.587969071589525,4.8244229110776224
3.5158606896971483,-1.4157564084237206,1.7484854523524143,1.585566998730275,4.840851060115198
3.510329162843286,-1.4205243531947367,1.7480379068871594,1.5831780152371362,4.856916120422432
3.504699514216618,-1.4252879878211464,1.7476189850749888,1.580802395916289,4.8726200910341575
3.498972493004703,-1.4300469998559806,1.7472290140712787,1.5784404155739127,4.887964970985188
3.4931488483950974,-1.4348010768522692,1.7468683210314053,1.5760923490161867,4.902952759310363
3.4872293295753622,-1.4395499063630424,1.7465372331107447,1.5737584710492905,4.9175854550444935
3.481214685733052,-1.4442931759413307,1.7462360774646735,1.5714390564794045,4.93186505722241
3.475105666055729,-1.4490305731401638,1.7459651812485675,1.5691343801127076,4.945793564878933
3.4689030197309494,-1.4537617855125726,1.7457248716178038,1.5668447167553798,4.959372977048895
3.4626074959462714,-1.458486500611587,1.7455154757277573,1.5645703412136003,4.972605292767115
3.456219843889254,-1.4632044059902372,1.7453373207338054,1.5623115282935494,4.9854925110684185
3.4497408127474545,-1.4679151892015534,1.7451907337913244,1.560068552801406,4.998036630987628
3.4431711517084325,-1.4726185377985659,1.7450760420556897,1.5578416895433502,5.010239651559576
3.436511609959744,-1.4773141393343046,1.744993572682278,1.555631213325561,5.0221035718190805
3.4297629366889506,-1.4820016813618,1.7449436528264657,1.553437398954219,5.033630390800966
3.422925881083607,-1.4866808514340824,1.7449266096436287,1.5512605212355028,5.0448221075400514
3.4160011923312745,-1.491351337104182,1.7449427702891436,1.549100854975593,5.055680721071176
3.4089896196195095,-1.496012825925129,1.7449924619183865,1.5469586749806683,5.066208230429158
3.4018919121358704,-1.5006650054499535,1.7450760116867332,1.5448342560569088,5.07640663464881
3.394708819067917,-1.5053075632316855,1.7451937467495613,1.542727873010494,5.086277932764974
3.3874410896032057,-1.5099401868233562,1.7453459942622453,1.5406398006476039,5.095824123812471
3.3800894729292956,-1.5145625637779943,1.7455330813801624,1.5385703137744173,5.1050472068261215
3.372654718233746,-1.5191743816486314,1.7457553352586892,1.5365196871971145,5.1139491808407485
3.3651375747041126,-1.5237753279882968,1.7460130830532012,1.5344881957218752,5.122532044891171
3.357538791527955,-1.5283650903500214,1.7463066519190749,1.5324761141548784,5.130797798012235
3.3498591178928327,-1.532943356286835,1.7466363690116866,1.530483717302304,5.138748439238746
3.342099302986302,-1.5375098133517684,1.7470025614864126,1.5285112799703318,5.14638596760553
3.3342600959959223,-1.5420641490978508,1.747405556498629,1.5265590769651414,5.15371238214742
3.3263422461092516,-1.5466060510781128,1.7478456812037122,1.5246273830929118,5.160729681899245
3.318346502513848,-1.5511352068455855,1.7483232627570384,1.5227164731598237,5.167439865895814
3.3102736143972713,-1.5556513039532982,1.748838628313984,1.5208266219720559,5.173844933171949
3.302124330947077,-1.5601540299542813,1.749392105029925,1.5189581043357883,5.179946882762495
3.293899401350824,-1.5646430724015645,1.7499840200602375,1.5171111950572005,5.185747713702264
3.2855995747960733,-1.5691181188481793,1.7506147005602983,1.5152861689424721,5.191249425026088
3.27722560047038,-1.573578856847155,1.7512844736854833,1.5134833007977826,5.196454015768773
3.268778227561303,-1.578024973951522,1.751993666591169,1.5117028654293119,5.201363484965167
3.2602582052564033,-1.5824561577143104,1.752742606432731,1.5099451376432393,5.205979831650085
3.251666282743234,-1.5868720956885507,1.7535316203655464,1.5082103922457448,5.210305054858347
3.2430032092093586,-1.591272475427273,1.7543610355449908,1.5064989040430075,5.21434115362478
3.2342697338423325,-1.5956569844835073,1.755231179126441,1.5048109478412075,5.218090126984212
3.2254666058297157,-1.6000253104102846,1.7561423782652725,1.503146798446524,5.221553973971466
3.216594574359063,-1.6043771407606342,1.7570949601168624,1.5015067306651368,5.224734693621364
3.2076543886179376,-1.6087121630875867,1.7580892518365865,1.499891019303226,5.227634284968734
3.1986467977938924,-1.613030064944172,1.7591255805798212,1.4982999391669705,5.230254747048405
3.1895725510744892,-1.617330533883421,1.7602042735019423,1.49673376506255,5.232598078895191
3.1804323976472864,-1.6216132574583635,1.7613256577583267,1.4951927717961446,5.234666279543924
3.171227086699841,-1.6258779232220295,1.7624900605043503,1.4936772341739335,5.236461348029417
3.161957367419712,-1.6301242187274494,1.7636978088953894,1.4921874270020967,5.237985283386511
3.152623988994457,-1.6343518315276544,1.7649492300868204,1.490723625086813,5.239240084650029
3.1432277006116354,-1.6385604491756727,1.766244651234019,1.489286103234263,5.240227750854783
3.1337692514588045,-1.6427497592245366,1.7675843994923617,1.4878751362506257,5.240950281035608
3.124249390723521,-1.646919449227275,1.7689688020172256,1.4864909989420811,5.241409674227324
3.1146688675933474,-1.6510692067369184,1.7703981859639861,1.4851339661148084,5.241607929464759
3.1050284312558376,-1.655198719306497,1.7718728784880193,1.4838043125749878,5.241547045782729
3.0953288308985507,-1.659307674489041,1.7733932067447022,1.4825023131287984,5.241229022216073
3.0855708157090493,-1.6633957598375808,1.7749594978894103,1.48122824258242,5.240655857799605
3.0757551348748864,-1.6674626629051472,1.7765720790775203,1.4799823757420323,5.2398295515681514
3.065882537583621,-1.671508071244769,1.7782312774644085,1.4787649874138147,5.238752102556533
3.0559537730228143,-1.6755316724094778,1.7799374202054508,1.477576352403947,5.237425509799587
3.0459695903800235,-1.6795331539523028,1.7816908344560236,1.4764167455186086,5.23585177233213
3.0359307388428047,-1.6835122034262748,1.7834918473715031,1.4752864415639793,5.234032889188985
3.0258379675987195,-1.6874685083844243,1.7853407861072657,1.4741857153462388,5.231970859404972
3.015692025835323,-1.69140175637978,1.7872379778186875,1.4731148416715665,5.229667682014928
3.0054936627401734,-1.6953116349653743,1.7891837496611447,1.4720740953461422,5.227125356053675
2.9952436275008325,-1.699197831694236,1.791178428790014,1.4710637511761457,5.224345880556027
2.984942669304857,-1.7030600341193958,1.7931573896508568,1.470084083967756,5.2213312545568185
2.9745915373398026,-1.706897929793884,1.7950627119315419,1.4691353685271533,5.218083477090874
2.9641909807932305,-1.7107112062707297,1.796894930136605,1.468217879660517,5.214604547193013
2.9537417488526976,-1.7144995511029648,1.7986545787705828,1.4673318921740268,5.210896463898067
2.943244590705762,-1.7182626518436186,1.8003421923380103,1.466477680873862,5.2069612262408445
2.9327002555399844,-1.722000196045721,1.8019583053434252,1.4656555205662025,5.202800833256189
2.922109492542919,-1.725711871262303,1.8035034522913589,1.464865686057228,5.198417283978916
2.9114730509021287,-1.729397365046395,1.8049781676863499,1.464108452153118,5.193812577443861
2.9007916798051685,-1.733056364951026,1.806382986032931,1.463384093660052,5.188988712685827
2.8900661284395985,-1.7366885585292273,1.8077184418356382,1.4626928853842098,5.183947688739657
2.8792971459929744,-1.740293633334029,1.8089850695990115,1.4620351021317708,5.1786915046401685
2.8684854816528573,-1.7438712769184608,1.8101834038275786,1.4614110187089149,5.173222159422185
2.8576318846068016,-1.747421176835553,1.81131397902588,1.4608209099218217,5.167541652120537
2.8467371040423717,-1.7509430206383363,1.8123773296984484,1.4602650505766706,5.1616519817700475
2.8358018891471204,-1.7544364958798404,1.813373990349822,1.4597437154796413,5.15555514740554
2.8248269891086073,-1.7579012901130961,1.8143044954845364,1.4592571794369134,5.149253148061833
2.8138131531143915,-1.7613370908911332,1.8151693796071238,1.4588057172546667,5.142747982773759
2.802761130352035,-1.7647435857669822,1.8159691772221211,1.4583896037390804,5.136041650576132
2.7916716700090873,-1.7681204622936733,1.8167044228340625,1.4580091136963347,5.129136150503797
2.780545521273113,-1.7714674080242359,1.8173756509474859,1.457664521932609,5.1220334815915605
2.7693834333316696,-1.7747841105117013,1.8179833960669265,1.457356103254082,5.114735642874248
2.758186155372314,-1.7780702573090994,1.8185281926969177,1.4570841324669348,5.107244633386693
2.7469544365826044,-1.7813255359694598,1.8190105753419954,1.4568488843773468,5.09956245216372
2.7356890261501015,-1.784549634045814,1.819431078506695,1.4566506337914964,5.09169109824015
2.7243906732623615,-1.7877422390911912,1.8197902366955518,1.4564896555155644,5.0836325706507965
2.7130601271069428,-1.7909030386586213,1.8200885844131032,1.4563662243557298,5.075388868430504
2.7016981368714026,-1.7940317203011358,1.8203266561638844,1.4562806151181724,5.066961990614089
2.6903054517433014,-1.797127971571764,1.820504986452426,1.4562331026090722,5.0583539362363705
2.678882820910197,-1.8001914800235361,1.8206241097832687,1.4562239616346082,5.049566704332172
2.6674309935596456,-1.8032219332094832,1.820684560660946,1.4562534670009604,5.040602293936332
2.655950718879211,-1.8062190186826341,1.820686873589993,1.456321893514308,5.031462704083667
2.6444427460564417,-1.8091824239960206,1.8206315830749458,1.4564295159808314,5.022149933809003
2.6329078242789037,-1.8121118367026716,1.8205192236203374,1.4565766092067096,5.012665982147154
2.6213467027341544,-1.8150069443556185,1.8203503297307075,1.4567634479981222,5.003012848132958
2.6097601306097524,-1.8178674345078898,1.8201254359105872,1.4569903071612493,4.993192530801235
2.598148857093252,-1.8206929947125179,1.8198450766645151,1.4572574615022698,4.983207029186815
2.5865136313722163,-1.8234833125225312,1.8195097864970267,1.457565185827364,4.973058342324505
2.574855202634201,-1.8262380754909613,1.819120099912654,1.457913754942711,4.962748469249153
2.5631743200667634,-1.8289569711708369,1.8186765514159364,1.4583034436544908,4.952279408995572
2.5514717328574625,-1.8316396871151894,1.818179675511404,1.458734526768883,4.941653160598587
2.5397481901938574,-1.8342859108770488,1.817630006703597,1.459207279092067,4.930871723093016
2.528004441263507,-1.836895330009445,1.8170280794970508,1.4597219754302222,4.91993709551369
2.516241235253969,-1.839467632065409,1.8163744283962977,1.460278890589529,4.908851276895437
2.5044593213528,-1.8420025045979702,1.8156695879058748,1.4608782993761662,4.897616266273086
2.49265944874756,-1.8444996351601592,1.8149140925303175,1.461520476596314,4.886234062681444
2.4808423666258084,-1.8469587113050059,1.8141084767741589,1.4622056970561514,4.874706665155358
2.4690088241750985,-1.8493794205855407,1.8132532751419421,1.4629342355618586,4.86303607272963
2.457159570582995,-1.8517614505547944,1.8123490221381933,1.4637063669196149,4.851224284439098
2.445295355037053,-1.8541044887657958,1.8113962522674494,1.4645223659356004,4.839273299318576
2.433416926724829,-1.856408222771577,1.8103955000342506,1.4653825074159939,4.8271851164029
2.421525034833885,-1.8586723401251664,1.8093472999431284,1.4662870661669756,4.814961734726902
2.409620428551778,-1.8608965283795953,1.8082521864986227,1.4672363169947251,4.802605153325375
2.397703857066061,-1.8630804750878933,1.8071106942052602,1.468230534705422,4.790117371233187
2.3857760695643,-1.8652238678030917,1.8059233575675862,1.469269994105246,4.7775003874851265
2.373837815234051,-1.8673263940782192,1.8046907110901298,1.470354970000376,4.764756201116034
2.3618898432628725,-1.8693877414663074,1.8034132892774246,1.4714857371969925,4.751886811160727
2.3499329028383196,-1.8714075975203859,1.8020916266340126,1.4726625705012746,4.738894216654035
2.337967743147955,-1.8733856497934853,1.8007262576644294,1.4738857447194023,4.725780416630791
2.3259951133793324,-1.8753215858386345,1.7993177168732024,1.4751555346575547,4.712547410125797
2.314015762720011,-1.8772150932088654,1.7978665387648722,1.476472215121912,4.699197196173904
2.3020304403575538,-1.8790658594572074,1.7963732578439737,1.4778360609186532,4.685731773809922
2.2900398954795165,-1.8808735721366907,1.7948384086150422,1.4792473468539584,4.672153142068666
2.27804487727345,-1.882637918800346,1.7932625255826156,1.4807063477340077,4.658463299984984
2.2660461349269236,-1.884358587001203,1.791646143251226,1.4822133383649794,4.644664246593681
2.2540444176274925,-1.8860352642922917,1.7899897961254085,1.483768593553054,4.630757980929593
2.2420404745627103,-1.8876676382266437,1.7882940187096974,1.485372388104411,4.616746502027542
2.230035054920144,-1.889255396357288,1.7865593455086342,1.4870249968252303,4.602631808922348
2.2180289078873408,-1.890798226237254,1.7847863110267497,1.4887266945216902,4.5884159006488385
2.2060227826518677,-1.8922958154195741,1.7829754497685766,1.490477755999972,4.574100776241837
2.1940174284012777,-1.8937478514572774,1.7811272962386577,1.4922784560662545,4.559688434736179
2.1820135943231316,-1.8951540219033935,1.7792423849415209,1.4941290695267175,4.545180875166672
2.1700120296049885,-1.8965140143109538,1.7773212503817075,1.4960298711875404,4.530580096568142
2.158013483434405,-1.8978275162329876,1.775364427063749,1.4979811358549031,4.515888097975431
2.146018704998938,-1.8990942152225254,1.773372449492185,1.4999831383349844,4.501106878423352
2.13402844348615,-1.9003137988325984,1.7713458521715437,1.5020361534339655,4.486238436946728
2.122043448083595,-1.901485954616235,1.7692851696063663,1.5041404559580245,4.471284772580381
2.1100644679788303,-1.9026103701264667,1.7671909363011875,1.5062963207133422,4.456247884359147
2.0980922523594243,-1.9036867329163234,1.7650636867605418,1.5085040225060975,4.441129771317847
2.086127550412926,-1.9047147305388354,1.7629039554889663,1.51076383614247,4.425932432491301
2.0741711113268924,-1.9056940505470328,1.760712276990993,1.5130760364286395,4.410657866914319
2.0622236842888846,-1.9066243804939458,1.7584891857711598,1.5154408981707856,4.395308073621759
2.050286018486463,-1.9075054079326048,1.7562352163339985,1.517858696175088,4.379885051648422
2.0383588631071827,-1.9083368204160394,1.7539509031840503,1.5203297052477263,4.364390800029144
2.026442967338606,-1.9091183054972811,1.7516367808258484,1.52285420019488,4.34882731779874
2.014539080368289,-1.9098495507293587,1.7492933837639248,1.5254324558227284,4.333196603992048
2.0026479513837856,-1.9105302436653027,1.7469212465028203,1.5280647469374522,4.317500657643876
1.9907703295726593,-1.911160071858145,1.7445209035470652,1.5307513483452302,4.301741477789051
1.978906964122471,-1.911738722860914,1.7420928894011976,1.533492534852242,4.285921063462407
1.9670586042207692,-1.91226588422664,1.7396377385697552,1.5362885812646672,4.270041413698767
1.9552259990551235,-1.9127412435083535,1.737155985557267,1.5391397623886853,4.254104527532954
1.9434098978130807,-1.9131644882590848,1.734648164868272,1.5420463530304764,4.2381124039997875
1.9316110496822079,-1.9135353060318643,1.7321148110073068,1.54500862799622,4.222067042134096
1.9198302038500596,-1.9138533843797227,1.729556458478907,1.5480268620920954,4.2059704409707095
1.9080681095041987,-1.9141184108556892,1.7269736417876076,1.5511013301242826,4.1898245995444405
1.8963255158321752,-1.9143300730127941,1.724366895437941,1.5542323068989612,4.173631516890131
1.8846031720215546,-1.914488058404069,1.7217367539344433,1.5574200672223109,4.157393192042587
1.8729018272598905,-1.9145920545825428,1.719083751781651,1.560664885900511,4.141111624036647
1.8612222307347457,-1.9146417491012455,1.716408423484102,1.5639670377397406,4.124788811907123
1.8495651316336712,-1.9146368295132077,1.713711303546329,1.5673267975461802,4.10842675468885
1.8379312791442297,-1.9145769833714605,1.7109929264728678,1.5707444401260093,4.0920274514166515
1.8263214224539848,-1.9144618982290327,1.7082538267682525,1.5742202402854075,4.075592901125352
1.8147363107504892,-1.9142912616389554,1.7054945389370202,1.577754472830554,4.059125102849768
1.8031766932212987,-1.914064761154259,1.7027155974837056,1.5813474125676295,4.042626055624725
1.7916433190539722,-1.913782084327972,1.699917536912845,1.5849993343028115,4.02609775848507
1.780136937436077,-1.913442918713128,1.697100891728974,1.5887105128422818,4.009542210465597
1.7686582975551604,-1.9130469518627535,1.694266196436626,1.5924812229922192,3.992961410601154
1.757208148598786,-1.912593871329881,1.6914139855403372,1.5963117395588027,3.9763573579265348
1.7457872397545087,-1.9120833646675401,1.6885447935446418,1.6002023373482124,3.959732051476605
1.7343963202098927,-1.9115151194287616,1.6856591549540783,1.6041532911666287,3.9430874902861675
1.72303613915249,-1.9108888231665744,1.6827576042731822,1.6081648758202296,3.9264256733900282
1.7117074457698624,-1.9102041634340097,1.679840676006485,1.6122373661151972,3.9097485998230503
1.7004109892495656,-1.9094608277840974,1.676908904658525,1.616371036857708,3.893058268620031
1.6891475187791647,-1.9086585037698676,1.6739628247338363,1.6205661628539438,3.8763566788158137
1.6779177835462074,-1.9077968789443518,1.6710029707369527,1.6248230189100838,3.8596458294452027
1.6667225327382598,-1.9068756408605783,1.668029877172418,1.6291418798323072,3.8429277195430345
1.6555625155428748,-1.9058944770715782,1.6650440785447556,1.6335230204267934,3.8262043481441417
1.6444384811476187,-1.9048530751303825,1.6620461093585082,1.6379667154997235,3.8094777142833323
1.6333511787400399,-1.90375112259002,1.659036504118208,1.6424732398572757,3.792749816995439
1.6223013575077045,-1.9025883070035214,1.6560157973283927,1.64704286830563,3.776022655315277
1.611289766638163,-1.9013643159239173,1.6529845234935996,1.651675875650966,3.7592982282776894
1.6003171553189786,-1.9000788369042372,1.6499432171183592,1.6563725366994624,3.742578534917481
1.5893842727377177,-1.8987315574975119,1.646892412707209,1.6611331262573006,3.7258655742694984
1.5784918680819198,-1.8973221652567718,1.643832644764684,1.6659579191306593,3.709161345368546
1.5676406905391618,-1.8958503477350472,1.6407644477953216,1.670847190125718,3.6924678472494676
1.5568314892969886,-1.8943157924853682,1.6376883563036548,1.675801214048656,3.6757870789470637
1.5460650135429672,-1.8927181870607641,1.6346049047942204,1.6808202657056546,3.6591210394961706
1.5353420124646453,-1.8910572190142658,1.6315146277715513,1.6859046199028915,3.6424717279316177
1.5246632352495961,-1.8893325758989041,1.628418059740187,1.691054551446547,3.6258411432882305
1.5140294310853655,-1.8875439452677076,1.6253157352046594,1.6962703351428012,3.6092312846008276
1.5034413491595195,-1.885691014673709,1.6222081886695054,1.7015522457978327,3.592644150904224
1.4928997386596068,-1.8837734716699361,1.6190959546392616,1.7069005582178223,3.576081741233267
1.4824053487731987,-1.8817910038094205,1.61597956761846,1.7123155472089482,3.5595460546227677
1.4719589286878412,-1.8797432986451925,1.6128595621116393,1.7177974875773918,3.5430390901075413
1.4615612275911039,-1.8776300437302806,1.6097364726233323,1.7233466541293319,3.526562846722438
1.4512129946705317,-1.875450926617718,1.6066108336580749,1.7289633216709475,3.5101193235022627
1.4409149791136944,-1.8732056348605322,1.603483179720408,1.7346477650084182,3.4937105194818514
1.430667930108144,-1.870893856011754,1.600354045314857,1.7404002589479246,3.4773384336960085
1.420472596841444,-1.8685152776244145,1.5972239649459654,1.7462210782956453,3.461005065179581
1.410329728501151,-1.8660695872515438,1.594093473118261,1.7521104978577609,3.4447124129673874
1.4002400742748167,-1.8635564724461715,1.5909631043362884,1.7580687924404512,3.428462476094243
1.3902043833500084,-1.8609756207613288,1.5878333931045816,1.7640962368498943,3.412257253594987
1.3802234049142825,-1.8583267197500435,1.5847048739276683,1.7701931058922709,3.3960987445044317
1.3702978881551893,-1.8556094569653494,1.5815780813100861,1.7763596743737606,3.379988947857406
1.360428582260294,-1.8528235199602734,1.578453549756377,1.7825962171005427,3.3639298626887424
1.3506162364171574,-1.849968596287848,1.5753318137710695,1.7889030088787967,3.3479234880332456
1.3408615998133318,-1.8470443735011024,1.5722134078587038,1.7952803245147027,3.3319718229257624
1.3311654216363795,-1.8440505391530677,1.5690988665238121,1.8017284388144406,3.316076866401101
1.321528451073858,-1.840986780796773,1.5659887242709294,1.8082476265841887,3.30024061749409
1.311951437313322,-1.8378527859852487,1.5628835156045957,1.814838162630127,3.284465075239563
1.3024351295423333,-1.834648242271526,1.559783775029338,1.8215003217584367,3.268752238672345
1.2929802769484482,-1.8313728372086335,1.5566900370497017,1.8282343787752966,3.253104106827248
1.283587628719225,-1.8280262583496039,1.5536028361702146,1.8350406084868855,3.23752267873909
1.2742579340422324,-1.8246081932474647,1.5505227068954177,1.8419192856993831,3.222009953442715
1.264991942105011,-1.8211183294552469,1.547450183729838,1.848870685218969,3.2065679299729517
1.2557904020951298,-1.8175563545259807,1.5443858011780245,1.8558950818518247,3.1911986073646084
1.2466540632001415,-1.813921956012698,1.5413300937444978,1.862992750404127,3.175903984652514
1.2375836746076132,-1.8102148214684282,1.5382835959338061,1.8701639656820572,3.160686060871491
1.2285799855050943,-1.8064346384461998,1.535246842250472,1.8774090024917944,3.1455468350563613
1.219643745080143,-1.8025810944990455,1.5322203671990406,1.8847281356395187,3.1304883062419613
1.2107757025203298,-1.798653877179993,1.5292047052840427,1.89212163993141,3.115512473463106
1.2019766070131936,-1.7946526740420743,1.5262003910100166,1.8995897901736463,3.1006213357546386
1.1932472077463085,-1.7905771726383195,1.5232079588814962,1.9071328611724088,3.0858168921513567
1.1845882539072257,-1.7864270605217585,1.5202279434030173,1.9147511277338762,3.0711011416881
1.1760004946835103,-1.7822020252454216,1.5172608790791102,1.9224448646642291,3.0564760833996907
1.16748467926271,-1.7779017543623383,1.5143073004143224,1.9302143467696466,3.041943716320951
1.159041556832392,-1.7735259354255386,1.5113677419131797,1.9380598488563079,3.0275060394867026
1.1506718765801072,-1.7690742559880555,1.508442738080217,1.9459816457303933,3.013165051931775
1.1423763876934174,-1.7645464036029166,1.5055328234199763,1.9539800121980813,2.998922752691005
1.1341558393598863,-1.7599420658231528,1.502638532436987,1.9620552230655526,2.9847811407991927
1.1260109807670649,-1.7552609302017936,1.4997603996357878,1.9702075531389869,2.970742215291171
1.1179425611025096,-1.7505026842918716,1.4968989595209097,1.9784372772245633,2.95680797520178
1.1099513295537893,-1.7456670156464145,1.4940547465968956,1.9867446701284606,2.942980419565817
1.1020380353084516,-1.7407536118184535,1.4912282953682716,1.99513000665686,2.929261547418143
1.0942034275540635,-1.735762160361018,1.4884201403395831,2.003593561615941,2.9156533577935377
1.0864482554781691,-1.730692348827139,1.485630816015358,2.012135609811882,2.9021578497268656
1.0787732682683444,-1.725543864769847,1.4828608569001354,2.020756426050864,2.888777022252931
1.0711792151121333,-1.7203163957421719,1.4801107974984449,2.0294562851390654,2.875512874406567
1.0636668451971083,-1.7150096292971444,1.477381172314833,2.038235461882666,2.8623674052226065
1.056236907710817,-1.7096232529877948,1.4746725158538254,2.047094231087846,2.8493426137358355
1.0488901518408174,-1.704156954367149,1.47198536261996,2.0560328675607864,2.8364404989811156
1.0416273267746714,-1.6986104209882447,1.4693202471177713,2.0650516461076642,2.8236630599932546
1.0344491816999355,-1.6929833404041084,1.4666777038518006,2.0741508415346592,2.811012295807096
1.027356465804166,-1.687275400167768,1.4640582673265765,2.083330728647952,2.798490205457437
1.020349928274932,-1.681486287832258,1.4614624720466347,2.092591582253722,2.786098787979139
1.013430318299779,-1.6756156909506057,1.4588908525165145,2.1019336771581494,2.773840042406974
1.0065983850662708,-1.669663297075843,1.4563439432407526,2.1113572881674134,2.7617159677758174
0.9998548777619654,-1.6636287937609984,1.4538222787238748,2.120862690087693,2.7497285631204598
0.9932005455744228,-1.6575118685591033,1.4513263934704304,2.1304501577251687,2.7378798274757443
0.9866361376911978,-1.651312209023188,1.4488568219849371,2.1401199658860195,2.726171759876504
0.9801624032998468,-1.645029502706283,1.4464140987719496,2.149872389376425,2.714606359357532
0.9737800915879316,-1.6386634371614175,1.443998758335991,2.1597077030025646,2.7031856249536723
0.967489951743012,-1.632213699941623,1.4416113351816016,2.16962618157062,2.6919115556997575
0.9612927329526482,-1.6256799785999272,1.4392523638133108,2.1796280998867688,2.680786150630606
0.9551891844043858,-1.619061960689363,1.4369223787356598,2.18971373275719,2.669811408781026
0.9491800552857956,-1.6123593337629591,1.4346219144531833,2.1998833549880654,2.65898932918585
0.9432660947844376,-1.6055717853737468,1.4323515054704163,2.2101372413855738,2.6483219108799396
0.937448052087861,-1.5986990030747563,1.4301116862918946,2.220475666755893,2.6378111528980526
0.9317266763836258,-1.5917406744190172,1.427902991422151,2.2308989059052053,2.6274590542750715
0.9261027168592921,-1.5846964869595581,1.4257259553657189,2.241407233639688,2.617267614045776
0.9205769227024234,-1.577566128249413,1.42358111262714,2.2520009247655226,2.607238831245027
0.9151500431005619,-1.5703492858416093,1.421468997710953,2.262680254088888,2.5973747049076437
0.9098228272412872,-1.5630456472891785,1.4193901451216764,2.273445496415964,2.587677234068426
0.9045960243121449,-1.5556549001451492,1.4173450893638648,2.2842969265529294,2.5781484177622325
0.8994703835006987,-1.5481767319625535,1.4153343649420442,2.295234819305964,2.5687902550238455
0.8944466539944962,-1.5406108302944208,1.4133585063607512,2.3062594494812485,2.5596047448881265
0.8895255849811043,-1.5329568826937807,1.4114180481245242,2.3173710918849615,2.5505938863898834
0.8847079256480832,-1.5252145767136644,1.4095135247378856,2.3285700213232845,2.541759678563942
0.879994425182991,-1.5173835999071041,1.407645470705388,2.3398565126023936,2.5331041204451523
0.8753858327733788,-1.509463639827124,1.4058144205315575,2.351230840528472,2.5246292110683015
0.8708828976068066,-1.5014543840267605,1.4040209087209288,2.362693279907697,2.516336949468233
0.866486368870838,-1.4933555200590423,1.4022654697780457,2.374244105546249,2.50822933467974
0.8621969957530293,-1.485166735476997,1.4005486382074306,2.3858835922503063,2.500308365737709
0.8580155274409353,-1.4768877178336561,1.3988709485136344,2.397612014826052,2.492576041676905
0.8539427131221213,-1.4685181546820516,1.3972329352011759,2.409429648079662,2.4850343615321933
0.8499793019841366,-1.4600577335752112,1.3956351327746006,2.4213367668173182,2.477685324338381
0.8461260432145465,-1.451506142066167,1.3940780757384506,2.433333645845198,2.470530929130284
0.8423836860009075,-1.4428630677079477,1.3925622985972428,2.4454205599694836,2.463573174942759
0.838752979530776,-1.4341281980535854,1.3910883358555282,2.457597783996354,2.4568140608105864
0.8352346729917084,-1.4253012206561095,1.389656722017829,2.4698655927319866,2.4502555857686303
0.8318295155712736,-1.4163818230685488,1.3882679915886964,2.482224260982563,2.443899748851692
0.8285382564570138,-1.407369692843936,1.3869226790726525,2.494674063554265,2.437748549094593
0.825361644836498,-1.3982645175352983,1.3856213189742395,2.507215275253267,2.4318039855321913
0.8223004298972878,-1.3890659846956677,1.3843644457979938,2.5198481708857514,2.4260680571992523
0.8193553608269291,-1.379773781878077,1.3831525940484433,2.532573025257901,2.420542763130662
0.8165271868129889,-1.3703875966355517,1.3819862982301299,2.5453901131758885,2.415230102361221
0.8138166570430201,-1.3609071165211244,1.3808660928475884,2.5582997094458992,2.4101320739257517
0.8112245207045916,-1.3513320290878248,1.3797925124053503,2.57130208887411,2.4052506768590547
0.808751526985251,-1.341662021888685,1.3787660914079538,2.5843975262667005,2.400587910195995
0.8063984250725618,-1.33189678247673,1.3777873643599339,2.599637021903618,2.39614577297138
0.8041659641540804,-1.3220359984049974,1.3768568657658289,2.6184235763939796,2.3919262642200394
0.8020548934173632,-1.3120793572265113,1.3759751301301666,2.6402575393349252,2.387931382976795
0.800065962049965,-1.3020265464943046,1.3751426919574943,2.6646392603670392,2.3841631282764624
0.7981999192394582,-1.2918772537614078,1.3743600857523361,2.691069089125449,2.3806234991538773
0.7964575141733885,-1.2816311665808504,1.3736278460192342,2.7190473752452817,2.377314494643869
0.7948394960393159,-1.2712879725056627,1.3729465072627178,2.748074468372579,2.3742381137812245
0.7933466140248076,-1.2608473590888751,1.3723166039873256,2.7776507181297347,2.3713963556008224
0.7919796173174092,-1.2503090138835162,1.3717386706975976,2.8072764741646097,2.3687912191374707
0.7907392551046879,-1.23967262444262,1.3712132418980651,2.836452086110512,2.366424703425963
0.7896262765741948,-1.228937878319213,1.3707408520932596,2.864677903608026,2.3642988075011573
0.7886414309134935,-1.2181044630663278,1.370322035787721,2.8914542762831843,2.3624155303978824
0.7877854673101403,-1.2071720662369927,1.369957327485979,2.916281553787485,2.3607768711509394
0.7870591349517024,-1.1961403753842381,1.3696472616925774,2.9386600857415033,2.35938482879515
0.7864631830257167,-1.1850090780610962,1.3693923729120545,2.9580902217949188,2.3582414023653513
0.7859983607197645,-1.1737778618205947,1.369193195648931,2.9740723115792207,2.357348590896379
0.7856654172213915,-1.1624464142157676,1.3690502644077593,2.9861067047313554,2.356708393423041
0.7854651017181542,-1.1890686564147472,1.3689641136930568,2.9936937508882693,2.3563228089801598
0.7853981633976215,-1.2236754957120866,1.3689352780093706,2.9963337996887276,2.3561938366025785
