oscarkremer/mentor-optimization/data/trajectory_1/polinomy/angles.csv
theta1,theta2,theta3,theta4,theta5
3.1415926535,-0.9030865823619687,2.1246196420553805,1.9200595938963783,8.979318433952318e-11
3.1415548537063973,-0.9030747959898544,2.1245968485720983,1.920070601007546,3.779988339553352e-05
3.141441656598734,-0.9030394999443989,2.124528590094069,1.92010356344012,0.00015099699105955845
3.1412533655867225,-0.9029807888319337,2.1244150495790173,1.9201583928427062,0.00033928800307072524
3.1409902840800785,-0.90289875725879,2.1242564099846697,1.9202350008639104,0.0006023695097144999
3.1406527154885167,-0.9027934998312992,2.1240528542687502,1.9203332991523392,0.0009399381012763485
3.1402409632217516,-0.9026651111557928,2.1238045653889848,1.9204531993565979,0.0013516903680417377
3.139755330689497,-0.902513685838602,2.1235117263030987,1.9205946131252931,0.0018373229002961325
3.1391961213014685,-0.9023393184860582,2.123174519968818,1.9207574521070303,0.002396532288325
3.1385636384673794,-0.9021421037044928,2.122793129343867,1.9209416279504161,0.003029015122413806
3.1378581855969454,-0.901922136100237,2.122367737385971,1.921147052304056,0.003734467992848015
3.1370800660998803,-0.9016795102796223,2.1218985270528563,1.9213736368165564,0.004512587489913097
3.1362295833858984,-0.9014143208489801,2.1213856813022476,1.9216212931365229,0.005363070203894515
3.1353070408647152,-0.9011266624146415,2.1208293830918703,1.9218899329125616,0.006285612725077735
3.1343127419460446,-0.9008166295829381,2.120229815379449,1.9221794677932789,0.007279911643748224
3.1332469900396016,-0.9004843169602011,2.119587161122711,1.9224898094272802,0.008345663550191451
3.1321100885551,-0.9001298191527619,2.11890160327938,1.9228208694631723,0.009482565034692874
3.130902340902255,-0.8997532307669519,2.1181733248071817,1.9231725595495603,0.010690312687537966
3.129624050490781,-0.8993546464091025,2.117402508663841,1.923544791335051,0.011968603099012194
3.128275520730392,-0.8989341606855449,2.116589337807085,1.92393747646825,0.01331713285940102
3.1268570550308037,-0.8984918682026105,2.115733995194637,1.9243505265977634,0.014735598558989904
3.125368956801729,-0.8980278635666307,2.1148366637842235,1.9247838533721973,0.01622369678806433
3.1238115294528837,-0.8975422413839368,2.1138975265335693,1.9252373684401574,0.01778112413690975
3.1221850763939814,-0.8970350962608602,2.1129167664004,1.9257109834502502,0.019407577195811633
3.1204899010347376,-0.8965065228037322,2.1118945663424413,1.9262046100510812,0.021102752555055445
3.1187263067848665,-0.8959566156188843,2.1108311093174175,1.9267181598912566,0.022866346804926652
3.1168945970540824,-0.8953854693126477,2.109726578283055,1.9272515446193828,0.024698056535710725
3.1149950752521,-0.8947931784913536,2.1085811561970784,1.9278046758840652,0.026597578337693117
3.113028044788634,-0.8941798377613338,2.1073950260172136,1.9283774653339103,0.028564608801159314
3.110993809073398,-0.8935455417289193,2.1061683707011856,1.9289698246175238,0.030598844516394778
3.1088926715161085,-0.8928903850004416,2.1049013732067197,1.9295816653835116,0.032699982073684956
3.106724935526478,-0.892214462182232,2.1035942164915418,1.9302128992804803,0.034867718063315324
3.104490904514222,-0.8915178678806217,2.1022470835133764,1.9308634379570353,0.03710174907557136
3.102190881889055,-0.8908006967019424,2.1008601572299495,1.9315331930617832,0.03940177170073852
3.099825171060691,-0.8900630432525252,2.099433620598986,1.932222076243329,0.04176748252910226
3.0973940754388454,-0.8893050021387015,2.0979676565782115,1.93292999915028,0.04419857815094807
3.094897898433232,-0.8885266679668026,2.0964624481253518,1.9336568734312412,0.04669475515656139
3.0923369434535655,-0.88772813534316,2.0949181781981308,1.9344026107348191,0.04925571013622769
3.0897115139095606,-0.886909498874105,2.093335029754275,1.9351671227096197,0.05188113968023248
3.0870219132109322,-0.8860708531659689,2.09171318575151,1.9359503210042486,0.054570740378861164
3.084268444767394,-0.8852122928250831,2.090052829147561,1.9367521172673123,0.05732420882239923
3.081451411988661,-0.8843339124577788,2.088354142900152,1.9375724231474167,0.06014124160113218
3.0785711182844477,-0.8834358066703876,2.08661730996701,1.9384111502931678,0.06302153530534542
3.0756278670644686,-0.8825180700692407,2.0848425133058592,1.9392682103531715,0.06596478652532445
3.0726219617384385,-0.8815807972606694,2.0830299358744258,1.9401435149760338,0.06897069185135477
3.069553705716072,-0.8806240828510054,2.0811797606304343,1.941036975810361,0.07203894787372175
3.066423402407082,-0.8796480214465795,2.0792921705316108,1.9419485045047586,0.07516925118271095
3.0632313552211854,-0.8786527076537235,2.0773673485356805,1.942878012707833,0.07836129836860779
3.0599778675680955,-0.8776382360787686,2.0754054776003685,1.9438254120681902,0.08161478602169775
3.056663242857527,-0.876604701328046,2.0734067406834,1.944790614234436,0.0849294107322663
3.0532877844991946,-0.8755521980078873,2.071371320742501,1.9457735308551767,0.08830486909059887
3.0498517959028124,-0.8744808207246237,2.069299400735396,1.9467740735790178,0.09174085768698097
3.046355580478095,-0.8733906640845868,2.067191163619811,1.9477921540545662,0.09523707311169806
3.0427994416347577,-0.8722818226941076,2.065046792353471,1.948827683930427,0.09879321195503557
3.039183682782514,-0.8711543911595176,2.062866469894101,1.9498805748552066,0.10240897080727901
3.0355086073310793,-0.8700084640871483,2.0606503791994273,1.950950738477511,0.10608404625871386
3.0317745186901672,-0.8688441360833308,2.0583987032271747,1.9520380864459461,0.10981813489962551
3.027981720269494,-0.8676615017543966,2.0561116249350686,1.9531425304091183,0.11361093332029946
3.0241305154787717,-0.8664606557066771,2.0537893272808336,1.9542639820156333,0.11746213811102124
3.0202212077277166,-0.8652416925465034,2.0514319932221965,1.9554023529140971,0.1213714458620762
3.016254100426043,-0.8640047068802071,2.0490398057168817,1.9565575547531158,0.12533855316374995
3.012229496983465,-0.8627497933141196,2.0466129477226143,1.957729499181295,0.1293631566063278
3.0081477008096975,-0.861477046454572,2.0441516021971204,1.9589180978472414,0.1334449527800953
3.004009015314455,-0.8601865609078958,2.0416559520981252,1.9601232623995604,0.13758363827533795
2.999813743907452,-0.8588784312804224,2.0391261803833536,1.9613449044868585,0.14177890968234116
2.9955621899984024,-0.857552752178483,2.0365624700105314,1.9625829357577418,0.14603046359139038
2.991254656997022,-0.8562096182084091,2.0339650039373836,1.9638372678608156,0.15033799659277117
2.986891448313024,-0.8548491239765321,2.0313339651216356,1.9651078124446866,0.15470120527676887
2.9824728673561243,-0.8534713640891831,2.028669536521013,1.9663944811579603,0.159119786233669
2.9779992175360364,-0.8520764331526937,2.0259719010932407,1.967697185649243,0.16359343605375704
2.9734708022624745,-0.8506644257733951,2.023241241796044,1.9690158375671407,0.16812185132731852
2.9688879249451543,-0.8492354365576187,2.0204777415871495,1.9703503485602594,0.1727047286446388
2.9642508889937895,-0.8477895601116959,2.017681583424281,1.971700630277205,0.17734176459600337
2.9595599978180953,-0.846326891041958,2.014852950265164,1.9730665943665837,0.18203265577169767
2.954815554827786,-0.8448475239547364,2.011992025067525,1.9744481524770015,0.1867770987620072
2.9500178634325755,-0.8433515534563624,2.0090989907890884,1.975845216257064,0.1915747901572175
2.945167227042179,-0.8418390741531672,2.0061740303875797,1.9772576973553777,0.19642542654761402
2.940263949066311,-0.8403101806514826,2.003217326820724,1.9786855074205485,0.2013287045234821
2.9353083329146856,-0.8387649675576394,2.000229063046247,1.9801285581011825,0.2062843206751072
2.930300681997018,-0.8372035294779694,1.9972094220218741,1.9815867610458853,0.2112919715927749
2.925241299723022,-0.8356259610188038,1.9941585867053306,1.9830600279032633,0.21635135386677068
2.920130489502413,-0.8340323567864738,1.9910767400543417,1.9845482703219222,0.22146216408738004
2.9149685547449047,-0.832422811387311,1.9879640650266326,1.9860513999504683,0.22662409884488824
2.909755798860212,-0.8307974194276466,1.984820744579929,1.9875693284375076,0.2318368547295809
2.90449252525805,-0.8291562755138121,1.981646961671956,1.9891019674316461,0.23710012833174343
2.8991790373481314,-0.8274994742521387,1.978442899260439,1.9906492285814896,0.24241361624166136
2.893815638540173,-0.8258271102489576,1.9752087403031036,1.9922110235356438,0.24777701504962002
2.888402632243888,-0.8241392781106004,1.9719446677576746,1.993787263942716,0.2531900213459051
2.882940321868991,-0.8224360724433986,1.9686508645818777,1.995377861451311,0.25865233172080193
2.877429010825197,-0.8207175878536832,1.965327513733438,1.9969827277100352,0.264163642764596
2.8718690025222204,-0.8189839189477858,1.9619747981700815,1.9986017743674944,0.2697236510675726
2.8662606003697757,-0.8172351603320376,1.9585929008495329,2.000234913072295,0.2753320532200175
2.860604107777577,-0.81547140661277,1.9551820047295174,2.0018820554730428,0.280988545812216
2.8548998281553395,-0.8136927523963143,1.9517422927677608,2.0035431132183437,0.28669282543445357
2.849148064912777,-0.811899292289002,1.9482739479219882,2.005217997956804,0.2924445886770158
2.8433491214596054,-0.8100911208971645,1.9447771531499252,2.0069066213370292,0.2982435321301879
2.8375033012055373,-0.8082683328271328,1.941252091409297,2.008608895007626,0.3040893523842556
2.8316109075602887,-0.8064310226852386,1.9376989456578289,2.0103247306172,0.3099817460295042
2.8256722439335737,-0.8045792850778131,1.934117898853246,2.012054039814357,0.31592040965621926
2.819687613735107,-0.8027132146111876,1.9305091339532738,2.0137967342477037,0.3219050398546861
2.8136573203746025,-0.8008329058916936,1.9268728339156382,2.0155527255658456,0.32793533321519036
2.8075816672617755,-0.7989384535256625,1.9232091816980639,2.0173219254173884,0.33401098632801746
2.80146095780634,-0.7970299521194254,1.9195183602582762,2.019104245450939,0.3401316957834528
2.795295495418011,-0.7951074962793139,1.9158005525540007,2.0208995973151027,0.346297158171782
2.7890855835065027,-0.793171180611659,1.912055941542963,2.0227078926584863,0.35250707008329035
2.7828315254815297,-0.7912210997227925,1.908284710182888,2.0245290431296947,0.3587611281082634
2.7765336247528065,-0.7892573482190456,1.904487041431501,2.0263629603773343,0.3650590288369865
2.7701921847300475,-0.7872800207067494,1.9006631182465277,2.0282095560500117,0.3714004688597452
2.7638075088229677,-0.7852892117922357,1.896813123585693,2.0300687417963323,0.3777851447668251
2.7573799004412813,-0.7832850160818354,1.8929372404067228,2.0319404292649024,0.3842127531485116
2.750909662994703,-0.78126752818188,1.8890356516673423,2.033824530104328,0.3906829905950901
2.7443970998929466,-0.7792368426987012,1.8851085403252763,2.035720955963215,0.3971955536968459
2.737842514545728,-0.7771930542386298,1.8811560893382506,2.037629618490169,0.40375013904406476
2.7312462103627606,-0.7751362574079976,1.8771784816639907,2.0395504293337967,0.410346443227032
2.7246084907537598,-0.7730665468131357,1.8731759002602215,2.0414833001427044,0.4169841628360331
2.717929659128439,-0.7709840170603756,1.8691485280846687,2.0434281425654968,0.4236629944613537
2.711210018896514,-0.7688887627560483,1.8650965480950572,2.045384868250781,0.4303826346932791
2.7044498734676985,-0.7667808785064857,1.861020143249113,2.0473533888471627,0.4371427801220946
2.697649526251707,-0.7646604589180188,1.8569194965045608,2.049333616003248,0.44394312733808583
2.6908092806582546,-0.762527598596979,1.8527947908191262,2.051325461367643,0.45078337293153836
2.6839294400970553,-0.7603823921496977,1.848646209150535,2.0533288365889533,0.45766321349273775
2.677010307977824,-0.7582249341825064,1.8444739344565118,2.0553436533157847,0.464582345611969
2.670052187710275,-0.7560553193017361,1.8402781496947822,2.057369823196744,0.4715404658795179
2.6630553827041226,-0.7538736421137182,1.8360590378230714,2.059407257880437,0.4785372708856699
2.6560201963690826,-0.7516799972247846,1.8318167817991051,2.0614558690154694,0.4855724572207105
2.6489469321148675,-0.749474479241266,1.8275515645806086,2.0635155682504474,0.492645721474925
2.641835893351194,-0.7472571827694939,1.823263569125307,2.065586267233977,0.49975676023859916
2.634687383487775,-0.7450282024157999,1.8189529783909257,2.067667877614664,0.5069052701020181
2.627501705934325,-0.7427876327865153,1.8146199753351901,2.069760311041115,0.5140909476554676
2.62027916410056,-0.7405355684879711,1.8102647429158256,2.0718634791619355,0.5213134894892327
2.6130200613961936,-0.7382721041264991,1.8058874640905573,2.0739772936257315,0.5285725921935993
2.60572470123094,-0.7359973343084304,1.801488321817111,2.07610166608111,0.5358679523588528
2.598393387014514,-0.7337113536400964,1.7970674990532114,2.078236508176675,0.5431992665752785
2.591026422156631,-0.7314142567278286,1.7926251787565846,2.080381731561034,0.5505662314331619
2.5836241100670043,-0.7291061381779581,1.7881615438849554,2.082537247882793,0.5579685435227884
2.576186754155349,-0.7267870925968164,1.7836767773960491,2.0847029687905576,0.5654058994344437
2.5687146578313795,-0.7244572145907349,1.7791710622475914,2.0868788059329337,0.572877995758413
2.5612081245048106,-0.7221165987660447,1.7746445813973073,2.0890646709585274,0.5803845290849821
2.5536674575853566,-0.7197653397290775,1.7700975178029223,2.091260475515945,0.5879251960044359
2.546092960482732,-0.7174035320861644,1.765530054422162,2.0934661312537926,0.5954996931070606
2.5384849366066513,-0.7150312704436368,1.760942374212751,2.095681549820676,0.6031077169831414
2.5308436893668294,-0.7126486494078262,1.7563346601324157,2.0979066428652007,0.6107489642229633
2.52316952217298,-0.7102557635850637,1.7517070951388805,2.1001413220359733,0.6184231314168124
2.5154627384348194,-0.7078527075816811,1.7470598621898712,2.1023854989815995,0.6261299151549735
2.5077236415620594,-0.7054395760040091,1.7423931442431133,2.1046390853506862,0.633869012027733
2.499952534964417,-0.7030164634583794,1.7377071242563313,2.1069019927918378,0.6416401186253756
2.4921497220516056,-0.7005834645511236,1.7330019851872518,2.1091741329536617,0.6494429315381868
2.48431550623334,-0.6981406738885726,1.728277909993599,2.1114554174847635,0.6572771473564525
2.476450190919335,-0.6956881860770582,1.723535081633099,2.1137457580337493,0.6651424626704575
2.468554079519304,-0.6932260957229113,1.7187736830634766,2.1160450662492245,0.6730385740704883
2.4606274754429633,-0.6907544974324636,1.7139938972424578,2.118353253779796,0.6809651781468294
2.4526706821000257,-0.6882734858120463,1.7091959071277671,2.1206702322740694,0.6889219714897667
2.444684002900207,-0.6857831554679905,1.7043798956771303,2.1229959133806506,0.6969086506895859
2.436667741253221,-0.6832836010066281,1.699546045848273,2.125330208748145,0.7049249123365715
2.4286222005687823,-0.68077491703429,1.69469454059892,2.1276730300251603,0.7129704530210101
2.420547684256606,-0.6782571981573079,1.689825562886797,2.1300242888603007,0.7210449693331864
2.412444495726406,-0.675730538982013,1.6849392956696294,2.1323838969021733,0.7291481578633865
2.404312938387897,-0.6731950341147365,1.6800359219051422,2.1347517657993844,0.7372797152018954
2.396153315650794,-0.67065077816181,1.6751156245510612,2.1371278072005384,0.7454393379389983
2.387965930924811,-0.6680978657295644,1.670178586565111,2.1395119327542433,0.7536267226649818
2.3797510876196624,-0.6655363914243319,1.6652249909050179,2.1419040541091037,0.7618415659701298
2.371509089145063,-0.662966449852443,1.6602550205285065,2.1443040829137265,0.7700835644447291
2.363240238910728,-0.6603881356202294,1.6552688583933024,2.1467119308167173,0.7783524146790647
2.3549448403263704,-0.6578015433340226,1.650266687457131,2.1491275094666817,0.7866478132634218
2.346623196801706,-0.6552067676001537,1.6452486906777173,2.151550730512226,0.7949694567880863
2.33827561174645,-0.6526039030249543,1.6402150510127875,2.1539815056019567,0.803317041843343
2.3299023885703143,-0.6499930442147553,1.6351659514200658,2.1564197463844796,0.8116902650194784
2.3215038306830156,-0.6473742857758886,1.6301015748572785,2.1588653645084004,0.8200888229067771
2.313080241494268,-0.6447477223146852,1.6250221042821504,2.1613182716223247,0.8285124120955246
2.3046319244137856,-0.6421134484374766,1.6199277226524067,2.16377837937486,0.8369607291760071
2.2961591828512837,-0.6394715587505942,1.6148186129257733,2.166245599414611,0.8454334707385092
2.287662320216475,-0.6368221478603693,1.609694958059975,2.1687198433901838,0.8539303333733168
2.279141639919077,-0.6341653103731332,1.6045569410127378,2.171201022950185,0.8624510136707151
2.2705974453688023,-0.631501140895217,1.5994047447417863,2.1736890497432206,0.8709952082209902
2.2620300399753654,-0.6288297340329526,1.5942385522048466,2.176183835417896,0.8795626136144272
2.253439727148481,-0.6261511843926709,1.5890585463596434,2.1786852916228177,0.8881529264413113
2.244826810297864,-0.6234655865807036,1.5838649101639022,2.1811933300065913,0.8967658432919281
2.2361915928332294,-0.6207730352033818,1.5786578265753488,2.1837078622178234,0.9054010607565631
2.2275343781642905,-0.618073624867037,1.5734374785517073,2.1862287999051193,0.9140582754255021
2.2188554697007623,-0.6153674501780003,1.5682040490507045,2.1887560547170857,0.9227371838890301
2.2101551708523597,-0.6126546057426034,1.5629577210300654,2.191289538302328,0.9314374827374325
2.201433785028797,-0.6099351861671775,1.5576986774475146,2.193829162309453,0.9401588685609954
2.192691615639789,-0.6072092860580539,1.552427101260778,2.1963748383870656,0.9489010379500038
2.183928966095049,-0.604477000021564,1.547143175427581,2.198926478183773,0.9576636874947431
2.1751461398042933,-0.6017384226640392,1.5418470829056485,2.2014839933481802,0.966446513785499
2.1663434401772355,-0.5989936485918108,1.5365390066527067,2.2040472955288943,0.9752492134125568
2.1575211706235904,-0.59624277241121,1.5312191296264799,2.2066162963745204,0.9840714829662021
2.148679634553072,-0.5934858887285686,1.525887634784694,2.2091909075336646,0.9929130190367202
2.1398191353753955,-0.5907230921502175,1.5205447050850744,2.211771040654933,1.001773518214397
2.130939976500275,-0.5879544772824882,1.5151905234853464,2.214356607386932,1.0106526770895172
2.1220424613374256,-0.5851801387317122,1.509825272943235,2.2169475193782673,1.0195501922523666
2.1131268932965606,-0.5824001711042204,1.5044491364164658,2.2195436882775446,1.0284657602932317
2.104193575787396,-0.5796146690063447,1.4990622968627643,2.2221450257333704,1.0373990778023963
2.095242812219646,-0.5768237270444162,1.4936649372398556,2.2247514433943505,1.0463498413701464
2.0862749060030246,-0.5740274398247663,1.4882572405054653,2.227362852909091,1.0553177475867679
2.0772901605472462,-0.5712259019537262,1.4828393896173184,2.2299791659261983,1.064302493042546
2.0682888792620258,-0.5684192080376275,1.4774115675331403,2.2326002940942775,1.0733037743277665
2.0592713655570782,-0.5656074526828015,1.4719739572106565,2.235226149061935,1.0823212880327142
2.050237922842117,-0.5627907304955795,1.4665267416075924,2.237856642477777,1.0913547307476752
2.0411888545268577,-0.5599691360822927,1.461070103681673,2.24049168599041,1.1004037990629343
2.032124464021014,-0.5571427640492727,1.455604226390624,2.2431311912484384,1.109468189568778
2.0230450547343013,-0.5543117090028506,1.4501292926921705,2.24577506990047,1.1185475988554907
2.013950930076434,-0.551476065549358,1.4446454855440378,2.2484232335951098,1.1276417235133582
2.0048423934571256,-0.5486359282951261,1.4391529879039517,2.2510755939809646,1.1367502601326664
1.995719748286092,-0.5457913918464865,1.4336519827296375,2.2537320627066393,1.1458729053037
1.9865832979730471,-0.5429425508097702,1.4281426529788197,2.2563925514207406,1.1550093556167451
1.9774333459277047,-0.5400894997913086,1.4226251816092246,2.2590569717718743,1.1641593076620873
1.9682701955597808,-0.5372323333974333,1.4170997515785768,2.2617252354086466,1.1733224580300112
1.9590941502789891,-0.5343711462344755,1.411566545844602,2.2643972539796633,1.182498503310803
1.949905513495044,-0.5315060329087665,1.406025747365026,2.2670729391335307,1.1916871400947482
1.9407045886176604,-0.5286370880266378,1.4004775390975732,2.2697522025188546,1.2008880649721319
1.9314916790565528,-0.5257644061944208,1.3949221039999697,2.272434955784241,1.2101009745332392
1.9222670882214357,-0.5228880820184465,1.3893596250299405,2.275121110578296,1.2193255653683563
1.913031119522023,-0.5200082101050465,1.3837902851452109,2.2778105785496257,1.228561534067769
1.9037840763680307,-0.5171248850605522,1.3782142673035065,2.2805032713468356,1.2378085772217613
1.8945262621691716,-0.5142382014912948,1.3726317544625521,2.283199100618533,1.2470663914206204
1.885257980335162,-0.5113482540036058,1.3670429295800743,2.2858979780133217,1.25633467325463
1.8759795342757146,-0.5084551372038165,1.3614479756137967,2.28859981517981,1.2656131193140774
1.8666912274005454,-0.5055589456982583,1.3558470755214458,2.2913045237666028,1.2749014261892468
1.8573933631193682,-0.5026597740932623,1.3502404122607468,2.294012015422306,1.2841992904704238
1.8480862448418975,-0.49975771699516014,1.3446281687894244,2.296722201795526,1.2935064087478945
1.8387701759778485,-0.4968528690102832,1.339010528065205,2.2994349945348684,1.3028224776119435
1.829445459936935,-0.49394532474496256,1.333387673045813,2.3021503052889396,1.3121471936528568
1.8201124001288718,-0.4910351788055297,1.327759786688974,2.3048680457063457,1.3214802534609205
1.8107712999633736,-0.48812252579831616,1.322127051952414,2.307588127435692,1.3308213536264182
1.8014224628501547,-0.485207460329653,1.3164896517938576,2.310310462125585,1.3401701907396373
1.7920661921989298,-0.48229007700587184,1.31084776917103,2.313034961424632,1.349526461390862
1.7827027914194133,-0.4793704704333037,1.3052015870416573,2.3157615369814364,1.3588898621703787
1.7733325639213198,-0.47644873521828024,1.2995512883634641,2.318490100444606,1.368260089668472
1.7639558131143638,-0.4735249659671327,1.2938970560941763,2.3212205634627465,1.3776368404754282
1.7545728424082596,-0.47059925728619245,1.2882390731915188,2.3239528376844634,1.387019811181532
1.7451839552127226,-0.46767170378179085,1.2825775226132172,2.326686834758364,1.3964086983770692
1.7357894549374664,-0.464742400060259,1.2769125873169969,2.329422466333052,1.4058031986523256
1.7263896449922056,-0.4618114407279288,1.271244450260583,2.332159644057136,1.4152030085975857
1.7169848287866554,-0.45887892039113104,1.2655732944017009,2.33489827957922,1.4246078248031366
1.7075753097305295,-0.45594493365619737,1.2598993026980763,2.337638284547911,1.4340173438592623
1.6981613912335436,-0.4530095751294592,1.254222658107434,2.340379570611815,1.4434312623562482
1.6887433767054105,-0.45007293941724763,1.2485435435874996,2.343122049419538,1.452849276884381
1.6793215695558463,-0.44713512112589426,1.2428621420959987,2.3458656326196854,1.462271084033945
1.6698962731945652,-0.4441962148617302,1.237178636590656,2.348610231860864,1.4716963803952268
1.660467791031281,-0.4412563152310871,1.2314932100291975,2.3513557587916796,1.4811248625585112
1.651036426475709,-0.438315516840296,1.2258060453693482,2.354102125060738,1.4905562271140829
1.641602482937563,-0.4353739142956885,1.2201173255688333,2.356849242316645,1.4999901706522285
1.6321662638265586,-0.4324316022035959,1.2144272335853787,2.359597022208007,1.5094263897632332
1.6227280725524094,-0.42948867517034944,1.2087359523767092,2.36234537638343,1.5188645810373822
1.6132882125248305,-0.42654522780228044,1.2030436649005503,2.3650942164915203,1.5283044410649613
1.6038469871535357,-0.42360135470572047,1.1973505541146272,2.3678434541808833,1.5377456664362554
1.5944046998482404,-0.4206571504870008,1.1916568029766654,2.370593001100125,1.5471879537415512
1.5849616540186586,-0.41771270975245267,1.1859625944443906,2.373342768897852,1.5566309995711325
1.5755181530745053,-0.4147681271084075,1.1802681114755276,2.37609266922267,1.5660745005152863
1.5660745004254952,-0.4118234971611968,1.174573537027802,2.378842613723185,1.5755181531642966
1.5566309994813414,-0.4088789145171517,1.168879054058939,2.3815925140480023,1.5849616541084501
1.5471879536517599,-0.4059344737826035,1.163184845526664,2.3843422818457296,1.594404699938032
1.5377456663464641,-0.40299026956388384,1.1574910943887025,2.387091828764971,1.603846987243327
1.5283044409751696,-0.4000463964673238,1.1517979836027794,2.3898410664543346,1.6132882126146215
1.5188645809475907,-0.39710294909925486,1.1461056961266205,2.3925899065624243,1.6227280726422009
1.5094263896734414,-0.3941600220660085,1.140414414917951,2.3953382607378475,1.63216626391635
1.4999901705624368,-0.39121770997391575,1.1347243229344963,2.3980860406292095,1.6416024830273543
1.4905562270242916,-0.38827610742930824,1.1290356031339817,2.400833157885117,1.6510364265655002
1.4811248624687194,-0.3853353090385172,1.1233484384741321,2.403579524154175,1.660467791121072
1.4716963803054353,-0.38239540940787403,1.1176630119126736,2.4063250510849903,1.669896273284356
1.4622710839441537,-0.37945650314371,1.111979506407331,2.4090696503261695,1.6793215696456376
1.4528492767945895,-0.3765186848523565,1.10629810491583,2.4118132335263165,1.6887433767952018
1.443431262266457,-0.37358204914014514,1.1006189903958956,2.4145557123340393,1.6981613913233344
1.43401734376947,-0.37064669061340677,1.0949423458052534,2.4172969983979438,1.7075753098203212
1.4246078247133447,-0.3677127038784732,1.0892683541016286,2.4200370033666343,1.7169848288764467
1.4152030085077945,-0.3647801835416755,1.0835971982427468,2.422775638888719,1.7263896450819969
1.4058031985625337,-0.3618492242093451,1.0779290611863326,2.425512816612802,1.7357894550272577
1.3964086982872779,-0.3589199204878135,1.0722641258901124,2.428248448187491,1.7451839553025135
1.38701981109174,-0.35599236698341175,1.0666025753118107,2.430982445261391,1.7545728424980516
1.3776368403856363,-0.3530666583024716,1.0609445924091534,2.4337147194831084,1.7639558132041553
1.3682600895786803,-0.35014288905132407,1.0552903601398658,2.4364451825012488,1.7733325640111106
1.3588898620805867,-0.34722115383630053,1.0496400614616728,2.439173745964418,1.7827027915092046
1.3495264613010705,-0.34430154726373247,1.0439938793322998,2.4419003215212225,1.7920661922887209
1.3401701906498455,-0.34138416393995136,1.0383519967094723,2.4446248208202688,1.8014224629399458
1.3308213535366265,-0.3384690984712881,1.0327145965509157,2.4473471555101622,1.810771300053165
1.3214802533711285,-0.3355564454640746,1.0270818618143558,2.4500672372395087,1.8201124002186624
1.312147193563065,-0.3326462995246418,1.0214539754575167,2.452784977656915,1.8294454600267258
1.3028224775221515,-0.32973875525932117,1.0158311204381247,2.455500288410986,1.8387701760676394
1.2935064086581023,-0.326833907274444,1.0102134797139053,2.458213081150329,1.8480862449316888
1.2841992903806316,-0.3239318501763419,1.004601236242583,2.460923267523549,1.8573933632091595
1.2749014260994551,-0.3210326785713462,0.9989945729818842,2.463630759179252,1.866691227490336
1.2656131192242854,-0.31813648706578773,0.9933936728895331,2.4663354677660445,1.8759795343655057
1.256334673164838,-0.31524337026599836,0.9877987189232554,2.4690373049325327,1.8852579804249532
1.2470663913308284,-0.31235342277830946,0.9822098940407772,2.471736182327322,1.8945262622589631
1.2378085771319693,-0.309466739209052,0.9766273811998232,2.474432011599019,1.9037840764578216
1.2285615339779772,-0.30658341416455787,0.9710513633581189,2.4771247043962292,1.913031119611814
1.2193255652785646,-0.3037035422511579,0.9654820234733892,2.4798141723675586,1.9222670883112265
1.210100974443447,-0.30082721807518353,0.9599195445033598,2.4825003271616137,1.9314916791463443
1.2008880648823397,-0.2979545362429665,0.9543641094057563,2.4851830804270003,1.9407045887074514
1.1916871400049556,-0.2950855913608376,0.9488159011383034,2.487862343812324,1.9499055135848355
1.1824985032210116,-0.2922204780351289,0.9432751026587277,2.490538028966191,1.9590941503687795
1.1733224579402193,-0.2893592908721711,0.937741896924753,2.4932100475372083,1.9682701956495718
1.1641593075722956,-0.2865021244782958,0.9322164668941053,2.4958783111739806,1.9774333460174958
1.155009355526953,-0.28364907345983414,0.9266989955245096,2.4985427315251147,1.9865832980628384
1.1458729052139078,-0.2808002324231177,0.9211896657736922,2.5012032202392156,1.9957197483758833
1.1367502600428745,-0.27795569597447817,0.9156886605993779,2.50385968896489,2.004842393546916
1.1276417234235663,-0.2751155587202463,0.9101961629592917,2.5065120493507447,2.013950930166225
1.118547598765698,-0.27227991526675355,0.904712355811159,2.5091602130453845,2.0230450548240926
1.1094681894789853,-0.26944886022033154,0.8992374221127056,2.511804091697416,2.0321244641108054
1.1004037989731426,-0.2666224881873117,0.8937715448216569,2.5144435969554446,2.0411888546166486
1.0913547306578832,-0.26380089377402477,0.8883149068957374,2.517078640468077,2.050237922931908
1.0823212879429225,-0.26098417158680287,0.8828676912926732,2.5197091338839193,2.059271365646869
1.0733037742379739,-0.25817241623197656,0.8774300809701894,2.5223349888515774,2.068288879351817
1.0643024929527534,-0.2553657223158779,0.8720022588860112,2.5249561170196566,2.0772901606370375
1.0553177474969762,-0.2525641844448381,0.8665844079978647,2.5275724300367632,2.086274906092815
1.0463498412803542,-0.24976789722518805,0.8611767112634742,2.530183839551504,2.0952428123094364
1.0373990777126039,-0.24697695526325963,0.8557793516405656,2.532790257212484,2.1041935758771873
1.0284657602034386,-0.24419145316538382,0.8503925120868636,2.5353915946683103,2.1131268933863523
1.0195501921625743,-0.2414114855378922,0.8450163755600947,2.5379877635675876,2.122042461427217
1.010652676999725,-0.2386371469871163,0.8396511250179834,2.5405786755589226,2.1309399765900654
1.0017735181246048,-0.2358685321193869,0.8342969434182553,2.5431642422909215,2.139819135465186
0.992913018946928,-0.23310573554103575,0.8289540137186354,2.54574437541219,2.148679634642863
0.9840714828764097,-0.2303488518583942,0.8236225188768498,2.5483189865713345,2.1575211707133812
0.9752492133227642,-0.22759797567779338,0.8183026418506228,2.55088798741696,2.1663434402670267
0.966446513695707,-0.2248532016055651,0.8129945655976814,2.553451289597674,2.1751461398940837
0.9576636874049511,-0.22211462424804052,0.8076984730757488,2.5560088047620817,2.1839289661848396
0.9489010378602116,-0.2193823382115504,0.8024145472425515,2.558560444558789,2.1926916157295793
0.940158868471203,-0.21665643810242674,0.7971429710558148,2.561106120636402,2.201433785118588
0.9314374826476399,-0.21393701852700087,0.7918839274732641,2.5636457446435266,2.2101551709421505
0.9227371837992382,-0.2112241740916041,0.7866375994526251,2.5661792282287683,2.2188554697905527
0.9140582753357094,-0.2085179994025672,0.7814041699516223,2.568706483040735,2.2275343782540813
0.9054010606667708,-0.20581858906622263,0.7761838219279811,2.5712274207280315,2.23619159292302
0.8967658432021359,-0.2031260376889008,0.7709767383394273,2.573741952939263,2.244826810387655
0.8881529263515184,-0.20044043987693339,0.7657831021436861,2.576249991323037,2.2534397272382725
0.879562613524635,-0.19776189023665192,0.7606030962984833,2.5787514475279583,2.262030040065156
0.8709952081311978,-0.1950904833743874,0.7554369037615434,2.5812462332026342,2.2705974454585927
0.8624510135809222,-0.19242631389647102,0.7502847074905916,2.583734259995669,2.279141640008868
0.8539303332835237,-0.18976947640923503,0.7451466904433541,2.5862154395556702,2.2876623203062665
0.8454334706487168,-0.18712006551901006,0.7400230355775561,2.5886896835312436,2.2961591829410746
0.8369607290862147,-0.18447817583212756,0.7349139258509232,2.5911569035709947,2.3046319245035756
0.8285124120057321,-0.18184390195491895,0.7298195442211795,2.5936170113235297,2.313080241584058
0.8200888228169847,-0.17921733849371557,0.7247400736460514,2.5960699184374545,2.321503830772807
0.8116902649296858,-0.17659858005484885,0.7196756970832634,2.598515536561375,2.3299023886601056
0.8033170417535502,-0.17398772124465,0.7146265974905421,2.6009537773438978,2.33827561183624
0.7949694566982939,-0.17138485666945058,0.7095929578256122,2.6033845524336283,2.3466231968914975
0.786647813173629,-0.16879008093558168,0.7045749610461987,2.605807773479173,2.3549448404161613
0.778352414589272,-0.16620348864937473,0.699572790110027,2.6082233521291376,2.3632402390005183
0.7700835643549362,-0.16362517441716118,0.694586627974823,2.610631200032128,2.3715090892348543
0.7618415658803372,-0.16105523284527257,0.6896166575983116,2.6130312288367508,2.379751087709453
0.7536267225751896,-0.15849375854003978,0.6846630619382184,2.6154233501916107,2.3879659310146018
0.7454393378492057,-0.15594084610779424,0.6797260239522684,2.6178074757453156,2.3961533157405848
0.7372797151121024,-0.15339659015486784,0.6748057265981873,2.62018351714647,2.404312938477688
0.7291481577735941,-0.15086108528759135,0.6699023528337,2.622551386043681,2.412444495816197
0.7210449692433945,-0.1483344261122964,0.6650160856165326,2.6249109940855537,2.420547684346396
0.7129704529312177,-0.14581670723531426,0.6601471079044094,2.627262252920694,2.4286222006585727
0.7049249122467796,-0.1433080232629761,0.6552956026550567,2.629605074197709,2.4366677413430113
0.6969086505997928,-0.14080846880161368,0.6504617528261991,2.6319393695652042,2.4446840029899977
0.6889219713999744,-0.13831813845755825,0.6456457413755625,2.6342650506717855,2.4526706821898165
0.6809651780570376,-0.13583712683714078,0.6408477512608723,2.6365820291660587,2.4606274755327533
0.6730385739806959,-0.13336552854669292,0.6360679654398529,2.63889021669663,2.468554079609095
0.6651424625806648,-0.13090343819254624,0.6313065668702307,2.6411895249121056,2.4764501910091252
0.6572771472666599,-0.1284509503810315,0.6265637385097302,2.643479865461091,2.4843155063231306
0.6494429314483945,-0.12600815971848056,0.6218396633160779,2.6457611499921927,2.4921497221413964
0.6416401185355829,-0.12357516081122477,0.6171345242469983,2.6480332901540167,2.4999525350542076
0.6338690119379407,-0.12115204826559522,0.6124485042602168,2.6502961975951687,2.5077236416518502
0.6261299150651807,-0.11873891668792325,0.6077817863134578,2.652549783964255,2.5154627385246098
0.6184231313270199,-0.11633586068454038,0.603134553364449,2.654793960909881,2.523169522262771
0.6107489641331707,-0.11394297486177796,0.5985069883709135,2.657028640080654,2.53084368945662
0.6031077168933487,-0.11156035382596763,0.5938992742905786,2.659253733125179,2.5384849366964413
0.5954996930172678,-0.10918809218343994,0.5893115940811677,2.661469151692062,2.546092960572522
0.5879251959146434,-0.1068262845405269,0.5847441307004071,2.663674807429909,2.5536674576751466
0.580384528995189,-0.10447502550355958,0.5801970671060224,2.6658706119873274,2.561208124594601
0.5728779956686196,-0.10213440967886944,0.5756705862557379,2.6680564770129216,2.5687146579211704
0.5654058993446509,-0.09980453167278791,0.5711648711072801,2.6702323141552977,2.57618675424514
0.5579685434329953,-0.0974854860916462,0.5666801046183745,2.672398035063061,2.5836241101567947
0.5505662313433692,-0.09517736754177575,0.5622164697467453,2.6745535513848204,2.5910264222464208
0.5431992664854857,-0.09288027062950777,0.5577741494501183,2.6766987747691795,2.5983933871043043
0.5358679522690601,-0.09059428996117391,0.5533533266862183,2.678833616864745,2.60572470132073
0.528572592103806,-0.08831952014310507,0.5489541844127721,2.680957989320123,2.613020061485984
0.5213134893994398,-0.08605605578163322,0.5445769055875038,2.683071803783919,2.6202791641903502
0.5140909475656747,-0.08380399148308904,0.5402216731681395,2.6851749719047393,2.6275017060241153
0.5069052700122261,-0.08156342185380439,0.5358886701124042,2.6872674053311902,2.6346873835775644
0.4997567601488071,-0.07933444150011026,0.5315780793780225,2.689349015711877,2.6418358934409842
0.4926457213851321,-0.07711714502833844,0.5272900839227208,2.691419714695407,2.648946932204658
0.48557245713091746,-0.0749116270448198,0.5230248667042241,2.6934794139303855,2.656020196458873
0.47853727079587705,-0.07271798215588599,0.5187826106802582,2.6955280250654177,2.6630553827939134
0.4715404657897251,-0.070536304967868,0.5145634988085472,2.6975654597491108,2.6700521878000654
0.46458234552217625,-0.06836669008709773,0.5103677140468175,2.69959162963007,2.677010308067614
0.45766321340294525,-0.06620923211990648,0.5061954393527948,2.7016064463569016,2.6839294401868448
0.4507833728417463,-0.06406402567262548,0.5020468576842034,2.7036098215782114,2.690809280748044
0.4439431272482932,-0.06193116535158538,0.49792215199876866,2.7056016669426066,2.6976495263414972
0.4371427800323011,-0.05981074576311851,0.4938215052542161,2.7075818940986918,2.7044498735574893
0.43038263460348647,-0.05770286151355575,0.489745100408272,2.7095504146950735,2.711210018986304
0.42366299437155996,-0.05560760720922864,0.48569312041866053,2.711507140380358,2.7179296592182305
0.4169841627462403,-0.05352507745646873,0.48166574824310815,2.7134519828031505,2.7246084908435493
0.41034644313723945,-0.05145536686160679,0.47766316683933896,2.7153848536120577,2.731246210452551
0.40375013895427214,-0.049398570030974365,0.47368555916507904,2.717305664455685,2.7378425146355183
0.39719555360705305,-0.047354781570903226,0.46973310817805314,2.719214326982639,2.7443970999827374
0.39068299050529687,-0.04532409608772403,0.4658059968359871,2.721110752841527,2.7509096630844936
0.38421275305871916,-0.04330660818776888,0.4619044080966066,2.7229948536809516,2.7573799005310713
0.37778514467703284,-0.041302412477368655,0.4580285249176361,2.724866541149522,2.763807508912758
0.3714004687699517,-0.03931160356285457,0.45417853025680155,2.7267257268958427,2.770192184819838
0.36505902874719354,-0.03733427605055872,0.4503546070718283,2.72857232256852,2.776533624842597
0.3587611280184708,-0.035370524546811666,0.4465569383204413,2.73040623981616,2.78283152557132
0.35250706999349735,-0.033420443657945054,0.44278570696036623,2.7322273902873686,2.7890855835962935
0.3462971580819896,-0.031484127990290545,0.43904109594932894,2.7340356856307513,2.7952954955078013
0.34013169569365953,-0.029561672150178686,0.43532328824505306,2.7358310374949153,2.801460957896131
0.334010986238225,-0.027653170743942024,0.431632466805266,2.737613357528466,2.807581667351565
0.32793533312539713,-0.02575871837791066,0.4279688145876912,2.739382557380009,2.813657320464393
0.3219050397648928,-0.02387840965841659,0.4243325145500554,2.741138548698151,2.819687613824897
0.31592040956642586,-0.02201233919179124,0.4207237496500833,2.7428812431314973,2.825672244023364
0.30998174593971095,-0.02016060158436561,0.4171427028455008,2.7446105523286546,2.831610907650079
0.3040893522944623,-0.018323291442471357,0.41358955709403267,2.7463263879382285,2.8375033012953277
0.29824353204039467,-0.016500503372439912,0.41006449535340384,2.748028661608825,2.8433491215493953
0.29244458858722266,-0.014692331980602269,0.4065677005813413,2.749717284989051,2.8491480650025673
0.2866928253446597,-0.012898871873289641,0.4030993557355682,2.751392169727511,2.8548998282451303
0.2809885457224235,-0.011120217656834352,0.3996596437738118,2.7530532274728117,2.860604107867367
0.27533205313022435,-0.009356463937566728,0.3962487476537966,2.75470036987356,2.8662606004595657
0.26972365097777873,-0.007607705321818425,0.392866850333248,2.7563335085783605,2.8718690026120113
0.2641636426748035,-0.005874036415921102,0.3895141347698914,2.7579525552358195,2.877429010914987
0.258652331631009,-0.00415555182620575,0.3861907839214518,2.7595574214945433,2.8829403219587815
0.25319002125611156,-0.0024523461590038043,0.3828969807456546,2.7611480190031386,2.8884026323336784
0.2477770149598273,-0.0007645140206467005,0.3796329082002261,2.76272425941021,2.893815638629963
0.24241361615186818,0.0009078499825343478,0.3763987492428904,2.764286054364365,2.899179037437922
0.23710012824195026,0.002564651244207905,0.37319468683137336,2.7658333155142087,2.9044925253478397
0.23183685463978776,0.004205795158042314,0.37002090392340037,2.767365954508347,2.9097557989500022
0.22662409875509537,0.005831187117706804,0.36687758347669686,2.7688838829953863,2.914968554834695
0.2214621639975869,0.007440732516869719,0.3637649084489878,2.7703870126239325,2.9201304895922036
0.21635135377697834,0.009034336749199401,0.360683061797999,2.771875255042591,2.925241299812812
0.2112919715029813,0.010611905208365302,0.3576322264814551,2.77334852189997,2.9303006820868087
0.20628432058531443,0.012173343288035099,0.3546125854570823,2.774806724844672,2.9353083330044756
0.2013287044336889,0.0137185563818778,0.3516243216826056,2.776249775525306,2.9402639491561007
0.19642542645782024,0.015247449883562858,0.34866761811575,2.777677585590477,2.9451672271319693
0.1915747900674245,0.016759929186757727,0.3457426577142413,2.7790900666887906,2.950017863522365
0.1867770986722146,0.018255899685131638,0.34284962343580494,2.7804871304688525,2.954815554917575
0.18203265568190385,0.01973526677235382,0.3399886982381646,2.781868688579271,2.9595599979078857
0.17734176450621097,0.02119793584209151,0.33716006507904916,2.783234652668649,2.9642508890835795
0.1727047285548462,0.022643812288014376,0.3343639069161801,2.7845849343855944,2.9688879250349434
0.168121851237526,0.024072801503790542,0.3316004067072855,2.7859194453787133,2.9734708023522636
0.16359343596396325,0.02548480888308946,0.3288697474100881,2.787238097296611,2.9779992176258263
0.15911978614387579,0.02687973981957903,0.32617211198231644,2.7885408017878945,2.9824728674459138
0.15470120518697605,0.028257499706927813,0.32350768338169456,2.789827470501168,2.9868914484028135
0.1503379965029783,0.02961799393880482,0.3208766445659452,2.791098015085039,2.991254657086812
0.14603046350159676,0.030961127908878838,0.3182791784927983,2.7923523471881126,2.995562190088193
0.14177890959254746,0.03228680701081843,0.31571546811997475,2.7935903784589966,2.999813743997243
0.13758363818554553,0.03359493663829127,0.31318569640520444,2.794812020546294,3.004009015404245
0.13344495269030254,0.03488542218496771,0.3106900463062088,2.796017185098613,3.008147700899488
0.12936315651653452,0.03615816904451541,0.30822870078071496,2.79720578376456,3.012229497073255
0.12533855307395658,0.037413082610603166,0.3058018427864475,2.7983777281927393,3.016254100515834
0.12137144577228298,0.03865006827689932,0.3034096552811323,2.7995329300317575,3.0202212078175075
0.11746213802122707,0.03986903143707288,0.3010523212224956,2.8006713009302215,3.0241305155685634
0.11361093323050575,0.041069877484792405,0.29873002356826106,2.8017927525367363,3.027981720359284
0.10981813480983238,0.04225251181372647,0.29644294527615456,2.8028971964999085,3.031774518779957
0.10608404616892031,0.043416839817544295,0.2941912693039024,2.8039845444683436,3.0355086074208693
0.10240897071748556,0.04456276688991312,0.29197517860922817,2.8050547080906476,3.039183682872304
0.09879321186524237,0.0456901984245035,0.28979485614985867,2.8061075990154274,3.042799441724548
0.09523707302190498,0.04679903981498246,0.28765048488351885,2.8071431288912883,3.0463555805678855
0.09174085759718675,0.047889196455019656,0.28554224776793324,2.8081612093668364,3.049851795992602
0.08830486900080636,0.048960573738283,0.2834703277608286,2.8091617520906773,3.053287784588984
0.08492941064247272,0.050013077058441935,0.28143490781992986,2.810144668711419,3.056663242947317
0.08161478593190452,0.051046611809164366,0.2794361709029607,2.811109870877665,3.059977867657886
0.07836129827881422,0.05206108338411908,0.2774742999676487,2.8120572702380215,3.0632313553109745
0.07516925109291694,0.05305639717697508,0.27554947797171847,2.8129867784410965,3.0664234024968726
0.07203894778392872,0.054032458581401155,0.27366188787289536,2.813898307135493,3.069553705805861
0.06897069176156201,0.05498917299106498,0.2718117126289039,2.8147917679698207,3.0726219618282284
0.06596478643553105,0.05592644579963668,0.26999913519747,2.8156670725926833,3.0756278671542585
0.06302153521555187,0.05684418240078304,0.2682243385363199,2.816524132652687,3.0785711183742377
0.060141241511338706,0.05774228818817462,0.26648750560317724,2.817362859798438,3.081451412078451
0.057324208732606685,0.05862066855547865,0.2647888193557688,2.8181831656785423,3.0842684448571838
0.05457074028906739,0.05947922889636459,0.2631284627518191,2.818984961941606,3.087021913300722
0.05188113959043861,0.060317874604500554,0.26150661874905357,2.8197681602362348,3.08971151399935
0.049255710046434587,0.061136511073555555,0.259923470305198,2.8205326722110353,3.092336943543356
0.04669475506676868,0.06193504369719838,0.2583792003779779,2.8212784095146137,3.094897898523021
0.044198578061155125,0.06271337786909736,0.25687399192511773,2.8220052837955745,3.0973940755286353
0.04176748243930817,0.06347141898292108,0.25540802790434247,2.8227132067025256,3.0998251711504805
0.039401771610944714,0.06420907243233809,0.25398149127337977,2.8234020898840715,3.102190881978844
0.037101748985778116,0.06492624361101784,0.2525945649899519,2.8240718449888194,3.1044909046040132
0.03486771797352173,0.0656228379126278,0.251247432011787,2.8247223836653745,3.1067249356162687
0.03269998198389068,0.06629876073083762,0.24994027529660912,2.8253536175623433,3.108892671605898
0.03059884442660188,0.06695391745931523,0.24867327780214366,2.825965458328331,3.1109938091631895
0.0285646087113669,0.06758821349172917,0.24744662248611604,2.826557817611944,3.1130280448784244
0.026597578247900877,0.06820155422174934,0.2462604923062508,2.8271306070617888,3.1149950753418887
0.02469805644591805,0.06879384504304342,0.24511507022027423,2.8276837383264724,3.1168945971438733
0.022866346715132657,0.06936499134927998,0.24401053918591176,2.828217123054598,3.118726306874656
0.02110275246526161,0.0699148985341278,0.24294708216088834,2.8287306728947734,3.120489901124527
0.01940757710601826,0.07044347199125589,0.2419248821029294,2.8292242994956047,3.1221850764837713
0.017781124047116847,0.07095061711433281,0.2409441219697599,2.8296979145056973,3.1238115295426727
0.016223696698272505,0.07143623929702647,0.2400049847191057,2.830151429573657,3.125368956891519
0.014735598469196809,0.07190024393300609,0.23910765330869177,2.830584756348091,3.1268570551205928
0.013317132769608442,0.07234253641594046,0.23825231069624442,2.8309978064776047,3.128275520820183
0.011968603009218981,0.07276302213949815,0.23743913983948817,2.831390491610803,3.1296240505805706
0.010690312597744445,0.07316160649734771,0.23666832369614754,2.8317627233962943,3.130902340992045
0.009482564944898186,0.07353819488315794,0.23594004522394885,2.8321144134826826,3.1321100886448914
0.008345663460398,0.07389269269059673,0.23525448738061838,2.8324454735185745,3.1332469901293916
0.007279911553955465,0.07422500531333354,0.2346118331238798,2.8327558151525754,3.134312742035834
0.0062856126352839325,0.07453503814503715,0.23401226541145936,2.833045350033293,3.1353070409545056
0.00536307011410031,0.07482269657937546,0.23345596720108164,2.833313989809332,3.1362295834756893
0.0045125874001197275,0.07508788601001792,0.23294312145047336,2.833561646129298,3.13708006618967
0.00373446790305465,0.0753305118306331,0.23247391111735816,2.833788230641799,3.137858185686735
0.0030290150326210963,0.07555047943488868,0.23204851915946278,2.8339936549954388,3.1385636385571694
0.0023965321985315313,0.07574769421645366,0.23166712853451132,2.8341778308388244,3.139196121391259
0.0018373228105019734,0.07592206156899795,0.23132992220023008,2.834340669820561,3.139755330779286
0.0013516902782484408,0.07607348688618853,0.231037083114344,2.8344820835892564,3.140240963311542
0.0009399380114825107,0.07620187556169489,0.23078879423457854,2.8346019837935152,3.140652715578307
0.0006023694199210894,0.07630713298918601,0.23058523851865997,2.8347002820819442,3.1409902841698694
0.00033928791327664243,0.07638916456232958,0.2304265989243115,2.8347768901031483,3.141253365676512
0.00015099690126607612,0.07644787567479439,0.2303130584092603,2.834831719505735,3.1414416566885244
3.7799793601855924e-05,0.0764831717202501,0.23024479993123004,2.834864681938309,3.1415548537961886
0.0,0.07649495809236417,0.23022200644794832,2.8348756890494764,3.1415926535897905
