oscarkremer/mentor-optimization/notebooks/traject_2/polinomy/angles_pol.csv
theta1,theta2,theta3,theta4,theta5
3.7295952571373574,-0.7943678438589166,1.973043134264813,1.9629173631838936,3.2059965904706873
3.729559832416605,-0.7943730093092398,1.9730358656100895,1.9629297973000617,3.205986365603162
3.729453747818071,-0.7943884780190037,1.9730140985417304,1.9629670331114895,3.205955745715598
3.7292772876873395,-0.7944142085263998,1.9729778914034524,1.9630289708125621,3.2059048128805094
3.729030736369996,-0.7944501593696193,1.9729273025389724,1.963115510597665,3.2058336491704122
3.7287143782116248,-0.7944962890868535,1.9728623902920075,1.9632265526611836,3.2057423366578215
3.7283284975578104,-0.7945525562162942,1.9727832130062741,1.9633619971975027,3.205630957415252
3.7278733787541376,-0.7946189192961324,1.9726898290254893,1.963521744401008,3.2054995935152193
3.7273493061461904,-0.7946953368645597,1.97258229669337,1.9637056944660847,3.2053483270302388
3.726756564079554,-0.7947817674597673,1.9724606743536328,1.9639137475871178,3.205177240032825
3.7260954368998136,-0.7948781696199467,1.9723250203499945,1.9641458039584927,3.2049864145954943
3.7253662089525528,-0.7949845018832893,1.9721753930261725,1.9644017637745947,3.2047759327907617
3.724569164583357,-0.7951007227879865,1.9720118507258833,1.9646815272298093,3.2045458766911423
3.72370458813781,-0.7952267908722296,1.9718344517928432,1.9649849945185216,3.2042963283691503
3.722772763961497,-0.79536266467421,1.97164325457077,1.9653120658351166,3.2040273698973025
3.721773976400003,-0.7955083027321191,1.97143831740338,1.9656626413739802,3.2037390833481134
3.7207085097989117,-0.7956636635841484,1.9712196986343902,1.9660366213294969,3.203431550794098
3.719576648503808,-0.7958287057684891,1.9709874566075174,1.9664339058960525,3.203104854307772
3.718378676860277,-0.7960033878233328,1.9707416496664782,1.9668543952680324,3.202759075961651
3.7171148792139035,-0.7961876682868706,1.97048233615499,1.9672979896398213,3.2023942978282496
3.715785539910272,-0.7963815056972942,1.970209574416769,1.9677645892058049,3.202010601980083
3.714390943294966,-0.7965848585927947,1.9699234227955325,1.9682540941603683,3.201608070489667
3.712931373713572,-0.7967976855115636,1.9696239396349973,1.968766404697897,3.2011867854295164
3.7114071155116726,-0.7970199449917924,1.96931118327888,1.969301421012776,3.2007468288721466
3.7098184530348535,-0.7972515955716724,1.9689852120708975,1.9698590432993908,3.2002882828900727
3.7081656706287,-0.7974925957893948,1.968646084354767,1.9704391717521264,3.1998112295558108
3.7064490526387956,-0.7977429041831513,1.968293858474205,1.9710417065653685,3.199315750941875
3.7046688834107253,-0.7980024792911331,1.9679285927729284,1.9716665479335016,3.1988019291207803
3.702825447290074,-0.7982712796515316,1.9675503455946541,1.972313596050912,3.198269846165043
3.700919028622426,-0.7985492638025383,1.967159175283099,1.972982751111984,3.197719584147179
3.698949911753367,-0.7988363902823444,1.9667551401819796,1.9736739133111036,3.1971512251397014
3.696918381028479,-0.7991326176291413,1.966338298635013,1.9743869828426557,3.1965648512151272
3.69482472079335,-0.7994379043811206,1.9659087089859164,1.9751218599010254,3.1959605444459704
3.692669215393562,-0.7997522090764736,1.9654664295784061,1.9758784446805988,3.195338386904748
3.6904521491747007,-0.8000754902533916,1.965011518756199,1.9766566373757601,3.1946984606639734
3.688173806482351,-0.800407706450066,1.964544034863012,1.9774563381808954,3.194040847796163
3.6858344716620968,-0.8007488162046882,1.9640640362425625,1.9782774472903895,3.193365630373831
3.6834344290595236,-0.8010987780554497,1.9635715812385666,1.979119864898628,3.192672890469493
3.680973963020215,-0.8014575505405417,1.9630667281947412,1.9799834911999958,3.1919627101556656
3.6784533578897562,-0.8018250921981556,1.9625495354548035,1.9808682263888786,3.1912351715048626
3.6758728980137323,-0.8022013615664829,1.9620200613624703,1.9817739706596613,3.1904903565895997
3.673232867737727,-0.802586317183715,1.9614783642614584,1.982700624206729,3.189728347482392
3.670533551407326,-0.8029799175880431,1.9609245024954842,1.983648087224468,3.1889492262557546
3.667775233368113,-0.8033821213176588,1.9603585344082652,1.9846162599072623,3.188153074982203
3.6649581979656727,-0.8037928869107533,1.959780518343518,1.985605042449498,3.1873399757342527
3.66208272954559,-0.8042121729055183,1.9591905126449594,1.98661433504556,3.186510010584419
3.65914911245345,-0.8046399378401448,1.958588575656306,1.987644037889834,3.185663261605216
3.6561576310348367,-0.8050761402528244,1.9579747657212752,1.9886940511767044,3.18479981086916
3.6531085696353345,-0.8055207386817484,1.9573491411835835,1.9897642751005573,3.1839197404487662
3.650002212600529,-0.8059736916651081,1.9567117603869477,1.9908546098557778,3.18302313241655
3.646838844276004,-0.8064349577410952,1.9560626816750848,1.991964955636751,3.182110068845026
3.643618749007344,-0.8069044954479008,1.9554019633917117,1.9930952126378623,3.18118063180671
3.6403422111401347,-0.8073822633237164,1.9547296638805447,1.9942452810534967,3.180234903374117
3.63700951501996,-0.8078682199067334,1.9540458414853015,1.99541506107804,3.179272965619762
3.6336209449924044,-0.8083623237351432,1.9533505545496983,1.996604452905877,3.1782949006161605
3.630176785403053,-0.808864533347137,1.9526438614174522,1.9978133567313932,3.1773007904358277
3.6266773205974894,-0.8093748072809064,1.95192582043228,1.999041672748974,3.1762907171512795
3.6231228349212996,-0.8098931040746427,1.9511964899378984,2.000289301153004,3.17526476283503
3.619513612720068,-0.8104193822665372,1.9504559282780245,2.0015561421378694,3.1742230095595954
3.615849938339378,-0.8109536003947815,1.949704193796375,2.0028420958979547,3.1731655393974907
3.612132096124816,-0.8114957169975668,1.9489413448366668,2.004147062627646,3.1720924344212302
3.6083603704219653,-0.8120456906130846,1.9481674397426167,2.0054709425213275,3.171003776703331
3.604535045576411,-0.8126034797795262,1.9473825368579414,2.0068136357733852,3.1698996483163064
3.6006564059337376,-0.8131690430350831,1.9465866945263584,2.0081750425782046,3.1687801313326736
3.5967247358395302,-0.8137423389179465,1.9457799710915835,2.00955506313017,3.1676453078249462
3.592740319639373,-0.8143233259663079,1.9449624248973345,2.010953597623668,3.16649525986564
3.5887034416788506,-0.8149119627183586,1.9441341142873274,2.0123705462530825,3.16533006952727
3.5846143863035476,-0.8155082077122902,1.9432950976052796,2.0138058092128,3.1641498188823527
3.580473437859049,-0.8161120194862939,1.942445433194908,2.015259286697205,3.1629545900034017
3.576280880690939,-0.8167233565785611,1.941585179399929,2.0167308789006824,3.1617444649629327
3.572036999144803,-0.8173421775272832,1.9407143945640601,2.0182204860176185,3.1605195258334624
3.5677420775662245,-0.8179684408706516,1.9398331370310173,2.019728008242398,3.1592798546875036
3.563396400300789,-0.8186021051468578,1.9389414651445183,2.0212533457694066,3.1580255335975735
3.5590002516940804,-0.819243128894093,1.9380394372482794,2.022796398793029,3.1567566446361868
3.5545539160916846,-0.8198914706505487,1.9371271116860176,2.0243570675076508,3.1554732698758583
3.550057677839185,-0.8205470889544162,1.9362045468014495,2.025935252107657,3.1541754913891036
3.5455118212821666,-0.8212099423438869,1.9352718009382923,2.027530852787433,3.1528633912484376
3.540916630766214,-0.8218799893571522,1.934328932440263,2.029143769741365,3.151537051526376
3.5362723906369125,-0.8225571885324037,1.9333759996510778,2.0307739031638365,3.150196554295434
3.531579385239846,-0.8232414984078323,1.932413060914454,2.032421153249234,3.148841981628127
3.526837898920599,-0.8239328775216298,1.9314401745741083,2.0340854201919423,3.14747341559697
3.5220482160247566,-0.8246312844119876,1.9304573989737577,2.035766604186347,3.1460909382744777
3.5172106208979033,-0.8253366776170968,1.9294647924571189,2.037464605426833,3.1446946317331665
3.5123253978856237,-0.826049015675149,1.9284624133679087,2.039179324107786,3.143284578045551
3.5073928313335023,-0.8267682571243353,1.927450320049844,2.040910660423591,3.141860859284146
3.5024132055871244,-0.8274943605028475,1.9264285708466418,2.042658514568634,3.140423557521468
3.4973868049920736,-0.8282272843488768,1.9253972241020187,2.0444227867372984,3.1389727548300312
3.492313913893935,-0.8289669872006145,1.9243563381596918,2.0462033771239714,3.1375085332823507
3.4871948166382936,-0.8297134275962521,1.9233059713633776,2.0480001859230375,3.1360309749509425
3.4820297975707337,-0.830466564073981,1.922246182056793,2.0498131133288817,3.1345401619083217
3.47681914103684,-0.8312263551719923,1.9211770285836554,2.05164205953589,3.1330361762270034
3.471563131382197,-0.8319927594284778,1.920098569287681,2.0534869247384466,3.131519099979503
3.466262052952389,-0.8327657353816287,1.919010862512587,2.055347609130938,3.1299890152383347
3.4609161900930014,-0.8335452415696364,1.91791396660209,2.0572240129077493,3.1284460040760154
3.4555258271496183,-0.8343312365306922,1.9168079398999067,2.059116036263265,3.1268901485650593
3.450091248467825,-0.8351236788029874,1.9156928407497544,2.06102357939187,3.1253215307779825
3.444612738393205,-0.8359225269247138,1.91456872749535,2.062946542487951,3.1237402327872994
3.439090581271344,-0.8367277394340624,1.91343565848041,2.064884825745893,3.1221463366655255
3.433525061447826,-0.8375392748692247,1.912293692048651,2.0668383293600807,3.120539924485176
3.427916463268236,-0.8383570917683922,1.9111428865437905,2.068806953524899,3.1189210783187664
3.4222650710781584,-0.8391811486697561,1.9099833003095448,2.0707905984347343,3.1172898802388116
3.4165711692231784,-0.840011404111508,1.908814991689631,2.0727891642839706,3.1156464123178274
3.4108350420488796,-0.8408478166318389,1.907638019027766,2.0748025512669948,3.113990756628328
3.4050569739008476,-0.8416903447689407,1.9064524406676666,2.0768306595781905,3.11232299524283
3.399237249124666,-0.8425389470610043,1.9052583149530495,2.0788733894119438,3.1106432102338477
3.3933761520659207,-0.8433935820462215,1.9040557002276315,2.0809306409626402,3.1089514836738967
3.3874739670701954,-0.8442542082627833,1.9028446548351299,2.0830023144246645,3.107247897635492
3.3815309784830756,-0.8451207842488814,1.901625237119261,2.0850883099924022,3.105532534191149
3.3755474706501447,-0.8459932685427072,1.900397505423742,2.0871885278602385,3.1038054754133837
3.369523727916988,-0.8468716196824517,1.8991615180922894,2.0893028682225587,3.1020668033747096
3.3634600346291905,-0.8477557962063067,1.8979173334686203,2.0914312312737477,3.1003166001476434
3.3573566751323365,-0.8486457566524633,1.8966650098964517,2.0935735172081915,3.0985549478047
3.3512139337720104,-0.8495414595591131,1.8954046057195002,2.095729626220275,3.0967819284183946
3.3450320948937975,-0.8504428634644474,1.8941361792814828,2.0978994585043833,3.094997624061243
3.338811442843281,-0.8513499269066576,1.892859788926116,2.1000829142549025,3.0932021168057595
3.3325522619660473,-0.852262608423935,1.8915754929971167,2.1022798936662164,3.0913954887244595
3.32625483660768,-0.853180866554471,1.8902833498382021,2.1044902969327115,3.089577821889858
3.319919451113764,-0.8541046598364571,1.888983417793089,2.106714024248772,3.0877491983744716
3.313546389829884,-0.8550339468080846,1.8876757552054941,2.108950975808785,3.0859097002508142
3.3071359371016245,-0.8559686860075449,1.886360420419134,2.1112010518071336,3.084059409591402
3.3006883772745703,-0.8569088359730296,1.8850374717777263,2.1134641524382043,3.0821984084687495
3.2942039946943056,-0.8578543552427297,1.8837069676249867,2.1157401778963822,3.080326778955372
3.287683073706416,-0.8588052023548367,1.882368966304633,2.1180290283760526,3.0784446031237853
3.2811258986564846,-0.8597613358475421,1.8810235261603818,2.120330604071601,3.076551963046504
3.2745327538900977,-0.8607227142590372,1.8796707055359496,2.122644805177412,3.074648940796044
3.267903923752839,-0.8616892961275135,1.8783105627750536,2.124971531887871,3.0727356184449195
3.2612396925902933,-0.8626610399911623,1.876943156221411,2.127310684397364,3.0708120780656474
3.2545403447480448,-0.8636379043881749,1.8755685442187375,2.129662162900276,3.068878401730742
3.2478061645716787,-0.8646198478567428,1.874186785110751,2.1320258675909916,3.0669346715127177
3.24103743640678,-0.8656068289350575,1.872797937241168,2.134401698663897,3.064980969484091
3.234234444598932,-0.86659880616131,1.8714020589537053,2.1367895563133765,3.063017377717377
3.227397473493721,-0.8675957380736922,1.8699992085920798,2.1391893407338163,3.0610439782850904
3.2205268074367304,-0.8685975832103952,1.8685894445000082,2.1416009521196004,3.059060853259747
3.2136227307735457,-0.8696043001096102,1.8671728250212076,2.144024290665116,3.057068084713862
3.2066855278497504,-0.8706158473095289,1.8657494084993946,2.1464592565647465,3.0550657547199505
3.1997154830109302,-0.8716321833483425,1.8643192532782864,2.1489057500128785,3.0530539453505274
3.192712880602669,-0.8726532667642426,1.8628824177015992,2.151363671203897,3.051032738678108
3.185678004970552,-0.8736790560954203,1.8614389601130503,2.1538329203321864,3.049002216775208
3.1786111404601636,-0.8747095098800672,1.8599889388563569,2.1563133975921325,3.0469624617143434
3.1715125714170886,-0.8757445866563748,1.858532412275235,2.158805003178121,3.0449135555680273
3.1643825821869114,-0.8767842449625339,1.857069438713402,2.161307637284537,3.042855580408777
3.1572214571152166,-0.8778284433367366,1.8556000765145744,2.1638212001057657,3.040788618309106
3.150029480547589,-0.8788771403171739,1.8541243840224697,2.166345591836192,3.0387127513415315
3.142806936829613,-0.8799302944420372,1.8526424195808038,2.168880712670201,3.036628061578567
3.135554110306874,-0.880987864249518,1.8511542415332944,2.171426462802179,3.0345346310927286
3.1282712853249555,-0.8820498082778077,1.8496599082236578,2.173982742426511,3.0324325419565312
3.1209587462294426,-0.8831160850650974,1.8481594779956114,2.176549451737581,3.0303218762424904
3.1136167773659205,-0.8841866531495788,1.8466530091928712,2.1791264909297765,3.028202716023122
3.1062456630799726,-0.8852614710694433,1.8451405601591548,2.1817137601974808,3.0260751433709396
3.098845687717185,-0.886340497362882,1.8436221892381786,2.18431115973508,3.0239392403584597
3.0914171356231415,-0.8874236905680866,1.8420979547736598,2.1869185897369587,3.0217950890581977
3.083960291143427,-0.8885110092232483,1.8405679151093148,2.1895359503975036,3.0196427715426677
3.0764754386236257,-0.8896024118665585,1.839032128588861,2.1921631419110987,3.017482369884386
3.0689628624093226,-0.8906978570362086,1.8374906535560147,2.1948000644721297,3.015313966155867
3.061422846846102,-0.8917973032703901,1.8359435483544928,2.197446618274982,3.0131376424296272
3.0538556762795497,-0.8929007091072942,1.8343908713280126,2.200102703514041,3.010953480778181
3.0462616350552483,-0.8940080330851125,1.8328326808202906,2.202768220383691,3.008761563274043
3.038641007518784,-0.895119233742036,1.8312690351750438,2.2054430690783184,3.00656197198973
3.030994078015741,-0.8962342696162564,1.829699992735989,2.208127149792308,3.0043547889977567
3.0233211308917043,-0.8973530992459652,1.828125611846843,2.210820362720045,3.0021400963706375
3.015622450492258,-0.8984756811693535,1.8265459508513224,2.2135226080559156,2.999917976180888
3.0078983211629864,-0.8996019739246128,1.8249610680931443,2.2162337859943033,2.9976885105010243
3.000149027249476,-0.9007319360499345,1.8233710219160257,2.2189537967295943,2.9954517814035606
2.992374853097308,-0.9018655260835101,1.821775870663683,2.221682540456175,2.9932078709610126
2.984576083052071,-0.9030027025635307,1.8201756726798337,2.2244199173684285,2.990956861245896
2.976753001459347,-0.9041434240281879,1.818570486308194,2.2271658276607416,2.9886988343307253
2.9689058926647207,-0.9052876490156728,1.8169603698924812,2.229920171527499,2.986433872288016
2.9610350410137785,-0.9064353360641774,1.8153453817764118,2.232682849163086,2.984162057190283
2.9531407308521036,-0.9075864437118925,1.813725580303703,2.2354537607618883,2.981883471110043
2.9452232465252806,-0.9087409304970097,1.8121010238180713,2.238232806518291,2.979598196119809
2.9372828723788946,-0.9098987549577202,1.8104717706632334,2.241019886626679,2.977306314292098
2.9293198927585307,-0.9110598756322158,1.8088378791829067,2.2438149012814375,2.9750079076994247
2.9213345920097726,-0.9122242510586875,1.8071994077208078,2.2466177506769527,2.972703058414304
2.9133272544782054,-0.9133918397753269,1.8055564146206535,2.2494283350076083,2.970391848509252
2.9052981645094134,-0.9145626003203252,1.8039089582261605,2.2522465544677917,2.9680743600567836
2.897247606448982,-0.9157364912318741,1.8022570968810459,2.255072309251886,2.9657506751294136
2.8891758646424943,-0.9169134710481646,1.8006008889290266,2.2579054995542776,2.9634208757996574
2.881083223435537,-0.9180934983073883,1.7989403927138192,2.260746025569352,2.9610850441400305
2.872969967173694,-0.9192765315477367,1.7972756665791405,2.2635937874914944,2.958743262223048
2.864836380202549,-0.9204625293074008,1.7956067688687074,2.2664486855150896,2.956395612121225
2.856682746867687,-0.9216514501245723,1.7939337579262369,2.2693106198345228,2.9540421759070767
2.8485093515146933,-0.9228432525374425,1.792256692095446,2.2721794906441795,2.951683035653119
2.840316478489152,-0.9240378950842029,1.790575629720051,2.275055198138445,2.949318273431867
2.8321044121366477,-0.9252353363030448,1.7888906291437692,2.277937642511705,2.9469479713158355
2.8238734368027654,-0.9264355347321593,1.7872017487103173,2.2808267239583433,2.9445722113775394
2.8156238368330895,-0.9276384489097382,1.785509046763412,2.2837223426727475,2.942191075689495
2.807355896573205,-0.9288440373739728,1.7838125816467703,2.286624398849301,2.939804646324217
2.7990699003686954,-0.9300522586630544,1.7821124117041092,2.2895327926823894,2.93741300535422
2.790766132565147,-0.9312630713151744,1.7804085952791453,2.292447424366399,2.935016234852021
2.7824448775081434,-0.9324764338685241,1.7787011907155954,2.2953681940957136,2.9326144168901336
2.774106419543269,-0.9336923048612952,1.7769902563571764,2.2982950020647195,2.9302076335410736
2.7657510430161087,-0.9349106428316787,1.7752758505476054,2.301227748467802,2.9277959668773565
2.757379032272248,-0.9361314063178661,1.773558031630599,2.304166333499345,2.925379498971497
2.74899067165727,-0.9373545538580489,1.7718368579498742,2.3071106573537357,2.9229583118960107
2.7405862455167607,-0.9385800439904184,1.7701123878491476,2.310060620225358,2.920532487723413
2.732166038196304,-0.939807835253166,1.768384679672136,2.313016122308598,2.918102108526219
2.723730334041485,-0.9410378861844831,1.7666537917625567,2.315977063797841,2.9156672563769437
2.715279417397888,-0.9422701553225612,1.764919782464126,2.318943344887471,2.9132280133481028
2.706813572611097,-0.9435046012055913,1.763182710120561,2.3219148657718747,2.910784461512211
2.698333084026698,-0.9447411823717653,1.761442633075579,2.3248915266454366,2.9083366829417843
2.6898382359902753,-0.945979857359274,1.759699609672896,2.3278732277025425,2.905884759709337
2.6813293128474123,-0.9472205847063094,1.7579536982562292,2.3308598691375773,2.903428773887385
2.672806598943695,-0.9484633229510626,1.7562049571692957,2.333851351144926,2.900968807548444
2.6642703786247077,-0.949708030631725,1.754453444755812,2.3368475739189747,2.8985049427650287
2.6557209362360346,-0.950954666286488,1.752699219359495,2.339848437654108,2.8960372616096532
2.6471585561232605,-0.9522031884535429,1.7509423393240617,2.3428538425447116,2.893565846154835
2.6385835226319703,-0.953453555671081,1.7491828629932287,2.3458636887851703,2.891090778473087
2.629996120107749,-0.9547057264772938,1.7474208487107135,2.3488778765698695,2.8886121406369267
2.62139663289618,-0.955959659410373,1.7456563548202322,2.3518963060931948,2.886130014718868
2.6127853453428487,-0.9572153130085097,1.7438894396655016,2.3549188775495313,2.8836444827914267
2.6041625417933396,-0.9584726458098951,1.742120161590239,2.3579454911332642,2.8811556269271175
2.5955285065932383,-0.9597316163527208,1.7403485789381612,2.360976047038779,2.878663529198456
2.586883524088128,-0.9609921831751781,1.738574750052985,2.3640104454604605,2.8761682716779573
2.578227878623594,-0.9622543048154587,1.7367987332784267,2.367048586592695,2.8736699364381364
2.5695618545452206,-0.9635179398117535,1.7350205869582038,2.3700903706298657,2.8711686055515098
2.5608857361985926,-0.964783046702254,1.733240369436033,2.3731356977663602,2.8686643610905915
2.552199807929295,-0.9660495840251521,1.7314581390556312,2.3761844681965627,2.8661572851278967
2.543504354082912,-0.9673175103186384,1.729673954160715,2.3792365821148582,2.863647459735941
2.534799659005029,-0.9685867841209048,1.7278878730950014,2.3822919397156324,2.8611349669872403
2.526086007041229,-0.9698573639701425,1.726099954202207,2.385350441193271,2.8586198889543093
2.5173636825370984,-0.9711292084045431,1.7243102558260492,2.3884119867421583,2.856102307709663
2.508632969838221,-0.9724022759622979,1.7225188363102444,2.3914764765566803,2.8535823053258165
2.4998941532901813,-0.9736765251815981,1.7207257539985095,2.394543810831222,2.851059963875286
2.4911475172385638,-0.9749519146006351,1.7189310672345615,2.3976138897601684,2.8485353654305854
2.482393346028954,-0.9762284027576004,1.7171348343621171,2.4006866135379052,2.8460085920642313
2.473631924006936,-0.9775059481906854,1.7153371137248934,2.4037618823588174,2.843479725848738
2.4648635355180946,-0.9787845094380816,1.7135379636666066,2.406839596417291,2.8409488488566215
2.4560884649080137,-0.9800640450379802,1.711737442530974,2.40991965590771,2.8384160431603958
2.4473069965222782,-0.9813445135285724,1.7099356086617126,2.4130019610244604,2.8358813908325775
2.4385194147064744,-0.9826258734480501,1.7081325204025393,2.4160864119619276,2.8333449739456817
2.4297260038061848,-0.9839080833346041,1.70632823609717,2.4191729089144967,2.830806874572223
2.4209270481669947,-0.9851911017264262,1.704522814089323,2.4222613520765535,2.8282671747847172
2.412122832134489,-0.9864748871617077,1.702716312722714,2.4253516416424823,2.825725956655679
2.403313640054253,-0.9877593981786401,1.7009087903410605,2.4284436778066687,2.823183302257624
2.3944997562718693,-0.9890445933154144,1.6991003052880789,2.4315373607634982,2.820639293663067
2.385681465132924,-0.9903304311102223,1.697290915907486,2.434632590707356,2.818094012944524
2.3768590509830023,-0.9916168701012551,1.6954806805429994,2.4377292678326272,2.81554754217451
2.368032798167688,-0.9929038688267043,1.693669657538335,2.4408272923336973,2.8129999634255403
2.3592029910325647,-0.9941913858247611,1.6918579052372102,2.4439265644049515,2.8104513587701296
2.3503699139232186,-0.995479379633617,1.6900454819833417,2.4470269842407752,2.8079018102807933
2.3415338511852344,-0.9967678087914633,1.688232446120446,2.4501284520355533,2.8053514000300472
2.332695087164195,-0.9980566318364915,1.6864188559922408,2.4532308679836716,2.8028002100904064
2.323853906205687,-0.9993458073068929,1.684604769942442,2.456334132279515,2.800248322534386
2.315010592655294,-1.000635293740859,1.682790246314767,2.4594381451174687,2.7976958194345007
2.3061654308586013,-1.0019250496765808,1.6809753434529329,2.462542806691918,2.795142782863267
2.2973187051611927,-1.0032150336522503,1.6791601197006558,2.465648017197249,2.7925892948931987
2.288470699908653,-1.0045052042060585,1.6773446334016529,2.4687536768278457,2.790035437596812
2.2796216994465683,-1.0057955198761965,1.6755289428996412,2.4718596857780937,2.7874812930466226
2.270771988120521,-1.0070859392008564,1.6737131065383373,2.474965944242379,2.7849269433151447
2.2619218502760963,-1.0083764207182293,1.671897182661458,2.4780723524150865,2.7823724704748933
2.25307157025888,-1.0096669229665063,1.6700812296127205,2.4811788104906007,2.779817956598385
2.2442214324144563,-1.0109574044838792,1.6682653057358414,2.484285218663308,2.777263483758134
2.2353717210884088,-1.0122478238085388,1.6664494693745375,2.487391477127593,2.7747091340266556
2.226522720626323,-1.013538139478677,1.6646337788725256,2.4904974860778415,2.772154989476466
2.217674715373784,-1.0148283100324853,1.6628182925735226,2.493603145708438,2.769601132180079
2.208827989676376,-1.0161182940081548,1.6610030688212458,2.4967083562137686,2.7670476442100114
2.199982827879683,-1.0174080499438767,1.6591881659594114,2.499813017788218,2.7644946076387775
2.19113951432929,-1.0186975363778428,1.6573736423317362,2.502917030626172,2.7619421045388926
2.182298333370782,-1.019986711848244,1.6555595562819378,2.506020294922015,2.7593902169828723
2.173459569349743,-1.021275534893272,1.6537459661537324,2.5091227108701335,2.7568390270432315
2.1646235066117585,-1.0225639640511186,1.651932930290837,2.512224178664912,2.754288616792485
2.1557904295024124,-1.0238519578599743,1.6501205070369682,2.5153245985007358,2.751739068303149
2.1469606223672897,-1.0251394748580311,1.6483087547358437,2.5184238705719895,2.7491904636477384
2.138134369551975,-1.0264264735834803,1.6464977317311793,2.5215218950730596,2.746642884898768
2.1293119554020525,-1.027712912574513,1.6446874963666924,2.5246185721983307,2.7440964141287543
2.1204936642631074,-1.0289987503693212,1.6428781069860998,2.5277138021421885,2.741551133410211
2.1116797804807246,-1.0302839455060955,1.641069621933118,2.5308074850990185,2.7390071248156547
2.1028705884004877,-1.0315684565230276,1.6392620995514644,2.5338995212632045,2.7364644704175998
2.094066372367982,-1.0328522419583093,1.6374555981848555,2.5369898108291333,2.7339232522885615
2.0852674167287923,-1.0341352603501313,1.6356501761770084,2.54007825399119,2.7313835525010557
2.0764740058285027,-1.0354174702366854,1.6338458918716392,2.5431647509437587,2.728845453127597
2.067686424012698,-1.0366988301561633,1.6320428036124657,2.5462492018812264,2.7263090362407003
2.058904955626963,-1.0379792986467555,1.6302409697432043,2.549331506997977,2.723774383912882
2.0501298850168825,-1.0392588342466538,1.6284404486075719,2.5524115664883964,2.721241578216657
2.041361496528041,-1.04053739549405,1.6266412985492853,2.5554892805468694,2.7187107012245404
2.032600074506023,-1.0418149409271351,1.6248435779120614,2.5585645493677815,2.7161818350090474
2.023845903296413,-1.0430914290841005,1.623047345039617,2.561637273145519,2.713655061642693
2.0150992672447963,-1.0443668185031374,1.621252658275669,2.5647073520744654,2.7111304631979927
2.0063604506967563,-1.0456410677224377,1.619459575963934,2.5677746863490065,2.7086081217474622
1.9976297379978787,-1.046914135280192,1.6176681564481292,2.5708391761635285,2.7060881193636153
1.9889074134937479,-1.048185979714593,1.6158784580719716,2.573900721712416,2.7035705381189694
1.9801937615299483,-1.0494565595638305,1.614090539179177,2.5769592231900544,2.701055460086038
1.9714890664520648,-1.050725833366097,1.6123044581134638,2.5800145807908286,2.698542967337337
1.9627936126056815,-1.0519937596595836,1.6105202732185473,2.5830666947091245,2.6960331419453816
1.9541076843363843,-1.0532602969824814,1.6087380428381455,2.5861154651393266,2.693526065982687
1.945431565989757,-1.054525403872982,1.6069578253159749,2.589160792275821,2.691021821521769
1.9367655419113834,-1.055789038869277,1.605179678995752,2.5922025763129923,2.688520490635142
1.9281098964468486,-1.0570511605095574,1.6034036622211938,2.5952407174452263,2.6860221553953214
1.9194649139417383,-1.0583117273320148,1.6016298333360173,2.598275115866908,2.6835268978748226
1.9108308787416368,-1.0595706978748405,1.5998582506839394,2.6013056717724226,2.6810348001461612
1.902208075192128,-1.0608280306762259,1.5980889726086769,2.604332285356156,2.678545944281852
1.8935967876387974,-1.0620836842743626,1.5963220574539465,2.607354856812492,2.6760604123544103
1.8849973004272287,-1.0633376172074414,1.594557563563465,2.6103732863358173,2.673578286436352
1.8764098979030064,-1.0645897880136546,1.5927955492809494,2.6133874741205165,2.6710996486001912
1.8678348644117164,-1.0658401552311927,1.5910360729501165,2.616397320360975,2.6686245809184443
1.859272484298943,-1.0670886773982475,1.5892791929146832,2.619402725251579,2.666153165463626
1.8507230419102694,-1.0683353130530104,1.5875249675183662,2.622403588986712,2.6636854843082505
1.8421868215912822,-1.0695800207336728,1.5857734551048828,2.6253998117607606,2.661221619524835
1.8336641076875642,-1.070822758978426,1.584024714017949,2.62839129376811,2.6587616531858935
1.8251551845447023,-1.0720634863254612,1.5822788026012824,2.6313779352031443,2.656305667363942
1.8166603365082785,-1.07330216131297,1.5805357791985994,2.63435963626025,2.6538537441314944
1.8081798479238793,-1.0745387424791444,1.578795702153617,2.6373362971338126,2.6514059655610676
1.799714003137089,-1.0757731883621744,1.5770586298100522,2.640307818018216,2.648962413725176
1.7912630864934918,-1.0770054575002523,1.5753246205116218,2.6432740991078463,2.646523170696335
1.7828273823386729,-1.0782355084315696,1.5735937326020424,2.646235040597089,2.64408831854706
1.7744071750182158,-1.0794632996943172,1.5718660244250309,2.649190542680329,2.641657939349866
1.7660027488777066,-1.0806887898266866,1.5701415543243042,2.652140505551951,2.6392321151772684
1.7576143882627293,-1.0819119373668693,1.5684203806435792,2.6550848294063414,2.636810928101782
1.7492423775188677,-1.083132700853057,1.5667025617265726,2.6580234144378854,2.6343944601959226
1.740887000991708,-1.0843510388234405,1.5649881559170016,2.6609561608409678,2.631982793532205
1.7325485430268341,-1.0855669098162113,1.5632772215585828,2.663882968809973,2.6295760101831456
1.72422728796983,-1.0867802723695612,1.561569816995033,2.6668037385392886,2.627174192221258
1.7159235201662812,-1.0879910850216812,1.559866000570069,2.6697183702232974,2.6247774217190587
1.707637523961772,-1.0891993063107628,1.558165830627408,2.6726267640563863,2.6223857807490623
1.6993695837018872,-1.0904048947749971,1.556469365510766,2.6755288202329397,2.6199993513837843
1.691119983732211,-1.0916078089525763,1.5547766635638611,2.678424438947343,2.6176182156957393
1.6828890083983294,-1.0928080073816908,1.553087783130409,2.681313520393982,2.6152424557574436
1.6746769420458252,-1.0940054486005326,1.5514027825541272,2.684195964767242,2.612872153641412
1.6664840690202838,-1.095200091147293,1.5497217201787326,2.6870716722615073,2.6105073914201595
1.6583106736672903,-1.096391893560163,1.5480446543479411,2.6899405430711645,2.6081482511662024
1.6501570403324282,-1.097580814377335,1.5463716434054708,2.6928024773905976,2.6057948149520542
1.6420234533612836,-1.098766812136999,1.5447027456950382,2.695657375414193,2.6034471648502313
1.6339101970994392,-1.099949845377347,1.5430380195603592,2.6985051373363347,2.6011053829332487
1.6258175558924821,-1.101129872636571,1.5413775233451517,2.7013456633514092,2.5987695512736217
1.6177458140859955,-1.1023068524528616,1.5397213153931322,2.7041788536538007,2.596439751943866
1.6096952560255635,-1.1034807433644103,1.5380694540480178,2.7070046084378956,2.5941160670164956
1.601666166056771,-1.1046515039094087,1.536421997653525,2.7098228278980785,2.5917985785640267
1.5936588285252042,-1.105819092626048,1.5347790045533705,2.712633412228734,2.5894873686589746
1.5856735277764462,-1.1069834680525197,1.5331405330912717,2.7154362616242493,2.587182519373854
1.577710548156082,-1.1081445887270152,1.5315066416109446,2.7182312762790084,2.5848841127811806
1.5697701740096959,-1.1093024131877258,1.529877388456107,2.7210183563873964,2.5825922309534697
1.5618526896828735,-1.110456899972843,1.5282528319704753,2.7237974021437985,2.580306955963237
1.5539583795211986,-1.1116080076205583,1.5266330304977664,2.7265683137426007,2.578028369882996
1.546087527870256,-1.1127556946690627,1.525018042381697,2.729330991378188,2.575756554785263
1.5382404190756305,-1.1138999196565478,1.5234079259659843,2.7320853352449452,2.573491592742554
1.5304173374829064,-1.1150406411212048,1.5218027395943448,2.7348312455372583,2.5712335658273835
1.5226185674376684,-1.1161778176012254,1.5202025416104952,2.7375686224495124,2.5689825561122666
1.5148443932855018,-1.117311407634801,1.5186073903581527,2.7402973661760925,2.566738645669718
1.50709509937199,-1.1184413697601225,1.5170173441810342,2.743017376911384,2.564501916572255
1.4993709700427187,-1.119567662515382,1.515432461422856,2.745728554849772,2.5622724508923906
1.4916722896432721,-1.1206902444387705,1.5138528004273355,2.748430800185642,2.5600503307026417
1.4839993425192353,-1.121809074068479,1.5122784195381895,2.7511240131133787,2.557835638075523
1.4763524130161925,-1.1229241099426996,1.5107093770991347,2.7538080938273684,2.555628455083549
1.4687317854797284,-1.1240353105996232,1.5091457314538874,2.7564829425219957,2.5534288637992355
1.4611377442554274,-1.1251426345774416,1.5075875409461656,2.759148459391646,2.551236946295098
1.453570573688874,-1.1262460404143457,1.5060348639196852,2.761804544630705,2.5490527846436515
1.4460305581256538,-1.1273454866485269,1.5044877587181638,2.7644510984335575,2.5468764609174115
1.4385179819113507,-1.1284409318181772,1.5029462836853176,2.767088020994588,2.544708057188893
1.4310331293915497,-1.1295323344614872,1.5014104971648634,2.7697152125081836,2.5425476555306115
1.4235762849118352,-1.130619653116649,1.4998804575005185,2.772332573168728,2.5403953380150814
1.4161477328177914,-1.1317028463218535,1.4983562230359997,2.774940003170607,2.5382511867148194
1.4087477574550036,-1.1327818726152923,1.4968378521150236,2.7775374027082065,2.5361152837023395
1.4013766431690557,-1.1338566905351566,1.495325403081307,2.780124671975911,2.533987711050157
1.3940346743055345,-1.1349272586196382,1.4938189342785673,2.782701711168106,2.5318685508307883
1.3867221352100212,-1.135993535406928,1.4923185040505202,2.785268420479176,2.5297578851167475
1.3794393102281033,-1.1370554794352177,1.490824170740884,2.787824700103508,2.5276557959805506
1.3721864837053634,-1.1381130492426985,1.4893359926933742,2.790370450235486,2.525562365494712
1.3649639399873883,-1.1391662033675616,1.4878540282517088,2.792905571069495,2.5234776757317476
1.357771963419761,-1.1402149003479989,1.4863783357596037,2.7954299627999215,2.521401808764173
1.3506108383480653,-1.1412590987222018,1.4849089735607766,2.7979435256211502,2.5193348466645022
1.343480849117888,-1.142298757028361,1.4834459999989433,2.800446159727566,2.5172768715052514
1.3363822800748135,-1.1433338338046686,1.4819894734178216,2.8029377653135548,2.515227965358936
1.3293154155644245,-1.1443642875893154,1.4805394521611277,2.8054182425735004,2.5131882102980705
1.3222805399323074,-1.145390076920493,1.4790959945725792,2.8078874917017904,2.511157688395171
1.3152779375240473,-1.1464111603363931,1.477659158995892,2.8103454128928083,2.5091364817227517
1.3083078926852258,-1.1474274963752067,1.4762290037747836,2.8127919063409403,2.5071246723533287
1.3013706897614314,-1.1484390435751255,1.4748055872529708,2.8152268722405713,2.505122342359417
1.2944666130982458,-1.1494457604743404,1.47338896777417,2.8176502107860864,2.5031295738135313
1.2875959470412557,-1.1504476056110433,1.4719792036820984,2.820061822171871,2.5011464487881883
1.2807589759360445,-1.1514445375234255,1.470576353320473,2.8224616065923103,2.499173049355902
1.2739559841281967,-1.152436514749678,1.4691804750330102,2.8248494642417903,2.4972094575891877
1.2671872559632975,-1.1534234958279928,1.4677916271634273,2.8272252953146952,2.495255755560561
1.2604530757869323,-1.1544054392965608,1.4664098680554405,2.829589000005411,2.4933120253425374
1.2537537279446833,-1.1553823036935733,1.4650352560527673,2.8319404785083226,2.4913783490076318
1.247089496782137,-1.156354047557222,1.4636678494991244,2.8342796310178158,2.489454808628359
1.240460666644879,-1.1573206294256984,1.4623077067382289,2.8366063577282747,2.4875414862772356
1.2338675218784916,-1.1582820078371936,1.4609548861137966,2.838920558834086,2.485638464026775
1.227310346828561,-1.159238141329899,1.4596094459695452,2.8412221345296342,2.483745823949494
1.220789425840671,-1.160188988442006,1.4582714446491916,2.8435109850093045,2.481863648117907
1.2143050432604063,-1.1611345077117061,1.4569409404964522,2.8457870104674825,2.4799920186045297
1.2078574834333526,-1.1620746576771905,1.455617991855044,2.8480501110985537,2.4781310174818776
1.201447030705093,-1.1630093968766508,1.4543026570686843,2.8503001870969022,2.476280726822465
1.195073969421212,-1.1639386838482784,1.4529949944810892,2.8525371386569143,2.474441228698807
1.188738583927297,-1.1648624771302647,1.451695062435976,2.8547608659729757,2.4726126051834205
1.182441158568929,-1.1657807352608007,1.4504029192770616,2.8569712692394704,2.4707949383488197
1.1761819776916953,-1.166693416778078,1.4491186233480624,2.859168248650785,2.4689883102675196
1.1699613256411792,-1.1676004802202882,1.4478422329926957,2.8613517044013035,2.4671928030120363
1.1637794867629667,-1.1685018841256223,1.446573806554678,2.863521536685412,2.465408498654884
1.1576367454026406,-1.1693975870322721,1.4453134023777265,2.8656776456974953,2.4636354792685786
1.1515333859057861,-1.170287547478429,1.4440610788055577,2.8678199316319386,2.4618738269256353
1.1454696926179881,-1.171171724002284,1.4428168941818889,2.8699482946831285,2.460123623698569
1.1394459498848324,-1.1720500751420284,1.4415809068504364,2.8720626350454483,2.4583849516598955
1.1334624420519015,-1.1729225594358543,1.4403531751549172,2.874162852913285,2.45665789288213
1.1275194534647812,-1.1737891354219523,1.4391337574390484,2.8762488484810222,2.454942529437787
1.121617268469056,-1.1746497616385143,1.4379227120465465,2.8783205219430466,2.4532389433993824
1.1157561714103101,-1.1755043966237313,1.4367200973211287,2.880377773493743,2.4515472168394314
1.1099364466341286,-1.1763529989157953,1.4355259716065116,2.8824205033274968,2.449867431830449
1.1041583784860967,-1.1771955270528967,1.4343403932464123,2.8844486116386925,2.448199670444951
1.0984222513117978,-1.1780319395732275,1.4331634205845472,2.8864619986217166,2.446544014755452
1.0927283494568174,-1.1788621950149796,1.4319951119646335,2.888460564470953,2.444900546834467
1.0870769572667407,-1.1796862519163431,1.430835525730388,2.890444209380788,2.4432693487545127
1.0814683590871512,-1.1805040688155106,1.4296847202255272,2.892412833545606,2.4416505025881032
1.0759028392636325,-1.1813156042506732,1.4285427537937685,2.894366337159794,2.4400440904077536
1.0703806821417716,-1.182120816760022,1.4274096847788282,2.8963046204177356,2.4384501942859798
1.0649021720671517,-1.182919664881748,1.4262855715244238,2.8982275835138163,2.4368688962952967
1.0594675933853583,-1.1837121071540435,1.4251704723742713,2.9001351266424233,2.4353002785082194
1.0540772304419757,-1.184498102115099,1.4240644456720886,2.9020271499979375,2.4337444229972633
1.048731367582588,-1.1852776083031067,1.4229675497615915,2.9039035537747493,2.432201411834944
1.0434302891527798,-1.1860505842562576,1.4218798429864972,2.905764238167241,2.4306713270937763
1.0381742794981372,-1.1868169885127433,1.420801383690523,2.907609103369798,2.429154250846276
1.0329636229642438,-1.1875767796107546,1.4197322302173854,2.9094380495768055,2.4276502651649574
1.0277986038966835,-1.1883299160884835,1.4186724409108007,2.9112509769826493,2.4261594521223366
1.0226795066410408,-1.189076356484121,1.4176220741144865,2.9130477857817163,2.424681893790928
1.0176066155429027,-1.1898160593358587,1.4165811881721595,2.914828376168388,2.423217672243248
1.012580214947853,-1.1905489831818878,1.4155498414275365,2.916592648337054,2.4217668695518113
1.0076005892014739,-1.1912750865604003,1.4145280922243342,2.9183405024820956,2.4203295677891328
1.0026680226493534,-1.1919943280095868,1.4135159989062698,2.9200718387979006,2.418905849027728
0.997782799637073,-1.1927066660676386,1.4125136198170594,2.9217865574788533,2.4174957953401126
0.9929452045102192,-1.193412059272748,1.4115210133004203,2.9234845587193408,2.416099488798801
0.9881555216143774,-1.1941104661631057,1.4105382377000701,2.9251657427137445,2.4147170114763092
0.9834140352951297,-1.1948018452769031,1.4095653513597242,2.9268300096564537,2.413348445445152
0.9787210298980642,-1.195486155152332,1.4086024126231007,2.9284772597418507,2.411993872777845
0.9740767897687617,-1.1961633543275831,1.4076494798339154,2.9301073931643224,2.410653375546903
0.9694815992528087,-1.1968334013408488,1.4067066113358857,2.931720310118253,2.409327035824841
0.9649357426957916,-1.1974962547303194,1.4057738654727288,2.9333159107980302,2.4080149356841756
0.9604395044432916,-1.198151873034187,1.4048513005881609,2.934894095398036,2.406717157197421
0.9559931688408958,-1.1988002147906425,1.4039389750258988,2.936454764112658,2.4054337824370924
0.9515970202341872,-1.1994412385378777,1.4030369471296598,2.937997817136281,2.4041648934757056
0.9472513429687521,-1.2000749028140838,1.4021452752431607,2.9395231546632887,2.402910572385775
0.942956421390174,-1.2007011661574523,1.4012640177101183,2.9410306768880683,2.401670901239817
0.9387125398440377,-1.2013199871061744,1.4003932328742492,2.9425202840050044,2.400445962110346
0.9345199826759272,-1.2019313241984417,1.3995329790792703,2.943991876208483,2.3992358370698774
0.9303790342314278,-1.2025351359724454,1.3986833146688986,2.9454453536928877,2.3980406081909265
0.9262899788561252,-1.203131380966377,1.3978442979868506,2.9468806166526047,2.3968603575460086
0.922253100895603,-1.2037200177184277,1.397015987376844,2.9482975652820196,2.395695167207639
0.918268684695446,-1.2043010047667893,1.3961984411825947,2.949696099775517,2.394545119248333
0.9143370146012386,-1.2048743006496525,1.39539171774782,2.9510761203274822,2.3934102957406056
0.9104583749585657,-1.2054398639052093,1.3945958754162366,2.9524375271323016,2.3922907787569727
0.9066330501130113,-1.205997653071651,1.3938109725315615,2.9537802203843597,2.3911866503699484
0.9028613244101593,-1.2065476266871689,1.3930370674375112,2.9551041002780423,2.3900979926520485
0.8991434821955981,-1.2070897432899539,1.3922742184778034,2.9564090670077317,2.389024887675789
0.8954798078149078,-1.2076239614181983,1.3915224839961535,2.957695020767818,2.3879674175136834
0.891870585613677,-1.208150239610093,1.3907819223362798,2.958961861752683,2.3869256642382486
0.888316099937486,-1.2086685364038292,1.3900525918418984,2.960209490156714,2.3858997099219996
0.8848166351319242,-1.2091788103375984,1.3893345508567263,2.9614378061742936,2.3848896366374515
0.8813724755425718,-1.2096810199495924,1.3886278577244802,2.9626467099998104,2.3838955264571187
0.8779839055150158,-1.210175123778002,1.387932570788877,2.9638361018276473,2.382917461453517
0.8746512093948415,-1.2106610803610192,1.3872487483936333,2.9650058818521905,2.381955523699162
0.8713746715276307,-1.2111388482368346,1.3865764488824666,2.966155950267825,2.3810097952665688
0.8681545762589722,-1.2116083859436404,1.3859157305990935,2.967286207268936,2.380080358228253
0.8649912079344468,-1.2120696520196272,1.3852666518872305,2.9683965530499092,2.379167294656729
0.8618848508996408,-1.2125226050029871,1.3846292710905947,2.9694868878051306,2.3782706866245125
0.8588357895001404,-1.2129672034319112,1.384003646552903,2.970557111728983,2.3773906162041185
0.8558443080815272,-1.2134034058445906,1.3833898366178723,2.9716071250158533,2.376527165468063
0.8529106909893849,-1.2138311707792173,1.3827878996292187,2.9726368278601276,2.37568041648886
0.850035222569304,-1.214250456773982,1.3821978939306603,2.9736461204561895,2.374850451339027
0.8472181871668618,-1.2146612223670767,1.381619877865913,2.9746349029984245,2.374037352091076
0.8444598691276499,-1.2150634260966924,1.3810539097786942,2.975603075681219,2.3732412008175245
0.8417605527972483,-1.2154570265010207,1.38050004801272,2.976550538698959,2.3724620795908873
0.8391205225212439,-1.2158419821182527,1.379958350911708,2.9774771922460257,2.3717000704836795
0.8365400626452195,-1.21621825148658,1.3794288768193748,2.978382936516809,2.3709552555684166
0.8340194575147613,-1.2165857931441937,1.378911684079437,2.979267671705691,2.370227716917613
0.8315589914754518,-1.2169445656292859,1.3784068310356115,2.9801312980070596,2.3695175366037855
0.829158948872879,-1.2172945274800473,1.377914376031616,2.9809737156152982,2.3688247966994482
0.8268196140526247,-1.2176356372346695,1.377434377411166,2.9817948247247923,2.368149579277117
0.824541271360276,-1.2179678534313436,1.3769668935179793,2.982594525529927,2.3674919664093057
0.8223242051414146,-1.2182911346082619,1.3765119826957726,2.9833727182250884,2.3668520401685313
0.8201686997416271,-1.218605439303615,1.376069703288262,2.9841293030046616,2.3662298826273083
0.8180750395064971,-1.2189107260555943,1.3756401136391652,2.984864180063032,2.365625575858152
0.8160435087816102,-1.219206953402391,1.3752232720921989,2.9855772495945834,2.3650392019335778
0.8140743919125493,-1.2194940798821974,1.3748192369910794,2.986268411793704,2.3644708429261003
0.8121679732449021,-1.219772064033204,1.3744280666795243,2.986937566854776,2.3639205809082355
0.8103245371242513,-1.2200408643936025,1.37404981950125,2.987584614972185,2.3633884979524984
0.8085443678961806,-1.2203004395015844,1.3736845537999733,2.9882094563403188,2.3628746761314043
0.8068277499062777,-1.2205507478953406,1.3733323279194114,2.9888119911535607,2.362379197517469
0.805174967500121,-1.2207917481130632,1.3729932002032808,2.989392119606297,2.3619021441832064
0.8035863050233036,-1.2210233986929433,1.3726672289952986,2.989949741892911,2.3614435982011326
0.8020620468214048,-1.221245658173172,1.3723544726391812,2.9904847582077903,2.3610036416437623
0.8006024772400098,-1.2214584850919408,1.3720549894786458,2.990997068745319,2.360582356583612
0.7992078806247038,-1.2216618379874413,1.3717688378574093,2.9914865736998832,2.360179825093196
0.7978785413210723,-1.2218556753978649,1.3714960761191886,2.9919531732658653,2.35979612924503
0.7966147436746978,-1.2220399558614028,1.3712367626077,2.992396767637655,2.359431351111628
0.7954167720311665,-1.2222146379162466,1.370990955666661,2.9928172570096345,2.359085572765507
0.7942849107360646,-1.222379680100587,1.3707587136397883,2.99321454157619,2.358758876279181
0.7932194441349738,-1.2225350409526161,1.3705400948707984,2.9935885215317075,2.3584513437251657
0.7922206565734786,-1.2226806790105256,1.3703351577034084,2.9939390970705704,2.358163057175976
0.7912888323971661,-1.2228165528125061,1.370143960481335,2.994266168387166,2.3578940987041284
0.7904242559516179,-1.222942620896749,1.3699665615482952,2.9945696356758784,2.357644550382137
0.789627211582423,-1.2230588418014463,1.369803019248006,2.994849399131093,2.3574144942825175
0.7888979836351622,-1.2231651740647889,1.3696533919241838,2.9951053589471943,2.3572040124777844
0.7882368564554207,-1.2232615762249681,1.3695177379205457,2.995337415318569,2.3570131870404536
0.7876441143887849,-1.2233480068201756,1.3693961155808085,2.9955454684396026,2.35684210004304
0.7871200417808382,-1.2234244243886032,1.369288583248689,2.9957294185046788,2.3566908335580594
0.7866649229771641,-1.2234907874684413,1.3691951992679041,2.995889165708184,2.356559469658027
0.7862790423233514,-1.223547054597882,1.369116021982171,2.996024610244504,2.3564480904154577
0.7859626841649794,-1.2235931843151162,1.3690511097352058,2.996135652308023,2.3563567779028665
0.7857161328476368,-1.2236291351583357,1.3690005208707259,2.9962221920931253,2.3562856141927693
0.7855396727169053,-1.2236548656657318,1.3689643137324479,2.9962841297941973,2.35623468135768
0.7854335881183694,-1.2236703343754955,1.3689425466640888,2.9963213656056253,2.356204061470116
0.785398163397617,-1.223675499825819,1.3689352780093653,2.996333799721793,2.356193836602592
