oscarkremer/mentor-optimization/notebooks/traject_1/adaptive/angles_0.csv
theta1,theta2,theta3,theta4,theta5
3.1415926535,-0.9030865823619687,2.1246196420553805,1.9200595938963783,8.979318433952318e-11
3.1414201814497065,-0.9031340377085317,2.122225367434578,1.9199575488073597,-3.64000095532037e-05
3.1409051747801833,-0.9032755089664387,2.115270842696219,1.9196526287444704,-0.00014486701328706738
3.140051247713465,-0.9035096539630173,2.104098516526372,1.9191466565139597,-0.00032430097995045604
3.138862014471586,-0.9038351305255947,2.0890508376111083,1.918441454922078,-0.0005736019680854188
3.1373410892765814,-0.9042505964814984,2.070470254636499,1.9175388467750745,-0.0008916700362340052
3.1354920863504856,-0.9047547096580557,2.0486992162886137,1.9164406548791992,-0.001277405242938265
3.133318619915334,-0.905346127882594,2.0240801712535226,1.9151487020407014,-0.0017297076467402465
3.1308243041931605,-0.906023508982441,1.9969555682172968,1.9136648110658312,-0.0022474773061819994
3.1280127534060007,-0.9067855107849235,1.9676678558660066,1.9119908047608383,-0.002829614279805574
3.1248875817758885,-0.9076307911173693,1.936559482885722,1.910128505931972,-0.0034750186261530173
3.1214524035248594,-0.9085580078071056,1.903972897962514,1.9080797373854825,-0.004182590403766382
3.117710832874948,-0.90956581868146,1.8702505497824524,1.905846321927619,-0.0049512296711877145
3.1136664840481894,-0.9106528815677596,1.8357348870316081,1.9034300823646317,-0.005779836486959064
3.1093229712666175,-0.911817854293332,1.8007683583960514,1.90083284150277,-0.006667310909622483
3.1046839087522673,-0.9130593946855043,1.7656934125618529,1.8980564221482836,-0.007612552997720018
3.0997529107271737,-0.9143761605716042,1.7308524982150824,1.8951026471074224,-0.008614462809793718
3.0945335914133727,-0.915766809778959,1.6965880640418107,1.891973339186436,-0.009671940404385636
3.0890295650328965,-0.917230000134896,1.6632425587281083,1.8886703211915739,-0.010783885840037817
3.0832444458077823,-0.9187643894667427,1.6311584309600458,1.8851954159290862,-0.011949199175292314
3.0771818479600634,-0.9203686356018262,1.6006781294236931,1.8815504462052222,-0.013166780468691169
3.070845385711775,-0.9220413963674743,1.572144102805121,1.877737234826232,-0.014435529778776447
3.064238673284952,-0.923781329591014,1.5458987997903995,1.873757604598365,-0.015754347164090177
3.0573653249016286,-0.925587093099773,1.5222846690655998,1.869613378327871,-0.017122132683174425
3.0502289547838406,-0.9274573447210784,1.5016441593167917,1.8653063788209998,-0.01853778639457123
3.042833177153622,-0.9293907422822579,1.4843197192300455,1.8608384288840012,-0.02000020835682265
3.035181606233007,-0.9313859436106385,1.4706537974914322,1.8562113513231244,-0.021508298628470715
3.0272778562440323,-0.933441606533548,1.460988842787022,1.8514269689446197,-0.023060957268057503
3.01912554140873,-0.9355563888783134,1.4556673038028847,1.8464871045547364,-0.024657084334125043
3.0107282759491376,-0.9377289484722623,1.4550316292250913,1.8413935809597242,-0.026295579885215394
3.002089674087288,-0.9399579431427221,1.4594242677397122,1.836148220965833,-0.027975343979870594
2.9932133500452167,-0.9422420307170201,1.4691876680328184,1.8307528473793127,-0.029695276676632704
2.9841029180449583,-0.9445798690224836,1.4816039611108767,1.8252092830064124,-0.03145427803404377
2.9747619923085473,-0.9469701158864402,1.4938800781547021,1.8195193506533822,-0.033251248110645844
2.9651941870580187,-0.949411429136217,1.5060165062689541,1.8136848731264719,-0.03508508696498097
2.955403116515408,-0.9519024665991418,1.518013732558293,1.8077076732319308,-0.036954694655591196
2.9453923949027483,-0.9544418861025415,1.5298722441273793,1.8015895737760093,-0.03885897124101858
2.9351656364420764,-0.9570283454737438,1.5415925280808727,1.7953323975649564,-0.040796816779805165
2.924726455355425,-0.959660502540076,1.5531750715234331,1.788937967405022,-0.042767131330493
2.91407846586483,-0.9623370151288655,1.5646203615597212,1.782408106102456,-0.044768814951624124
2.903225282192327,-0.9650565410674395,1.5759288852943971,1.7757446364635079,-0.0468007677017406
2.892170518559949,-0.9678177381831258,1.5871011298321203,1.7689493812944275,-0.048861889639384495
2.8809177891897315,-0.9706192643032514,1.5981375822775508,1.7620241634014646,-0.050951080823097836
2.869470708303709,-0.9734597772551438,1.60903872973535,1.7549708055908686,-0.05306724131142267
2.8578328901239174,-0.9763379348661303,1.619805059310177,1.7477911306688896,-0.05520927116290103
2.8460079488723897,-0.9792523949635386,1.630437058106692,1.7404869614417768,-0.05737607043607501
2.833999498771162,-0.9822018153746955,1.6409352132295554,1.7330601207157803,-0.05956653918948663
2.821811154042269,-0.9851848539269291,1.651300011783427,1.72551243129715,-0.061779577481677936
2.8094465289077446,-0.9882001684475662,1.661531940872967,1.717845715992135,-0.06401408537119099
2.7969092375896243,-0.9912464167639344,1.671631487602836,1.7100617976069854,-0.06626896291656784
2.7842028943099426,-0.9943222567033612,1.6815991390776934,1.702162498947951,-0.06854311017635056
2.771331113290735,-0.9974263460931738,1.6914353824021995,1.694149642821281,-0.07083542720908112
2.7582975087540347,-1.0005573427606997,1.701140704681015,1.6860250520332254,-0.07314481407330164
2.745105694921878,-1.0037139045332664,1.7107155930187994,1.6777905493900342,-0.07547017082755417
2.731759286016298,-1.0068946892382007,1.7201605345202127,1.6694479576979566,-0.07781039753038074
2.7182618962593317,-1.0100983547028308,1.7294760162899157,1.6609990997632424,-0.08016439424032337
2.7046171398730117,-1.0133235587544835,1.7386625254325676,1.652445798392142,-0.08253106101592417
2.690828631079374,-1.0165689592204863,1.7477205490528296,1.6437898763909042,-0.08490929791572516
2.6768999841004533,-1.0198332139281667,1.7566505742553615,1.635033156565779,-0.08729800499826837
2.662834813158284,-1.023114980704852,1.7654530881448225,1.6261774617230162,-0.0896960823220959
2.6486367324749005,-1.0264129173778698,1.7741285778258735,1.6172246146688654,-0.09210242994574971
2.6343093562723388,-1.0297256817745473,1.7826775304031748,1.6081764382095762,-0.09451594792777195
2.6198562987726324,-1.0330519317222115,1.7911004329813858,1.5990347551513988,-0.0969355363267046
2.605281174197817,-1.0363903250481905,1.799397772665167,1.5898013883005826,-0.09936009520108974
2.5905875967699266,-1.0397395195798111,1.807570036559179,1.580478160463377,-0.10178852460946941
2.575779180710996,-1.0430981731444011,1.8156177117680812,1.5710668944460322,-0.10421972461038567
2.560859540243061,-1.0464649435692877,1.823541285396534,1.5615694130547975,-0.10665259526238058
2.545832289588155,-1.0498384886817984,1.8313412445491974,1.5519875390959228,-0.10908603662399613
2.530701042968314,-1.0532174663092604,1.8390180763307318,1.5423230953756577,-0.11151894875377444
2.515469414605572,-1.056600534279001,1.8465722678457972,1.532577904700252,-0.11395023171025752
2.5001410187219637,-1.0599863504183478,1.8540043061990534,1.5227537898759556,-0.11637878555198743
2.4847194695395243,-1.063373572554628,1.8613146784951609,1.512852573709018,-0.11880351033750625
2.4692083812802883,-1.0667608585151696,1.8685038718387799,1.5028760790056885,-0.12122330612535595
2.4536113681662903,-1.070146866127299,1.87557237333457,1.4928261285722175,-0.12363707297407864
2.4379320444195653,-1.0735302532183442,1.8825206700871917,1.4827045452148544,-0.12604371094221636
2.4221740242621483,-1.0769096776156326,1.889349249201305,1.4725131517398489,-0.12844212008831118
2.4063409219160734,-1.0802837971464911,1.89605859778157,1.4622537709534509,-0.13083120047090513
2.3904363516033764,-1.0836512696382476,1.902649202932647,1.4519282256619095,-0.1332098521485402
2.374463927546091,-1.0870107529182294,1.909121551759196,1.4415383386714749,-0.1355769751797585
2.3584272639662527,-1.0903609048137637,1.9154761313658768,1.4310859327883967,-0.1379314696231021
2.342329975085896,-1.0937003831521779,1.92171342885735,1.4205728308189247,-0.140272235537113
2.3261756751270553,-1.0970278457607996,1.927833931338276,1.4100008555693089,-0.14259817298033328
2.3099679783117657,-1.100341950466956,1.933838125913314,1.399371829845798,-0.14490818201130504
2.293710498862062,-1.1036413550979745,1.9397264996871244,1.388687576454643,-0.1472011626885702
2.277406850999979,-1.1069247174811823,1.9454995397643675,1.3779499182020924,-0.14947601507067093
2.2610606489475513,-1.1101906954439071,1.9511577332497039,1.3671606778943968,-0.15173163921614924
2.244675506926814,-1.1134379468134763,1.9567015672477934,1.3563216783378054,-0.15396693518354712
2.228255039159801,-1.116665129417217,1.9621315288632954,1.345434742338568,-0.15618080303140663
2.2118028598685484,-1.1198709010824568,1.9674481052008705,1.3345016927029345,-0.15837214281826992
2.19532258327509,-1.123053919636523,1.972651783365179,1.3235243522371543,-0.16053985460267894
2.178817823601461,-1.126212842906743,1.977743050460881,1.3125045437474774,-0.16268283844317583
2.1622921950696954,-1.129346328720444,1.9827223935926364,1.3014440900401532,-0.1647999943983025
2.1457493119018287,-1.132453034904954,1.9875902998651056,1.2903448139214315,-0.16689022252660118
2.129192788319896,-1.1355316192875995,1.992347256382948,1.2792085381975624,-0.1689524228866138
2.112626238545931,-1.1385807396957084,1.996993750250825,1.2680370856747953,-0.17098549553688236
2.0960532768019693,-1.1415990539566079,2.0015302685733958,1.2568322791593796,-0.17298834053594908
2.0794775173100453,-1.1445852198976258,2.0059572984553204,1.2455959414575652,-0.17495985794235583
2.0629025742921936,-1.147537895346089,2.0102753270012594,1.2343298953756021,-0.1768989478146448
2.0463320619704493,-1.150455738129325,2.0144848413158725,1.2230359637197399,-0.17880451021135793
2.0297695945668472,-1.1533374060746615,2.01858632850382,1.211715969296228,-0.18067544519103734
2.013218786303422,-1.1561815570094254,2.022580275669762,1.2003717349113165,-0.18251065281222514
1.9966832514022084,-1.1589868487609443,2.026467169918359,1.1890050833712547,-0.18430903313346314
1.9801666040852413,-1.1617519391565456,2.030247498354271,1.1776178374822925,-0.18606948621329364
1.963672458574555,-1.1644754860235567,2.033921748082157,1.16621182005068,-0.18779091211025867
1.9472044290921853,-1.1671561471893048,2.0374904062066785,1.1547888538826663,-0.18947221088290003
1.9307661298601655,-1.1697925804811176,2.0409539598324953,1.1433507617845011,-0.1911122825897601
1.9143611751005314,-1.1723834437263223,2.0443128960642674,1.1318993665624344,-0.19271002728938066
1.8979931790353168,-1.174927394752246,2.047567702006655,1.120436491022716,-0.19426434504030393
1.8816657558865586,-1.1774230913862167,2.0507188647643178,1.1089639579715953,-0.195774135901072
1.865382519876289,-1.1798691914555617,2.0537668714419164,1.0974835902153224,-0.1972382999302267
1.8491470852265444,-1.1822643527876076,2.05671220914411,1.085997210560146,-0.1986557371863102
1.8329630661593588,-1.1846072332096826,2.0595553649755605,1.0745066418123175,-0.20002534772786468
1.8168340768967675,-1.1868964905491137,2.0622968260409267,1.0630137067780852,-0.20134603161343184
1.8007637316608047,-1.1891307826332287,2.0649370794448685,1.0515202282636993,-0.20261668890155415
1.7847556446735053,-1.1913087672893543,2.067476612292047,1.0400280290754091,-0.20383621965077336
1.7688134301569038,-1.1934291023448185,2.0699159116871213,1.0285389320194653,-0.20500352391963172
1.7529407023330363,-1.1954904456269482,2.072255464734752,1.0170547599021162,-0.20611750176667099
1.7371410754239363,-1.1974914549630715,2.0744957585395998,1.005577335529613,-0.20717705325043362
1.7214181636516392,-1.1994307881805149,2.076637280206324,0.9941084817082044,-0.20818107842946132
1.7057755812381787,-1.2013071031066063,2.0786805168395848,0.9826500212441402,-0.20912847736229623
1.6902169424055908,-1.203119057568673,2.0806259555440425,0.9712037769436705,-0.21001815010748054
1.6747458613759096,-1.2048653093940418,2.0824740834243576,0.9597715716130447,-0.21084899672355617
1.6593659523711703,-1.2065445164100415,2.0842253875851897,0.9483552280585125,-0.21161991726906515
1.644080829613407,-1.2081553364439983,2.0858803551311986,0.9369565690863239,-0.21232981180254956
1.6288941073246552,-1.20969642732324,2.0874394731670454,0.9255774175027283,-0.21297758038255155
1.6138093997269494,-1.2111664468750933,2.088903228797389,0.9142195961139754,-0.21356212306761296
1.5988303210423238,-1.2125640529268866,2.090272109126891,0.9028849277263151,-0.21408233991627607
1.583960485492814,-1.2138879033059469,2.0915466012602106,0.8915752351459971,-0.21453713098708282
1.5692035073004547,-1.2151366558396017,2.0927271923020077,0.8802923411792709,-0.21492539633857516
1.5545630006872804,-1.216308968355178,2.093814369356943,0.8690380686323864,-0.21524603602929543
1.540042579875325,-1.2174034986800033,2.094808619529676,0.8578142403115929,-0.21549795011778522
1.5256458590866249,-1.2184189046414051,2.0957104299248672,0.8466226790231405,-0.21568003866258706
1.5113764525432138,-1.2193538440667107,2.096520287647177,0.835465207573279,-0.2157912017222427
1.497237974467127,-1.2202069747832476,2.097238679801265,0.824343648768258,-0.21583033935529428
1.4832340390803984,-1.2209769546183433,2.0978660934917914,0.813259825414327,-0.21579635162028382
1.4693682606050642,-1.221662441399325,2.0984030158234166,0.8022155603177359,-0.21568813857575347
1.455644253263158,-1.22226209295352,2.0988499339008007,0.7912126762847342,-0.21550460028024515
1.4420656312767148,-1.2227745671082557,2.0992073348286038,0.7802529961215718,-0.21524463679230105
1.4286360088677694,-1.2231985216908599,2.0994757057114852,0.7693383426344984,-0.21490714817046308
1.4153590002583574,-1.2235326145286591,2.099655533654106,0.7584705386297635,-0.21449103447327333
1.4022382196705119,-1.2237755034489814,2.0997473057611264,0.7476514069136171,-0.21399519575927384
1.3892772813262686,-1.2239258462791542,2.0997515091372065,0.7368827702923086,-0.21341853208700656
1.3764797994476625,-1.2239823008465047,2.0996686308870056,0.7261664515720883,-0.21275994351501404
1.3638493882567277,-1.2239435249783601,2.099499158115184,0.7155042735592048,-0.21201833010183757
1.3513896619754995,-1.223808176502048,2.0992435779264023,0.7048980590599091,-0.2111925919060198
1.3391042348260134,-1.2235749132448959,2.09890237742532,0.69434963088045,-0.21028162898610248
1.3269967210303022,-1.2232423930342309,2.098476043716598,0.6838608118270776,-0.20928434140062768
1.315070734810402,-1.2228092736973804,2.0979650639048963,0.673433424706041,-0.20819962920813762
1.3033298903883475,-1.222274213061672,2.0973699250948745,0.6630692923235908,-0.20702639246717414
1.2917778019861734,-1.2216358689544329,2.0966911143911933,0.652770237485977,-0.20576353123627944
1.2804180838259138,-1.2208928992029908,2.095929118898512,0.6425380829994474,-0.2044099455739955
1.269254350129604,-1.2200439616346723,2.0950844257214913,0.6323746516702531,-0.2029645355388643
1.2582902151192794,-1.2190877140768057,2.094157521964791,0.622281766304644,-0.20142620118942822
1.247529293016974,-1.218022814356718,2.093148894733072,0.6122612497088691,-0.19979384258422894
1.2369751980447226,-1.2168479203017362,2.0920590311309937,0.6023149246891786,-0.19806635978180853
1.22663154442456,-1.215561689739189,2.090888418263216,0.5924446140518218,-0.1962426528407092
1.216501946378521,-1.2141627804964017,2.0896375432343994,0.5826521406030483,-0.194321621819473
1.2065900181286398,-1.2126498504007035,2.0883068931492055,0.5729393271491088,-0.1923021667766418
1.1968993738969518,-1.2110215572794214,2.0868969551122913,0.563307996496252,-0.19018318777075782
1.1874336279054933,-1.2092765589598815,2.085408216228319,0.5537599714507278,-0.18796358486036313
1.1781963943762963,-1.2074135132694128,2.0838411636019485,0.5442970748187863,-0.18564225810399948
1.1691912875313952,-1.205431078035342,2.082196284337839,0.5349211294066771,-0.18321810756020962
1.1604219215928278,-1.2033279110849964,2.0804740655406517,0.5256339580206493,-0.18069003328753452
1.1518919107826284,-1.2011026702457035,2.078674994315046,0.516437383466954,-0.1780569353445174
1.1436048693228296,-1.198754013344791,2.076799557765683,0.5073332285518388,-0.1753177137896994
1.1355644114354675,-1.196280598209586,2.0748482429972217,0.49832331608155456,-0.17247126868162288
1.1277741513425767,-1.1936810826674156,2.072821537114323,0.4894094688623516,-0.16951650007883
1.1202377032661914,-1.1909541245456075,2.070719927221646,0.48059350970047876,-0.166452308039863
1.1129586814283474,-1.1880983816714894,2.0685439004238524,0.471877261402186,-0.16327759262326336
1.1059407000510793,-1.1851125118723878,2.0662939438256007,0.463262546773723,-0.1599912538875733
1.0991873733564206,-1.1819951729756304,2.0639705445315526,0.4547511886213398,-0.15659219189133544
1.0927023155664077,-1.1787450228085457,2.061574189646366,0.4463450097512851,-0.1530793066930909
1.086489140903074,-1.1753607191984599,2.0591053662747036,0.4380458329698098,-0.14945149835138283
1.080551463588455,-1.1718409199727002,2.056564561521224,0.4298554810831625,-0.14570766692475212
1.074892897844586,-1.1681842829585942,2.0539522624905873,0.42177577689759427,-0.14184671247174163
1.0695170578935005,-1.1643894659834704,2.0512689562874544,0.413808543219353,-0.13786753505089322
1.0644275579572344,-1.1604551268746546,2.0485151300164843,0.40595560285469,-0.13376903472074875
1.0596280122578214,-1.1563799234594756,2.0456912707823376,0.398218778609855,-0.12955011153985052
1.0551220350172974,-1.1521625135652593,2.0427978656896757,0.3905998932910961,-0.12520966556674007
1.050913240457696,-1.1478015550193343,2.039835401843156,0.3831007697046642,-0.12074659685995992
1.0470052428010534,-1.1432957056490274,2.0368043663474418,0.37572323065680924,-0.11615980547805238
1.0434016562694026,-1.1386436232816664,2.0337052463071905,0.36846909895378,-0.11144819147955887
1.0401060950847794,-1.1338439657445776,2.030538528827064,0.36134019740182755,-0.10661065492302169
1.0371221734692186,-1.1288953908650898,2.0273047010117207,0.3543383488071996,-0.10164609586698292
1.034453505644755,-1.1237965564705297,2.0240042499658224,0.34746537597614746,-0.09655341436998488
1.032103705833423,-1.1185461203882245,2.020637662794029,0.3407231017149204,-0.0913315104905692
1.0300763882572572,-1.113142740445502,2.0172054266009996,0.33411334882976784,-0.08597928428727797
1.028375167138293,-1.1075850744696898,2.013708028491396,0.32763794012694025,-0.08049563581865327
1.0270036566985645,-1.1018717802881142,2.010145955569877,0.32129869841268643,-0.07487946514323718
1.0259654711601067,-1.096001515728104,2.006519694941102,0.31509744649325633,-0.06912967231957201
1.025264224744956,-1.0899729386169852,2.0028297337097327,0.30903600717489965,-0.06324515740619963
1.024903531675145,-1.083784706782086,1.999076558980428,0.3031162032638668,-0.05722482046166211
1.0248870061727091,-1.0774354780507334,1.9952606578578487,0.29733985756640635,-0.05106756154450087
1.0252182624596822,-1.0709239102502552,1.9913825174466548,0.29170879288876916,-0.044772280713259116
1.0259009147581004,-1.0642486612079791,1.9874426248515067,0.28622483203720295,-0.038337878026478256
1.0269385772899984,-1.0574083887512318,1.9834414671770642,0.2808897978179603,-0.031763253542700376
1.0283348642774088,-1.0504017507073407,1.9793795315279876,0.2757055130372885,-0.025047307320467116
1.0300933899423708,-1.043227404903633,1.9752573050089366,0.27067380050143885,-0.018188939418321226
1.0322177685069152,-1.0358840091674366,1.971075274724572,0.26579648301666037,-0.011187049894804346
1.0347116141930774,-1.0283702213260784,1.966833927779553,0.26107538338920255,-0.004040538808459004
1.037578541222893,-1.0206846992068863,1.9625337512785412,0.2565123244253149,0.0032516937821733816
1.0408221638183983,-1.0128261006371884,1.958175232326195,0.2521091289312474,0.010690747818550506
1.0444460962016242,-1.0047930834443097,1.953758858027175,0.24786761971325033,0.01827772324213006
1.0484539525946097,-0.9965843054555799,1.949285115486142,0.24378961957757328,0.026013719994370188
1.0525971901916944,-0.9881984244983248,1.944754491807756,0.23987695133046483,0.033899838016729245
1.056612544989803,-0.9796340983998735,1.940167474096676,0.23613143777817625,0.04193717725066448
1.0605007902439392,-0.9708899849875519,1.9355245494575635,0.23255490172695614,0.050126837637634036
1.0642626992091115,-0.961964742088687,1.930826204995078,0.22914916598305446,0.058469919119096714
1.0678990451403192,-0.9528570275306087,1.9260729278138797,0.22591605335272202,0.06696752163650932
1.0714106012925695,-0.9435654991406417,1.9212652050186283,0.2228573866422061,0.07562074513132999
1.0747981409208676,-0.9340888147461142,1.916403523713985,0.219974988657758,0.08443068954501709
1.0780624372802134,-0.924425632174354,1.9114883710046084,0.21727068220562673,0.09339845481902853
1.0812042636256154,-0.9145746092526887,1.9065202339951601,0.21474629009206403,0.10252514089482245
1.0842243932120788,-0.9045344038084457,1.901499599790299,0.21240363512331673,0.11181184771385566
1.0871235992946033,-0.8943036736689511,1.8964269554946869,0.21024454010563742,0.12125967521758785
1.0899026551281958,-0.8838810766615333,1.8913027882129814,0.2082708278452734,0.1308697233474756
1.0925623339678625,-0.8732652706135187,1.8861275850498453,0.2064843211484746,0.14064309204497683
1.0951034090686051,-0.8624549133522366,1.8809018331099354,0.20488684282149228,0.150580881251551
1.0975266536854271,-0.8514486627050131,1.8756260194979164,0.20348021567057462,0.16068419090865427
1.0998328410733356,-0.8402451764991756,1.8703006313184436,0.2022662625019711,0.17095412095774565
1.1020227444873338,-0.8290312957678891,1.864926155676181,0.20124680612193302,0.18139177134028306
1.1040971371824266,-0.8179077410141418,1.8595030796757852,0.2004236693367103,0.19199824199772375
1.1060567924136158,-0.8068741517006808,1.854031890421921,0.1997986749525511,0.20277463287152586
1.10790248343591,-0.7959301672902588,1.8485130750192424,0.19937364577570493,0.21372204390314842
1.1096349835043091,-0.7850754272456193,1.8429471205724164,0.19915040461242217,0.22484157503404845
1.11125506587382,-0.7743095710295149,1.8373345141860964,0.19913077426895276,0.23613432620568342
1.112763503799447,-0.7636322381046927,1.831675742964948,0.19931657755154797,0.24760139735951192
1.114161070536194,-0.7530430679339021,1.8259712940136268,0.19970963726645374,0.2592438884369923
1.1154485393390638,-0.7425416999798921,1.8202216544367973,0.2003117762199218,0.27106289937958183
1.1166266834630656,-0.7321277737054136,1.8144273113391156,0.20112481721820386,0.28305953012873863
1.1176962761631966,-0.7218009285732131,1.8085887518252446,0.2021505830675454,0.2952348806259204
1.118658090694467,-0.7115608040460395,1.8027064629998437,0.20339089657419906,0.3075900508125866
1.119512900311879,-0.7014070395866425,1.7967809319675725,0.20484758054441343,0.3201261406301932
1.1202614782704357,-0.6913392746577711,1.7908126458330909,0.20652245778443978,0.33284425002019846
1.120904597825143,-0.6813571487221743,1.7848020917010599,0.20841735110052495,0.3457454789240608
1.1214430322310065,-0.671460301242602,1.7787497566761399,0.2105340832989211,0.35883092728323884
1.1218775547430262,-0.6616483716818002,1.772656127862989,0.2128744771858777,0.37210169503918955
1.1222089386162104,-0.6519209995025206,1.76652169236627,0.21544035556764385,0.3855588821333713
1.1224379571055627,-0.6422778241675104,1.7603469372906404,0.218233541250469,0.3992035885072416
1.1225653834660871,-0.6327184851395194,1.7541323497407622,0.22125585704060313,0.41303691410225873
1.1225919909527862,-0.6232426218812966,1.7478784168212944,0.22450912574429616,0.42705995885988113
1.1225185528206685,-0.6138498738555918,1.7415856256368982,0.22799517016779802,0.44127382272156623
1.1223458423247323,-0.6045398805251512,1.7352544632922329,0.23171581311735778,0.4556796056287715
1.122074632719987,-0.5953122813527258,1.7288854168919592,0.2356728773992245,0.4702784075229558
1.1217056972614354,-0.5861667158010639,1.7224789735407364,0.23986818581964897,0.485071328345577
1.1212398092040818,-0.5771028233329148,1.7160356203432257,0.24430356118488206,0.5000594680380921
1.1206777418029317,-0.5681202434110266,1.7095558444040864,0.24898082630117013,0.5152439265419604
1.1200202683129847,-0.5592186154981517,1.703040132827979,0.2539018039747658,0.5306258037986384
1.1192681619892528,-0.5503975790570346,1.6964889727195622,0.259068317011919,0.5462061997495851
1.1184221960867333,-0.5416567735504251,1.689902851183499,0.26448218821887615,0.5619862143362586
1.117483143860433,-0.5329958384410731,1.6832822553244464,0.2701452404018907,0.5779669475001161
1.1164517785653598,-0.5244144131917274,1.6766276722470674,0.2760592963672108,0.5941494991826151
1.1153288734565123,-0.5159121372651362,1.6699395890560202,0.2822261789210847,0.6105349693252156
1.1141152017888971,-0.5074886501240529,1.6632184928559652,0.28864771086976493,0.6271244578693733
1.1128115368175204,-0.4991435912312191,1.6564648707515635,0.29532571501949967,0.6439190647565471
1.1114186517973819,-0.4908766000493874,1.649679209847473,0.3022620141765371,0.6609198899281954
1.109937319983493,-0.482687316041307,1.6428619972483565,0.3094584311471298,0.6781280333257755
1.1083683146308525,-0.47457537866972554,1.6360137200588727,0.31691678873752593,0.6955445948907455
1.1067124089944653,-0.4665404273973939,1.6291348653836812,0.32463890975397547,0.7131706745645632
1.104970376329335,-0.4585821016870615,1.6222259203274436,0.33262661700272833,0.7310073722886878
1.1031429898904719,-0.4507000410014743,1.6152873719948189,0.3408817332900336,0.7490557880045752
1.1012310229328732,-0.4428938848033821,1.6083197074904672,0.34940608142213936,0.767317021653684
1.0992352487115458,-0.43516327255553433,1.601323413919049,0.35820148420530007,0.7857921731774735
1.0971564404814957,-0.4275078437206803,1.5942989783852255,0.3672697644457621,0.8044823425173999
1.094995371497724,-0.41992723776157037,1.587246887993654,0.37661274494977537,0.8233886296149224
1.0927528150152384,-0.4124210941409492,1.580167629848998,0.3862322485235907,0.8425121344114985
1.09042954428904,-0.40498905232156934,1.5730616910559145,0.3961300979734581,0.8618539568485857
1.0880263325741382,-0.3976307517661779,1.5659295587190656,0.4063081161056248,0.8814151968676427
1.0855439531255322,-0.3903458319375257,1.5587717199431115,0.4167681257263407,0.901196954410127
1.0829831791982265,-0.38313393229835935,1.5515886618327113,0.42751194964185935,0.9212003294174962
1.0803447840472291,-0.37599469231143035,1.5443808714925251,0.43854141065842533,0.9414264218312094
1.0776295409275396,-0.3689277514394853,1.5371488360272139,0.44985833158229127,0.9618763315927232
1.0748382230941673,-0.3619327491452742,1.529893042541437,0.46146453521970887,0.982551158643497
1.0719716038021128,-0.35500932489154535,1.522613978139855,0.47336184437692275,1.0034520029249867
1.0690304563063835,-0.34815711814104744,1.515312129927128,0.4855520818601864,1.0245799643786526
1.06601555386198,-0.3413757683565317,1.507987985007916,0.49803707047574886,1.0459361429459508
1.0629276697239116,-0.3346649150007457,1.5006420304868793,0.5108186330298592,1.0675216385683401
1.0597675771471762,-0.3280241975364382,1.4932747534686772,0.5238985923287656,1.0893375511872794
1.0565360493867821,-0.32145325542635694,1.485886641057971,0.5372787711787215,1.1113849807442242
1.0532338596977344,-0.3149517281332517,1.4784781803594205,0.5509609923859742,1.1336650271806352
1.049861781335038,-0.30851925511987277,1.4710498584776845,0.5649470787567727,1.1561787904379681
1.0464205875536927,-0.3021554758489673,1.4636021625174247,0.5792388530973698,1.1789273704576817
1.042911051608706,-0.2958600297832872,1.4561355795833002,0.5938381382140117,1.2017911166248791
1.0393339467550828,-0.28963255638557706,1.4486505967799732,0.6087467569129492,1.224482170997613
1.035690046247825,-0.2834726951185882,1.441147701212101,0.6239665320004333,1.2470011577905948
1.0319801233419406,-0.2773800854450681,1.433627379984346,0.6394992862827111,1.2693487012185245
1.0282049512924312,-0.27135436682776715,1.4260901202013663,0.6553468425660354,1.2915254254961144
1.024365303354298,-0.26539517872943463,1.4185364089678243,0.6715110236566559,1.3135319548380644
1.0204619527825511,-0.2595021606128205,1.4109667333883769,0.6879936523608201,1.3353689134590874
1.0164956728321957,-0.25367495194067025,1.4033815805676872,0.7047965514847778,1.3570369255738863
1.01246723675823,-0.24791319217573493,1.395781437610415,0.721921543834779,1.3785366153971719
1.0083774178156624,-0.24221652078076295,1.388166791621218,0.7393704522170745,1.3998686071436466
1.004226989259498,-0.23658457721850312,1.380538129704758,0.7571450994379134,1.4210335250280188
1.0000167243447349,-0.23101700095170363,1.3728959389656974,0.7752473083035456,1.442031993264997
0.9957473963263843,-0.2255134314431173,1.3652407065086902,0.7936789016202193,1.4628646360692872
0.9914197784594507,-0.22007350815548854,1.3575729194384034,0.8124417021941861,1.4835320776555907
0.9870346439989328,-0.21469687055156816,1.3498930648594936,0.8315375328316952,1.5040349422386288
0.9825927661998346,-0.20938315809410413,1.3422016298766208,0.8509682163389973,1.5243738540330893
0.978094918317169,-0.20413201024584593,1.3344991015944454,0.8707355755223416,1.5445494372536959
0.9735418736059356,-0.19894306646954418,1.3267859671176288,0.8908414331879735,1.5645623161151443
0.9689344053211384,-0.1938159662279464,1.3190627135508293,0.9112876121421492,1.584413114832146
0.9642732867177775,-0.1887503489838005,1.311329827998708,0.9320759351911123,1.604102457619407
0.959559291050867,-0.18374585419985734,1.3035877975659247,0.9532082251411191,1.623630968691634
0.9547931915754013,-0.17880212133886242,1.2958371093571395,0.9746863047984151,1.6429992722635345
0.9499757615463889,-0.17391878986356835,1.2880782504770125,0.9965119969692511,1.662207992549813
0.9451077742188385,-0.16909549923672373,1.2803117080302053,1.0186871244598743,1.681257753765176
0.9401900028477459,-0.16433188892107653,1.2725379691213754,1.041213510076541,1.7001491801243347
0.9352232206881208,-0.15962759837937623,1.2647575208551847,1.0640929766254912,1.7188828958419937
0.9302082009949664,-0.15498226707436857,1.2569708503362942,1.0873273469129847,1.737459525132861
0.9251457170232897,-0.15039553446880793,1.2491784446693597,1.1109184437452653,1.755879692211645
0.9200365420280896,-0.14586704002543804,1.2413807909590475,1.134868089928582,1.7741440212930386
0.9148814492643731,-0.14139642320701307,1.2335783763100125,1.1591781082691872,1.792253136591765
0.9096812119871482,-0.13698332347627828,1.2257716878269158,1.1838503215733294,1.8102076623225276
0.9044366034514124,-0.13262738029598298,1.217961212614421,1.2088865526472627,1.8280082227000283
0.8991483969121754,-0.12832823312887753,1.2101474377771861,1.2342886242972284,1.845655441938979
0.8938173656244386,-0.12408552143770835,1.2023308504198695,1.2600583593294825,1.8631499442540842
0.888444282843202,-0.11989888468522603,1.1945119376471318,1.2861975805502723,1.880492353860049
0.8830299218234838,-0.11576796233417896,1.186691186563635,1.3127081107658451,1.8976832949715794
0.877575055820274,-0.1116923938473191,1.1788690842740381,1.3395917727824571,1.914723391803391
0.8720804580885861,-0.10767181868739195,1.1710461178830016,1.3668503894063537,1.9316132685701781
0.8665469018834191,-0.10370587631714678,1.1632227744951846,1.394485783443784,1.9483535494866562
0.8609751604597804,-0.09979420619933199,1.15539954121525,1.4224997777010042,1.9649448587675322
0.8553660070726723,-0.0959364477966993,1.1475769051478544,1.4508941949842562,1.9813878206275057
0.8497202149770979,-0.09213224057199465,1.1397553533976574,1.4796708580997908,1.9976830592812909
0.8440385574280667,-0.08838122398796955,1.1319353730693238,1.5088315898538553,2.0138311989435915
0.838321807680579,-0.08468303750737238,1.1241174512675092,1.5383782130527095,2.0298328638291165
0.8325707389896397,-0.08103732059294888,1.1163020750968768,1.5683125505025988,2.045688678152563
0.8267861246102548,-0.07744371270745143,1.1084897316620852,1.598636425009765,2.0613992661286518
0.8209687377974229,-0.07390185331362709,1.1006809080677948,1.6293516593804664,2.0769652519720827
0.8151193518061577,-0.07041138187422691,1.0928760914186668,1.6604600764209483,2.0923872598975652
0.809238739891458,-0.06697193785199973,1.0850757688193595,1.691963498937465,2.107665914119798
0.8033276753083278,-0.06358316070969039,1.0772804273745336,1.7238637497362639,2.122801838853501
0.7973869313117703,-0.06024468991005216,1.0694905541888473,1.7561626516235904,2.1377956583133697
0.7914172811567957,-0.056956164915831664,1.0617066363669658,1.7888620274057008,2.15264799671412
0.7854194980984017,-0.053717225189779505,1.0539291610135457,1.821963699888844,2.1673594782704493
0.7793943553915943,-0.05052751019464541,1.0461586152332454,1.8554694918792638,2.1819307271970683
0.7733426262913801,-0.04738665939317466,1.0383954861307307,1.8893812261832146,2.1963623677086916
0.767265084052764,-0.044294312248118306,1.030640260810654,1.9237007256069472,2.210655024020011
0.7611625019307482,-0.04125010822222697,1.0228934263776828,1.9584298129567088,2.2248093203457495
0.7550356531803342,-0.038253686778246365,1.0151554699364742,1.9935703110387486,2.238825880900599
0.748885311056533,-0.03530468737892667,1.0074268785916853,2.0291240426593227,2.252705329899271
0.7427122488143469,-0.0324027494870176,0.999708139447983,2.0650928306246694,2.2664482915564825
0.7365172397087729,-0.029547512565268885,0.9919997396100189,2.101478497741045,2.2800553900869236
0.7303010569948274,-0.02673861607642536,0.9843021661824611,2.1382828668147003,2.2935272497053205
0.7240644739275073,-0.023975699483238966,0.9766159062699669,2.175507760651886,2.3068644946263577
0.7178082637618148,-0.02125840224846076,0.9689414469771949,2.2127625087661684,2.320067749064755
0.7115331997527603,-0.018586363834834252,0.9612792754088058,2.2492174109607674,2.333137637235226
0.7052400551553504,-0.015959223705116266,0.953629878669461,2.2848797469337185,2.3460747833524627
0.6989296032245731,-0.013376621322046311,0.9459937438638182,2.3197567963831247,2.3588798116311853
0.6926026172154502,-0.010838196148379442,0.9383713580965396,2.3538558390070747,2.3715533462860856
0.6862598703829788,-0.00834358764686316,0.930763208472285,2.387184154503693,2.384096011531885
0.679902135982168,-0.0058924352802463,0.9231697820957132,2.41974902257099,2.396508431583279
0.6735301872680184,-0.0034843785112763648,0.9155915660714871,2.451557722907019,2.408791230654982
0.6671447974955278,-0.0011190568027075187,0.9080290475042654,2.4826175352098687,2.420945032961691
0.6607467399197171,0.0012038903827176206,0.9004827134987048,2.5129357391777063,2.4329704627181297
0.6543367877955744,0.0034848235822511064,0.8929530511594717,2.542519614508471,2.4448681441389883
0.6479157143781107,0.005724103333135222,0.8854405475912213,2.571376440900373,2.456638701438978
0.6414842929223319,0.007922090172631346,0.8779456898986155,2.5995134980513015,2.468282758832813
0.6350432966832402,0.010079144637980875,0.8704689651863169,2.626938065659502,2.4798009405351937
0.6285934989158362,0.012195627266437636,0.8630108605589797,2.653657423422956,2.491193870760833
0.6221356728751299,0.014271898595261678,0.8555718631212681,2.6796788510397747,2.502462173724428
0.6156705918161292,0.016308319161692175,0.848152459977844,2.705009628208032,2.5136064736406913
0.6091990289938272,0.018305249502989174,0.8407531382333624,2.729657034625774,2.524627394724333
0.6027217576632369,0.020263050156393625,0.8333743849924873,2.7536283499911463,2.53552556119005
0.5962395510793597,0.02218208165916824,0.8260166873598771,2.7769308540021242,2.5463015972525582
0.589753182497196,0.02406270454855397,0.818680532440192,2.7995718263568534,2.5569561271265577
0.5832634251717614,0.025905279361809974,0.811366407338094,2.821558546753316,2.567489775026762
0.5767710523580512,0.027710166636179423,0.8040747991582418,2.842898294889686,2.5779031651678697
0.5702768373110683,0.029477726908922364,0.796806195005292,2.863598350464038,2.5881969217645953
0.5637815532858239,0.031208320717282412,0.7895610819839112,2.8836659931743185,2.5983716690316436
0.5572859735373186,0.03290230859851562,0.782339947198758,2.9031085027188155,2.6084280311837196
0.5507908713205527,0.034560051089867816,0.7751432777544895,2.9219331587953903,2.618366632435528
0.5442970198905392,0.036181908728592393,0.7679715607557673,2.9401472411022596,2.628188097001786
0.5378051925022733,0.0377682420519454,0.7608252833072511,2.9577580293373984,2.6378930490971877
0.531316162410767,0.03931941159717134,0.7537049325136014,2.974772803198917,2.6474821129364523
0.5248307028710224,0.04083577790152182,0.7466109954794771,2.991198842384989,2.656955912734274
0.5183495871380455,0.04231770150225245,0.7395439593095396,3.007043426593519,2.6663150727053626
0.5118735884668348,0.04376554293660995,0.7325043111084524,3.0223138355226595,2.675560217064434
0.5054034801123963,0.04517966274184593,0.7254925379808697,3.037017348870478,2.6846919700261846
0.4989400353297384,0.046560421455215106,0.7185091270314539,3.051161246335056,2.693710955805323
0.4924840273738669,0.047908179613962876,0.7115545653648656,3.0647528076144965,2.702617798616556
0.486036229499776,0.04922329775534795,0.7046293400857655,3.077799312406867,2.7114131226745988
0.47959741496247954,0.050506136416611724,0.6977339382988124,3.0903080404101786,2.720097552194148
0.47316835701697624,0.05175705613501114,0.6908688471086668,3.102286271322498,2.728671711389919
0.4667498289182772,0.05297641744779913,0.6840345536199903,3.113741284842007,2.7371362244766093
0.4603426039213794,0.05416458089222109,0.6772315449374391,3.124680360666673,2.7454917156689387
0.45394745528128677,0.0553219070055353,0.6704603081656781,3.1351107784946777,2.7537388091815975
0.4475651562530123,0.05644875632498225,0.6637213304093637,3.1450398180239176,2.761878129229303
0.4411964800915582,0.057545489387825555,0.6570150987731598,3.1544747589527162,2.7699103000267593
0.43484220005191787,0.05861246673130527,0.65034210036172,3.1634228809789136,2.77783594578867
0.42850308938910686,0.05965004889267789,0.643702822279713,3.1718914638006765,2.785655690729749
0.4221799213581239,0.06065859640919857,0.6370977516317913,3.179887787116158,2.7933701590647004
0.41587346921398094,0.061638469818106945,0.6305273755226208,3.187419130623283,2.8009799750082243
0.40958450621167497,0.06259002965666749,0.6239921810568569,3.1944927740202615,2.808485762775038
0.40331380560621,0.06351363646212116,0.617492655339162,3.201115997005033,2.815888146579848
0.3970621406525954,0.06440965077171956,0.6110292854741974,3.2072960792758494,2.8231877506373495
0.3908302846058298,0.06527843312272097,0.6046025585666222,3.2130403005305794,2.830385199162258
0.38461901072092175,0.06612034405237122,0.5982129617210941,3.21835594046739,2.837481116369287
0.37842909225287436,0.06693574409792147,0.5918609820422782,3.223250278784434,2.8444761264731264
0.37226130245669253,0.067724993796626,0.585547106634829,3.2277305951796222,2.851370853688495
0.3661164145873794,0.06848845368572709,0.5792718226034141,3.2318041693511645,2.8581659222300946
0.3599952018999417,0.06922648430249012,0.5730356170526854,3.235478280997171,2.864861956312641
0.35389843764938256,0.06993944618415382,0.5668389770873041,3.23876020981551,2.871459580150823
0.347826895090698,0.07062769986797202,0.5606823898119373,3.2416572355044053,2.8779594179593584
0.34178134747890887,0.07129160589120387,0.5545663423312392,3.2441766377618535,2.8843620939529595
0.3357625680690077,0.07193152479108544,0.5484913217498679,3.2463256962860783,2.890668232346325
0.3297713301159977,0.07254781710488256,0.542457815172491,3.2481116907749907,2.896878457354167
0.323808406874889,0.0731408433698384,0.536466309703763,3.2495419009267152,2.902993393191185
0.3178745716006901,0.07371096412320721,0.5305172924483452,3.2506236064394045,2.9090136640720905
0.31197059754839174,0.07425853990223619,0.5246112505108984,3.2513640870110407,2.9149398942116003
0.306097257973013,0.07478393124417959,0.5187486709960814,3.25177062233972,2.9207727078243977
0.30025532612954287,0.07528749868628992,0.5129300410085573,3.251850492123552,2.926512729125209
0.2944455752730022,0.07576960276581435,0.5071558476529843,3.251610976060519,2.932160582328729
0.2886687786583799,0.07623060402000625,0.5014265780340219,3.2510593538487456,2.937716891649684
0.2829257095406881,0.07667086298611459,0.49574271925632907,3.2502029051863133,2.943182281302759
0.2772171411749369,0.07709074020139095,0.4901047584245699,3.249048909771332,2.948557375502661
0.27154384681612065,0.07749059620309051,0.4845131826434006,3.2476046473018556,2.953842798464109
0.2659065997192531,0.07787079152845777,0.47896847901748263,3.2458773974758373,2.9590391744018136
0.2603061731393215,0.07823168671475056,0.4734711346514775,3.243874439991586,2.9641471275304703
0.25474334033135015,0.07857364229921515,0.4680216366500449,3.2416030545469,2.9691672820647828
0.24921887455032987,0.07889701881910494,0.4626204721178402,3.239070520840116,2.974100262219464
0.24373354905127087,0.07920217681166797,0.45726812815953277,3.236284118569131,2.9789466922092354
0.23828813708918162,0.07948947681415675,0.4519650918797744,3.2332511274321263,2.98370719624877
0.23288341191905282,0.07975927936382732,0.44671185038322836,3.2299788271270415,2.988382398552803
0.2275201467958965,0.08001194499792508,0.441508890774557,3.2264744973520862,2.9929729233360325
0.22219911497472822,0.08024783425370341,0.43635670015841477,3.2227454178053563,2.99747939481317
0.21692108971053514,0.08046730766841037,0.43125576563946577,3.2187988681847486,3.0019024371989085
0.21168684425833106,0.08067072577929757,0.4262065743223715,3.2146421281884727,3.00624267470797
0.20649715187311557,0.08085844912361928,0.42120961331178997,3.2102824775145393,3.0105007315550445
0.20135278580989002,0.08103083823862534,0.41626536971237904,3.205727195861101,3.014677231954858
0.19625451932366822,0.08118825366157001,0.4113743306288047,3.200983562926112,3.0187728001221092
0.1912031256694533,0.08133105592969425,0.4065369831657213,3.196058858407838,3.0227880602715
0.18619937810224307,0.08145960558025944,0.40175381442779123,3.1909603620041054,3.026723636617744
0.181244049877046,0.08157426315051186,0.3970253115196769,3.1856953534131662,3.030580153375544
0.17633791424886525,0.08167538917770134,0.3923519615460318,3.180271112333031,3.03435823475961
0.17148174447270215,0.08176334419908482,0.3877342516115254,3.1746949184618387,3.038058504984642
0.16667631380356696,0.0818384887519068,0.3831726688208077,3.1689740514975853,3.041681588265348
0.16192239549646104,0.081901183373426,0.3786677002785481,3.163115791138381,3.045228108816451
0.15722076280638753,0.0819517886008807,0.374219833089402,3.157127417082208,3.0486986908526372
0.15257218898835667,0.08199066497153673,0.3698295543580272,3.1510162090272757,3.0520939585886246
0.14797744729736806,0.08201817302263681,0.3654973511890871,3.1447894466715383,3.055414536239123
0.14343731098841772,0.08203467329143344,0.36122371068724135,3.1384544097132903,3.0586610480188234
0.13895255331653011,0.08204052631518,0.3570091199571559,3.1320183778502724,3.061834118142441
0.13452394753668706,0.0820360926311201,0.3528540661034789,3.1254886307808505,3.0649343708246892
0.1301522669039077,0.08202173277651781,0.34875903623087634,3.118872448202964,3.067962430280268
0.12583828467319869,0.0819978072886105,0.3447245174440141,3.1121771098147093,3.070918920723889
0.12158277409955431,0.08196467670465424,0.34075099684754395,3.1054098953140823,3.0738044663702535
0.11738650843797593,0.08192270156190862,0.33683896154612647,3.098578084399321,3.07661969143407
0.11325026094348623,0.08187224239760749,0.33298889864442405,3.091688956768351,3.079365220130052
0.10917480487106879,0.08181365974901933,0.32920129524709907,3.084749792119311,3.0820416766728975
0.10516091347574275,0.08174731415338599,0.32547663845881036,3.0777678701502538,3.0846496852773058
0.10120936001250591,0.08167356614795551,0.321815415384215,3.0707504705593465,3.0871898701579976
0.0973209177363632,0.08159277626999284,0.318218113127978,3.0637048730445002,3.0896628555296832
0.0934963599023142,0.08150530505672826,0.3146852187947564,3.056638357303896,3.092069265607062
0.0897364597653727,0.08141151304543381,0.31121721948920644,3.0495582030355877,3.094409724604837
0.08604199058054363,0.08131176077334601,0.30781460231599755,3.0424716899376847,3.096684856737708
0.08241372560281945,0.08120640877772445,0.3044778543797779,3.0353860977081126,3.0988952862204133
0.0788524380872122,0.08109581759581186,0.30120746278522326,3.0283087060450953,3.101041637267633
0.07535890128872857,0.08098034776486607,0.2980039146369826,3.021246794646757,3.103124534094073
0.07193388846236459,0.08086035982213957,0.2948676970397175,3.014207643210966,3.10514460091445
0.06857817286313228,0.0807362143048751,0.2917992970980876,3.007198531435961,3.1071024619434766
0.06529252774603478,0.08060827175033136,0.28879920191675534,3.0002267390198085,3.108998741395844
0.062077726366077,0.08047689269575997,0.285867898600376,2.9932995456604203,3.110834063486264
0.05893454197825321,0.0803424376784001,0.28300587425362167,2.986424231056091,3.1126090524294394
0.05586374783758785,0.08020526723552113,0.2802136159811379,2.979608074904732,3.1143243324401
0.05286611719906098,0.08006574190436044,0.277491610887596,2.97285835690451,3.1159805277329244
0.049942423317698825,0.07992422222217499,0.2748403460776476,2.9661823567534213,3.1175782625226365
0.04709343944849387,0.07978106872621016,0.27226030865595874,2.9595873541496047,3.1191181610239287
0.04431993884644925,0.07963664195372289,0.2697519857271864,2.9530806287911133,3.120600847451527
0.04162269476657343,0.07949130244196567,0.2673158643959894,2.9466694603760857,3.122026946020119
0.03900248046386956,0.07934541072817769,0.26495243176703376,2.9403611286023903,3.123397080944425
0.036460069193344324,0.07919932734962742,0.26266217494497646,2.9341629131683504,3.124711876439145
0.03399623421000442,0.07905341284355316,0.26044558103447457,2.9280820937718914,3.1259719567189954
0.03161174876884587,0.07890802774720918,0.2583031371401905,2.922125950111152,3.127177945998662
0.029307386124877155,0.07876353259784974,0.2562353303667866,2.9163017618840996,3.128330468492873
0.027083919533099632,0.07862028793272113,0.2542426478189217,2.910616808789001,3.129430148416322
0.024942122248519993,0.0784786542890803,0.25232557660125465,2.9050783705237677,3.1304776099837355
0.02288276752614493,0.07833899220416995,0.2504846038184425,2.8996937267865235,3.131473477409788
0.020906628620981138,0.07820166221524794,0.24872021657515297,2.8944701572753786,3.132418374909202
0.019014478788029976,0.0780670248595623,0.24703290197604133,2.889414941688301,3.1333129266967
0.017207091282285703,0.07793544067436464,0.24542314712577173,2.8845353597234293,3.134157756986971
0.01548523935876922,0.07780727019690925,0.2438914391289959,2.8798386910789304,3.134953489994725
0.013849696272476564,0.0776828739644424,0.24243826509038335,2.875332215452687,3.135700749934669
0.01230123527840199,0.07756261251422014,0.24106411211458578,2.8710232125429798,3.1364001610215073
0.010840629631575283,0.07744684638348698,0.2397694673062709,2.8669189620476345,3.1370523474699574
0.009468652586974713,0.07733593610950251,0.2385548177700958,2.8630267436649888,3.1376579334947134
0.008186077399628289,0.07723024222950414,0.23742065061071926,2.8593538370929537,3.1382175433104873
0.006993677324517833,0.07713012528075947,0.23636745293280192,2.8559075220296677,3.138731801131982
0.005892225616662472,0.07703594580050943,0.23539571184100438,2.852695078173241,3.139201331173913
0.004882495531054687,0.07694806432600654,0.2345059144399908,2.8497237852215562,3.1396267576509977
0.00396526032271538,0.0768668413945024,0.23369854783441113,2.8470009228728657,3.140008704777907
0.0031412932466352572,0.0767926375432495,0.23297409912893663,2.844533770825194,3.140347796769376
0.0024113675578174565,0.0767258133094959,0.23233305542821903,2.842329608776623,3.1406446578400935
0.0017762565112811046,0.07666672923049767,0.23177590383692426,2.840395716425263,3.1408999122047963
0.0012367333620133536,0.07661574584350017,0.23130313145970938,2.8387393734691386,3.1411141840781482
0.0007935713650333298,0.07657322368576303,0.230915225401235,2.8373678596062746,3.1412880976748916
0.000447543775337067,0.07653952329452363,0.23061267276615993,2.836288454534781,3.141422277209733
0.00019942384792237533,0.07651500520704513,0.23039596065914836,2.835508437952825,3.1415173468973503
4.99848378101575e-05,0.0765000299605747,0.23026557618485377,2.8350350895584313,3.1415739309524735
-7.105427357601002e-15,0.07649495809235773,0.23022200644794566,2.8348756890495963,3.1415926535898
