oscarkremer/mentor-optimization/notebooks/traject_1/adaptive/angles_17.csv
theta1,theta2,theta3,theta4,theta5
3.1415926535,-0.9030865823619687,2.1246196420553805,1.9200595938963783,8.979318433952318e-11
3.141502633196184,-0.9030873451631432,2.1176513400537336,1.9200246474602718,-0.00016363083619288582
3.1412333578550022,-0.9030895890888219,2.0991860547402554,1.9199201198273483,-0.0006529709781544838
3.1407860058318575,-0.9030932474222381,2.072883217152138,1.9197464785107032,-0.0014656913820966914
3.14016175548215,-0.9030982534466248,2.0424022583265766,1.9195041910234303,-0.0025994630940245904
3.139361785161281,-0.9031045404452152,2.011402609300763,1.9191937248786246,-0.004051957159943262
3.138387273224653,-0.9031120417012424,1.9835437011118913,1.9188155475893802,-0.005820844625857786
3.1372393980276656,-0.9031206904979394,1.9624849647971543,1.9183701266687923,-0.007903796537773245
3.1359193379257206,-0.9031304201185396,1.9518858313937455,1.9178579296299552,-0.010298483941694723
3.13442827127422,-0.9031411638462759,1.955405731938858,1.9172794239859636,-0.013002577883627301
3.132767376428565,-0.9031528549643815,1.9670982036185933,1.916635077249912,-0.01601374940957606
3.1309378317441565,-0.9031654267560895,1.9786520175837872,1.915925356934895,-0.01932966956554608
3.1289408155763954,-0.9031788125046329,1.9900676437267357,1.9151507305540072,-0.02294800939754243
3.1267775062806833,-0.9031929454932451,2.001345551939736,1.9143116656203432,-0.02686643995157022
3.124449082212422,-0.903207759005159,2.0124862121150833,1.9134086296469974,-0.031082632273634506
3.1219567217270123,-0.9032231863236079,2.0234900941450755,1.912442090147065,-0.035594257409740385
3.1193016031798555,-0.9032391607318248,2.034357667922008,1.9114125146336396,-0.04039898640589293
3.116484904926353,-0.9032556155130428,2.0450894033381775,1.9103203706198169,-0.04549449030809723
3.1135078053219063,-0.903272483950495,2.05568577028588,1.9091661256186905,-0.05087844016235837
3.110371482721916,-0.9032896993274147,2.066147238657412,1.9079502471433556,-0.05654850701468141
3.1070771154817844,-0.9033071949270348,2.0764742783450703,1.9066732027069067,-0.06250236191107145
3.1036258819569116,-0.9033249040325887,2.0866673592411513,1.9053354598224381,-0.06873767589753356
3.1000189605027,-0.9033427599273092,2.096726951237951,1.9039374860030447,-0.07525212002007284
3.0962575294745496,-0.9033606958944297,2.106653524227766,1.9024797487618208,-0.08204336532469433
3.0923427672278634,-0.9033786452171831,2.1164475481028933,1.9009627156118616,-0.08910908285740315
3.0882758521180413,-0.9033965411788027,2.126109492755628,1.8993868540662608,-0.09644694366420441
3.084057962500485,-0.9034143170625216,2.135639828078267,1.8977526316381137,-0.10405461879110313
3.079690276730596,-0.9034319061515728,2.1450390239631076,1.8960605158405146,-0.1119297792841044
3.0751739731637753,-0.9034492417291895,2.1543075503024456,1.8943109741865582,-0.12007009618921335
3.0705102301554246,-0.9034662570786048,2.1634458769885767,1.892504474189339,-0.128473240552435
3.0657002260609447,-0.9034828854830519,2.172454473913798,1.8906414833619516,-0.13713688341977448
3.0607451392357365,-0.9034990602257639,2.181333810970406,1.8887224692174907,-0.14605869583723685
3.055646148035203,-0.9035147145899739,2.190084358050697,1.8867478992690505,-0.15523634885082718
3.0504044308147438,-0.9035297818589147,2.198706585046967,1.884718241029726,-0.16466751350655057
3.0450211659297604,-0.9035441953158202,2.207200961851513,1.8826339620126118,-0.1743498608504121
3.0394975317356545,-0.9035578882439228,2.215567958356631,1.8804955297308024,-0.18428106192841684
3.033834706587828,-0.9035707939264558,2.2238080444546178,1.8783034116973922,-0.1944587877865699
3.0280338688416806,-0.9035828456466526,2.231921690037769,1.876058075425476,-0.2048807094708763
3.022096196852615,-0.903593976687746,2.2399093649983812,1.8737599884281484,-0.2155444980273412
3.016022868976032,-0.9036041203329693,2.2477715392287516,1.8714096182185038,-0.22644782450196965
3.009815063567333,-0.9036132098655556,2.2555086826211763,1.869007432309637,-0.2375883599407667
3.0034739589819184,-0.9036211785687379,2.2631212650679515,1.8665538982146426,-0.2489637753897374
2.997000733575191,-0.9036279597257495,2.270609756461373,1.8640494834466148,-0.26057174189488697
2.990396565702551,-0.9036334866198235,2.277974626693738,1.8614946555186487,-0.2724099305022204
2.9836626337194,-0.9036376925341928,2.2852163456573438,1.8588898819438384,-0.28447601225774277
2.9768001159811392,-0.9036405107520907,2.292335383244484,1.856235630235279,-0.2967676582074592
2.9698101908431704,-0.9036418745567504,2.299332209347458,1.8535323679060647,-0.30928253939737466
2.9626940366608943,-0.9036417172314049,2.3062072938585603,1.8507805624692903,-0.3220183268734944
2.955452831789712,-0.9036399720592874,2.312961106670088,1.8479806814380506,-0.3349726916818233
2.9480877545850257,-0.9036365723236308,2.3195941176743378,1.8451331923254395,-0.3481433048683667
2.9405999834022354,-0.9036314513076686,2.3261067967636047,1.8422385626445523,-0.3615278374791295
2.9329906965967436,-0.9036245422946337,2.3324996138301866,1.8392972599084831,-0.3751239605601168
2.925261072523951,-0.9036157785677593,2.33877303876638,1.8363097516303268,-0.3889293451573337
2.9174122895392585,-0.9036050934102783,2.3449275414644797,1.833276505323178,-0.40294166231678535
2.9094455259980685,-0.9035924201054241,2.3509635918167837,1.8301979885001312,-0.4171585830844766
2.901361960255781,-0.9035776919364297,2.356881659715588,1.8270746686742807,-0.43157777850641293
2.8931627706677987,-0.9035608421865281,2.3626822150531885,1.8239070133587214,-0.4461969196285989
2.8848491355895223,-0.9035418041389527,2.3683657277218817,1.8206954900665477,-0.4610136774970402
2.8764222333763523,-0.9035205110769366,2.3739326676139645,1.8174405663108548,-0.4760257231577413
2.8678832423836913,-0.9034968962837127,2.379383504621733,1.8141427096047364,-0.49123072765670783
2.859233340966939,-0.9034708930425142,2.3847187086374833,1.8108023874612877,-0.5066263620399444
2.850473707481498,-0.9034424346365741,2.3899387495535125,1.807420067393603,-0.5222102973534565
2.8416055202827692,-0.9034114543491258,2.3950440972621165,1.8039962169147772,-0.5379802046432489
2.832629957726154,-0.9033778854634025,2.4000352216555916,1.8005313035379045,-0.5539337549553267
2.823548198167053,-0.9033416612626369,2.4049125926262342,1.7970257947760797,-0.5700686193356952
2.8143614199608686,-0.9033027150300624,2.409676680066341,1.7934801581423971,-0.5863824688303594
2.8050708014630015,-0.9032609800489121,2.4143279538682085,1.7898948611499519,-0.6028729744853243
2.7956775210288525,-0.9032163896024191,2.4188668839241334,1.7862703713118382,-0.6195378073465949
2.786182757013824,-0.9031688769738164,2.4232939401264106,1.7826071561411507,-0.6363746384601766
2.776587687773316,-0.9031183754463374,2.427609592367338,1.7789056831509842,-0.6533811388720743
2.7668934916627315,-0.9030648183032148,2.431814310539212,1.775166419854433,-0.670554979628293
2.7571013470374695,-0.9030081388276823,2.4359085645343277,1.7713898337645915,-0.6878938317748378
2.747212432252933,-0.9029482703029724,2.4398928242449824,1.7675763923945549,-0.7053953663577139
2.737227925664523,-0.9028851460123188,2.4437675595634727,1.7637265632574173,-0.7230572544229263
2.727149005627641,-0.9028186992389542,2.4475332403820946,1.7598408138662738,-0.7408771670164802
2.7169768504976872,-0.9027488632661119,2.4511903365931444,1.7559196117342182,-0.7588527751843804
2.7067126386300635,-0.902675571377025,2.454739318088919,1.751963424374346,-0.7769817499726323
2.696357548380172,-0.9025987568549266,2.458180654761714,1.747972719299751,-0.7952617624272407
2.685912758103413,-0.9025183529830499,2.461514816503827,1.7439479640235283,-0.8136904835942109
2.675379446155188,-0.902434293044628,2.464742273207553,1.7398896260587722,-0.8322655845195477
2.664758790890898,-0.9023465103228939,2.4678634947651896,1.7357981729185774,-0.8509847362492567
2.6540519706659444,-0.9022549381010808,2.470878951069032,1.7316740721160384,-0.8698456098293423
2.6432601638357296,-0.902159509662422,2.4737891120113784,1.72751779116425,-0.8888458763058104
2.6323845487556534,-0.9020601582901502,2.476594447484523,1.7233297975763069,-0.9079832067246653
2.6214263037811176,-0.901956817267499,2.479295427380764,1.719110558865303,-0.9272552721319127
2.6103866072675235,-0.9018494198777012,2.481892521592397,1.714860542544334,-0.9466597435735572
2.599266637570273,-0.90173789940399,2.484386200011719,1.7105802161264931,-0.9661942920956039
2.5880675730447664,-0.9016221891295986,2.4867769325310247,1.7062700471248762,-0.9858565887440582
2.5767905920464056,-0.90150222233776,2.4890651890426128,1.701930503052577,-1.0056443045649255
2.565436872930592,-0.9013779323117074,2.4912514394387775,1.6975620514226906,-1.0255551106042098
2.5540075940527256,-0.901249252334674,2.4933361536118173,1.6931651597483113,-1.045586677907917
2.54250393376821,-0.9011161156898929,2.4953198014540265,1.6887402955425337,-1.065736677522052
2.5309270704324445,-0.900978455660597,2.4972028528577037,1.6842879263184525,-1.0860027804926198
2.519278182400831,-0.9008362055300198,2.498985777715143,1.6798085195891623,-1.1063826578656255
2.507558448028771,-0.9006892985813939,2.5006690459186434,1.675302542867758,-1.1268739806870745
2.4957690456716657,-0.9005376680979529,2.502253127360499,1.6707704636673333,-1.1474744200029714
2.483911153684916,-0.9003812473629298,2.5037384919330075,1.6662127495009837,-1.1681816468593214
2.4719859504239237,-0.9002199696595576,2.505125609528464,1.6616298678818033,-1.1889933323021298
2.45999461424409,-0.9000537682710696,2.5064149500391673,1.657022286322887,-1.2099071473774017
2.4479383235008156,-0.8998825764806988,2.507606983357411,1.652390472337329,-1.2309207631311416
2.435818256549503,-0.8997063275716782,2.508702179375494,1.647734893438224,-1.2520318506093555
2.423635591745552,-0.8995249548272412,2.5097010079857105,1.643056017138667,-1.2732380808580475
2.4113915074443653,-0.8993383915306208,2.5106039390803576,1.638354310951752,-1.2945371249232238
2.399087182001343,-0.89914657096505,2.511411442551733,1.633630242390574,-1.3159266538508885
2.3867237937718873,-0.8989494264137622,2.5121239882921316,1.6288842789682276,-1.3374043386870471
2.3743025211113986,-0.8987468911599902,2.5127420461938503,1.624116888197807,-1.358967850477704
2.3618245423752793,-0.8985388984869674,2.5132660861491853,1.6193285375924071,-1.3806148602688662
2.349291035918929,-0.8983253816779267,2.5136965780504332,1.6145196946651226,-1.4023430391065363
2.336703180097752,-0.8981062740161014,2.5140339917898906,1.6096908269290477,-1.4241500580367212
2.3240621532671457,-0.8978815087847246,2.514278797259854,1.6048424018972773,-1.4460335881054251
2.3113691337825144,-0.8976510192670294,2.514431464352619,1.599974887082906,-1.467991300358654
2.298625299999258,-0.8974147387462489,2.514492462960483,1.5950887499990278,-1.4900208658424112
2.2858318302727785,-0.897172600505616,2.514462262975741,1.5901844581587383,-1.5121199556027034
2.2729899029584755,-0.8969245378283642,2.5143413342906906,1.5852624790751313,-1.5342862406855353
2.2601006964117527,-0.8966704839977265,2.514130146797629,1.5803232802613019,-1.5565173921369122
2.24716538898801,-0.896410372296936,2.51382917038885,1.5753673292303443,-1.5788110810028384
2.2341851590426494,-0.8961441360092257,2.5134388749566523,1.5703950934953532,-1.601164978329319
2.221161184931071,-0.895871708417829,2.512959730393331,1.5654070405694234,-1.6235767551623599
2.2080946450086776,-0.8955930228059787,2.5123922065911835,1.5604036379656492,-1.646044082547966
2.1949867176308686,-0.8953080124569082,2.5117367734425056,1.5553853531971253,-1.668564631532142
2.1818385811530474,-0.8950166106538504,2.5109939008395936,1.5503526537769463,-1.691136073160893
2.168651413930614,-0.8947187506800386,2.5101640586747433,1.5453060072182068,-1.7137560784802242
2.1554263943189698,-0.8944143658187058,2.5092477168402536,1.5402458810340012,-1.7364223185361407
2.1421647006735163,-0.8941033893530852,2.5082453452284184,1.5351727427374242,-1.759132464374648
2.1288675113496547,-0.89378575456641,2.5071574137315347,1.5300870598415708,-1.7818841870417508
2.1155360047027867,-0.8934613947419131,2.505984392241899,1.5249892998595351,-1.8046751575834534
2.102171359088313,-0.8931302431628277,2.504726750651808,1.5198799303044117,-1.827503047045762
2.088774752861635,-0.892792233112387,2.503384958853558,1.5147594186892956,-1.8503655264746819
2.075347364378154,-0.8924472978738242,2.5019594867394446,1.509628232527281,-1.8732602669162164
2.061890371993272,-0.8920953707303723,2.5004508042017655,1.5044868393314625,-1.8961849394163726
2.048404954062389,-0.8917363849652643,2.498859381132817,1.4993357066149349,-1.9191372150211548
2.0348922889409073,-0.8913702738617335,2.497185687424894,1.4941753018907926,-1.9421147647765675
2.021353554984228,-0.890996970703013,2.4954301929702942,1.4890060926721302,-1.965115259728617
2.007789930547752,-0.8906164087723359,2.4935933676613136,1.4838285464720424,-1.9881363709233075
1.9942025939868804,-0.8902285213529353,2.491675681390249,1.4786431308036239,-2.011175769406644
1.9805927236570153,-0.8898332417280445,2.489677604049396,1.4734503131799688,-2.0342311262246326
1.9669614979135575,-0.8894305031808962,2.4875996055310523,1.4682505611141723,-2.0573001124232766
1.9533100951119082,-0.8890202389947239,2.4854421557275126,1.4630443421193289,-2.0803803990485825
1.9396396936074694,-0.8886023824527607,2.4832057245310746,1.457832123708533,-2.1034696571465554
1.9259514717556416,-0.8881768668382397,2.480890781834034,1.4526143733948789,-2.1265655577631994
1.9122466079118259,-0.8877436254343938,2.478497797528688,1.4473915586914619,-2.1496657719445205
1.8985262804314247,-0.8873025915244563,2.476027241507332,1.4421641471113755,-2.1727679707365235
1.884791667669838,-0.8868536983916604,2.473479583662263,1.4369326061677155,-2.1958698251852136
1.8710439479824679,-0.8863968793192392,2.4708552938857773,1.431697403373576,-2.2189690063365957
1.8572842997247156,-0.8859320675904256,2.4681548420701716,1.4264590062420515,-2.242063185236675
1.8435139012519826,-0.8854591964884528,2.4653786981077417,1.4212178822862362,-2.265150032931455
1.829733930919669,-0.8849781992965542,2.4625273318907843,1.4159744990192253,-2.2882272204669443
1.8159455670831774,-0.8844890092979627,2.4596012133115956,1.4107293239541137,-2.311292418889145
1.8021499880979086,-0.8839915597759114,2.4566008122624723,1.405482824603995,-2.3343432992440634
1.788348372319264,-0.8834857840136334,2.453526598635711,1.4002354684819645,-2.357377532577704
1.7745418981026448,-0.8829716152943621,2.450379042323607,1.3949877231011165,-2.3803927899360726
1.760731743803452,-0.8824489869013301,2.4471586132184577,1.3897400559745456,-2.403386742365173
1.7469190877770873,-0.8819178321177712,2.44386578121256,1.3844929346153467,-2.4263570609110126
1.7331051083789524,-0.8813780842269179,2.4405010161982092,1.3792468265366142,-2.4493014166195937
1.7192909839644472,-0.8808296765120037,2.437064788067702,1.3740021992514424,-2.4722174805369233
1.7054778928889747,-0.8802725422562615,2.433557566713335,1.3687595202729264,-2.4951029237090063
1.6916670135079348,-0.8797066147429246,2.4299798220274043,1.3635192571141603,-2.5179554171818466
1.6778595241767296,-0.879131827255226,2.426332023902207,1.358281877288239,-2.54077263200145
1.6640566032507587,-0.878548113076399,2.422614642230039,1.353047848308257,-2.5635522392138217
1.6502594290854264,-0.8779554054896764,2.418828146903196,1.3478176376873088,-2.5862919098649675
1.6364691800361322,-0.8773536377782918,2.4149730078139746,1.3425917129384892,-2.6089893150008914
1.6226870344582767,-0.8767427432254778,2.4110496948546722,1.3373705415748927,-2.6316421256675984
1.6089141707072627,-0.8761226551144679,2.407058677917585,1.3321545911096138,-2.6542480129110935
1.5951517671384907,-0.8754933067284951,2.403000426895009,1.3269443290557472,-2.676804647777383
1.581401002107362,-0.8748546313507923,2.398875411679241,1.3217402229263875,-2.6993097013124716
1.5676630539692784,-0.8742065622645931,2.394684102162577,1.3165427402346292,-2.721760844562363
1.5539391010796402,-0.8735490327531302,2.3904269682373127,1.3113523484935667,-2.744155748573064
1.5402303217938502,-0.8728819760996371,2.386104479795746,1.306169515216295,-2.766492084390579
1.526537894467308,-0.8722053255873464,2.3817171067301723,1.3009947079159085,-2.7887675230609132
1.5128629974554153,-0.8715190144994918,2.377265318932888,1.2958283941055018,-2.810979735630071
1.4992068091135744,-0.870822976119306,2.3727495862961896,1.2906710412981697,-2.8331263931440587
1.4855705077971861,-0.8701171437300222,2.368170378712375,1.2855231170070063,-2.8552051666488794
1.4719552718616513,-0.8694014506148737,2.3635281660737384,1.2803850887451063,-2.87721372719054
1.4583622796623714,-0.8686758300570936,2.358823418272577,1.2752574240255647,-2.899149745815046
1.4447927095547477,-0.8679402153399149,2.3540566052011873,1.270140590361476,-2.9210108935684005
1.4312477398941819,-0.8671945397465707,2.3492281967518656,1.2650350552659342,-2.9427948414966103
1.4177285490360743,-0.8664387365602942,2.3443386628169085,1.2599412862520345,-2.96449926064568
1.4042363153358273,-0.8656727390643185,2.3393884732886123,1.2548597508328716,-2.986121822061614
1.3907722171488417,-0.8648964805418768,2.3343780980592728,1.2497909165215393,-3.0076601967904177
1.377337432830519,-0.8641098942762021,2.329308007021188,1.2447352508311331,-3.029112055878097
1.3639331407362594,-0.8633129135505276,2.3241786700666536,1.2396932212747471,-3.050475070370656
1.350560519221466,-0.8625054716480864,2.3189905570879645,1.2346652953654758,-3.0717469113141
1.337220746641539,-0.8616875018521115,2.313744137977418,1.2296519406164141,-3.092925249754434
1.3239150013518797,-0.8608589374458363,2.3084398826273116,1.2246536245406565,-3.1140077567376627
1.3106444617078896,-0.8600197117124937,2.303078260929941,1.2196708146512973,-3.134992103309793
1.2974103060649698,-0.8591697579353169,2.297659742777602,1.2147039784614315,-3.1558759605168287
1.2842137127785218,-0.8583090093975392,2.2921847980625913,1.209753583484154,-3.176656999404774
1.2710558602039475,-0.8574373993823933,2.2866538966772065,1.2048200972325582,-3.197332891019636
1.2579379266966468,-0.8565548611731126,2.281067508513743,1.1999039872197397,-3.217901306407418
1.2448610906120217,-0.8556613280529304,2.275426103464495,1.1950057209587928,-3.238359916614125
1.2318265303054736,-0.8547567333050794,2.269730151421763,1.190125765962812,-3.258706392685765
1.2188354241324035,-0.8538410102127929,2.263980122277841,1.1852645897448917,-3.278938405668339
1.2058889504482129,-0.8529140920593042,2.2581764859250257,1.1804226598181269,-3.2990536266078543
1.1929882876083029,-0.8519759121278463,2.252319712255614,1.1756004436956125,-3.3190497265503165
1.1801346139680755,-0.8510264037016522,2.2464102711619014,1.170798408890442,-3.3389243765417294
1.1673291078829309,-0.8500655000639551,2.240448632536186,1.1660170229157112,-3.3586752476280988
1.1545729477082711,-0.8490931344979882,2.2344352662707627,1.1612567532845137,-3.3783000108554297
1.1418673117994975,-0.8481092402869845,2.228370642257927,1.156518067509945,-3.3977963372697264
1.12921337851201,-0.8471137507141774,2.222255230389978,1.1518014331050987,-3.4171618979169947
1.1166123262012118,-0.8461065990627996,2.2160895005592094,1.1471073175830702,-3.43639436384324
1.104065333222503,-0.8450877186160844,2.2098739226579203,1.1424361884569536,-3.455491406094467
1.0915735779312858,-0.8440570426572652,2.203608966578405,1.1377885132398435,-3.4744506957166803
1.0791382386829598,-0.8430145044695748,2.1972951022129603,1.1331647594448349,-3.493269903755885
1.066760493832928,-0.8419600373362462,2.1909327994538836,1.1285653945850225,-3.5119467012580885
1.054441521736592,-0.8408935745405131,2.1845225281934706,1.1239908861734995,-3.5304787592692914
1.0421825007493513,-0.8398150493656079,2.178064758324016,1.1194417017233627,-3.5488637488355037
1.0299846092266076,-0.8387243950947643,2.1715599597378197,1.1149183087477046,-3.5670993410027267
1.0178490255237633,-0.8376215450112151,2.1650086023271755,1.1104211747596213,-3.5851832068169673
1.0057769279962188,-0.8365064323981936,2.158411155984381,1.1059507672722066,-3.603113017324231
0.9937694949993761,-0.8353789905389326,2.1517680906017316,1.1015075537985553,-3.6208864435705195
0.9818279048886349,-0.8342391527166658,2.1450798760715237,1.097092001851762,-3.638501156601843
0.9699533360193979,-0.8330868522146258,2.1383469822860564,1.0927045789449212,-3.655954827464204
0.9581469667470663,-0.831922022316046,2.131569879137622,1.0883457525911275,-3.6732451272036077
0.9464099754270425,-0.8307445963041593,2.1247490365185198,1.0840159903034756,-3.690369726866059
0.9347435404147244,-0.8295545074621992,2.117884924321044,1.07971575959506,-3.707326297497561
0.9231488400655161,-0.8283516890733984,2.110978012437494,1.0754455279789752,-3.724112510144122
0.9116270527348187,-0.8271360744209902,2.104028770760164,1.0712057629683165,-3.740726035851747
0.9001793567780325,-0.8259075967882078,2.09703766918135,1.0669969320761772,-3.7571645456664386
0.8888069305505586,-0.8246661894582842,2.0900051775933495,1.0628195028156529,-3.773425710634206
0.8775109524077993,-0.8234117857144526,2.0829317658884605,1.058673942699838,-3.78950720180105
0.8662926007051559,-0.8221443188399461,2.075817903958975,1.0545607192418265,-3.805406690212977
0.8551530537980296,-0.8208637221179979,2.068664061697193,1.0504802999547138,-3.821121846915992
0.84409349004182,-0.8195699288318408,2.0614707089954094,1.0464331523515942,-3.8366503429560996
0.8331150877919309,-0.8182628722647084,2.0542383157459225,1.0424197439455622,-3.851989849379308
0.8222190254037622,-0.8169424856998335,2.046967351841027,1.0384405422497123,-3.8671380372316184
0.8114064812327144,-0.8156087024204492,2.0396582871730184,1.0344960147771394,-3.882092577559039
0.8006786336341896,-0.8142614557097889,2.032311591634195,1.030586629040938,-3.8968511414075726
0.7900366609635912,-0.8129006788510855,2.024927735116852,1.0267128525542024,-3.9114113998232245
0.7794817415763178,-0.8115263051275723,2.017507187513287,1.0228751528300273,-3.9257710238520023
0.7690150538277707,-0.8101382678224821,2.0100504187157946,1.0190739973815077,-3.9399276845399065
0.758637776073352,-0.8087365002190483,2.002557898616672,1.0153098537217375,-3.9538790529329475
0.748351086668464,-0.807320935600504,1.9950300971082178,1.0115831893638119,-3.967622800077125
0.7381561639685064,-0.8058915072500823,1.9874674840827253,1.0078944718208251,-3.9811565970184475
0.728054186328881,-0.8044481484510162,1.9798705294324919,1.0042441686058723,-3.99447811480292
0.718046332104989,-0.8029907924865389,1.9722397030498142,1.000632747232047,-4.007585024476548
0.7081337796522309,-0.8015193726398837,1.964575474826989,0.9970606752124449,-4.0204749970853335
0.698317707326011,-0.8000338221942835,1.9568783146563122,0.99352842006016,-4.033145703675285
0.6885992934817264,-0.7985340744329714,1.94914869243008,0.9900364492882869,-4.0455948152924055
0.6789797164747808,-0.7970200626391806,1.941387078040588,0.9865852304099203,-4.057820002982701
0.6694601546605754,-0.7954917200961443,1.9335939413801355,0.9831752309381547,-4.069818937792176
0.6600417863945123,-0.7939489800870956,1.9257697523410175,0.9798069183860851,-4.0815892907668365
0.65072579003199,-0.7923917758952675,1.9179149808155285,0.9764807602668049,-4.093128732952687
0.6415133439284118,-0.7908200408038931,1.910030096695966,0.9731972240934106,-4.104434935395731
0.6324056264391795,-0.7892337080962057,1.9021155698746277,0.9699567773789952,-4.115505569141976
0.6234038159196937,-0.7876327110554385,1.894171870243808,0.9667598876366537,-4.126338305237426
0.6145090907253552,-0.7860169829648245,1.8861994676958058,0.963607022379481,-4.136930814728088
0.6057226292115652,-0.7843864571075965,1.8781988321229142,0.9604986491205716,-4.147280768659964
0.5970456097337258,-0.7827410667669881,1.8701704334174334,0.9574352353730202,-4.157385838079062
0.5884792106472365,-0.7810807452262322,1.8621147414716583,0.9544172486499207,-4.167243694031385
0.5800246103075022,-0.779405425768562,1.8540322261778834,0.9514451564643684,-4.176852007562937
0.5716829870699205,-0.7777150416772105,1.845923357428406,0.9485194263294581,-4.186208449719726
0.563455519289894,-0.776009526235411,1.837788605115525,0.9456405257582832,-4.195310691547755
0.5553433853228253,-0.7742888127263965,1.829628439131533,0.9428089222639393,-4.2041564040930295
0.5473477635241135,-0.7725528344334002,1.8214433293687287,0.940025083359521,-4.212743258401558
0.539469832249162,-0.7708015246396551,1.813233745719408,0.9372894765581221,-4.221068925519342
0.5317107698533707,-0.7690348166283943,1.8050001580758683,0.9346025693728388,-4.229131076492385
0.5240717546921401,-0.7672526436828512,1.7967430363304049,0.9319648293167635,-4.2369273823666935
0.5165539651208735,-0.7654549390862586,1.7884628503753144,0.9293767239029922,-4.244455514188275
0.5091585794949722,-0.76364163612185,1.780160070102892,0.9268387206446189,-4.2517131430031325
0.5018867761698353,-0.761812668072858,1.7718351654054367,0.9243512870547395,-4.258697939857273
0.494739733500865,-0.7599679682225162,1.7634886061752417,0.9219148906464465,-4.265407575796699
0.4877186298434646,-0.7581074698540575,1.755120862304606,0.919529998932836,-4.271839721867415
0.48082464355303145,-0.756231106250715,1.7467324036858252,0.9171970794270019,-4.277992049115428
0.47405895298497036,-0.7543388106957221,1.738323700211197,0.9149165996420394,-4.283862228586745
0.4674227364946808,-0.7524305164723115,1.7298952217730155,0.9126890270910422,-4.289447931327368
0.4609171724375658,-0.7505061568637165,1.721447438263578,0.9105148292871061,-4.294746828383303
0.45454343916902484,-0.7485656651531704,1.7129808195751801,0.9083944737433247,-4.2997565908005555
0.4483027150444592,-0.746608974623906,1.7044958356001196,0.9063284279727928,-4.304474889625128
0.4421961784192714,-0.7446360185591567,1.6959929562306926,0.9043171594886052,-4.30889939590303
0.4362250076488623,-0.7426467302421554,1.6874726513591947,0.9023611358038557,-4.313027780680263
0.43039038108863226,-0.7406410429561355,1.6789353908779228,0.9004608244316405,-4.316857715002834
0.4246934770939843,-0.7386188899843299,1.6703816446791744,0.8986166928850532,-4.320386869916747
0.4191354740203179,-0.7365802046099719,1.6618118826552453,0.8968292086771879,-4.323612916468007
0.4137175502230357,-0.7345249201162944,1.6532265746984307,0.8950988393211401,-4.326533525702621
0.40844088405753753,-0.7324529697865305,1.6446261907010267,0.8934260523300035,-4.329146368666592
0.4033066538792265,-0.7303642869039138,1.6360112005553322,0.8918113152168743,-4.331449116405926
0.39831603804350335,-0.7282588047516767,1.6273820741536413,0.8902550954948454,-4.333439439966629
0.39347021490576806,-0.726136456613053,1.6187392813882504,0.8887578606770117,-4.335115010394702
0.3887703628214241,-0.7239971757712754,1.6100832921514578,0.8873200782764679,-4.336473498736154
0.38421766014587044,-0.7218408955095772,1.6014145763355594,0.8859422158063095,-4.337512576036991
0.37981328523450886,-0.7196675491111914,1.5927336038328508,0.8846247407796304,-4.3382299133432145
0.3755584164427419,-0.7174770698593512,1.5840408445356275,0.8833681207095245,-4.3386231817008305
0.37145423212597084,-0.7152693910372898,1.575336768336188,0.8821728231090875,-4.338690052155847
0.3675019106395965,-0.7130444459282402,1.5666218451268283,0.8810393154914129,-4.338428195754268
0.3637026303390192,-0.7108021678154355,1.5578965447998443,0.8799680653695965,-4.337835283542095
0.3600575695796424,-0.708542489982109,1.5491613372475315,0.8789595402567316,-4.336908986565334
0.35656790671686256,-0.7062653457114936,1.5404166923621858,0.8780142076659148,-4.335646975869995
0.35323482010608664,-0.7039393338039925,1.5316630800361075,0.8771325351102388,-4.334046922502077
0.3500594881027146,-0.7015535869910567,1.5229009701615897,0.8763149901027985,-4.332106497507592
0.3470430890621454,-0.6991087736507016,1.5141308326309284,0.8755620401566888,-4.329823371932536
0.3441868013397835,-0.6966055621609368,1.5053531373364228,0.8748741527850044,-4.32719521682292
0.34149180329102613,-0.6940446208997786,1.496568354170367,0.8742517955008393,-4.324219703224751
0.3389592732712776,-0.6914266182452362,1.4877769530250582,0.8736954358172895,-4.320894502184032
0.3365903896359397,-0.6887522225753284,1.478979403792791,0.8732055412474475,-4.3172172847467625
0.33438633074041046,-0.6860221022680628,1.4701761763658652,0.8727825793044102,-4.313185721958954
0.3323482749400952,-0.683236925701451,1.4613677406365762,0.8724270175012703,-4.308797484866611
0.3304774005903912,-0.6803973612535144,1.4525545664972177,0.8721393233511234,-4.304050244515738
0.3287748860467037,-0.6775040773022627,1.443737123840089,0.8719199643670628,-4.298941671952338
0.3272419096644299,-0.674557742225701,1.434915882557485,0.871769408062185,-4.293469438222418
0.3258796497989751,-0.6715590244018528,1.4260913125417045,0.871688121949584,-4.287631214371983
0.32468928480573833,-0.6685085922087262,1.4172638836850404,0.8716765735423531,-4.28142467144704
0.3236719930401213,-0.665407114024335,1.4084340658797903,0.8717352303535884,-4.274847480493587
0.3228289528575239,-0.6622552582266912,1.3996023290182515,0.8718645598963839,-4.2678973125576345
0.3221613426133496,-0.6590536931938096,1.390769142992721,0.8720650296838341,-4.260571838685193
0.32167034066299927,-0.6558030873037031,1.3819349776954937,0.872337107229034,-4.252868729922257
0.32135712536187455,-0.6525041089343824,1.3731003030188647,0.8726812600450775,-4.2447856573148375
0.3212228750653754,-0.6491574264638635,1.3642655888551332,0.8730979556450604,-4.236320291908937
0.3212687681289035,-0.645763708270156,1.3554313050965954,0.873587661542075,-4.227470304750561
0.32149598290785963,-0.6423236227312783,1.346597921635547,0.8741508452492188,-4.21823336688572
0.3219056977576473,-0.6388378382252382,1.337765908364283,0.8747879742795841,-4.208607149360409
0.3224990910336647,-0.6353070231300504,1.3289357351751017,0.8754995161462664,-4.198589323220643
0.32327734109131523,-0.6317318458237273,1.3201078719602992,0.8762859383623611,-4.18817755951242
0.32424162628599973,-0.6281129746842868,1.311282788612171,0.8771477084409611,-4.17736952928175
0.3253931249731181,-0.6244510780897321,1.3024609550230144,0.8780852938951618,-4.166162903574634
0.32673301550807565,-0.6207468244180867,1.2936428410851253,0.8790991622380584,-4.154555353437077
0.3282624762462678,-0.6170008820473569,1.2848289166907998,0.880189780982745,-4.142544549915087
0.32998268554309984,-0.6132139193555575,1.276019651732335,0.8813576176423152,-4.130128164054673
0.33189482175397256,-0.6093866047207035,1.267215516102028,0.8826031397298653,-4.117303866901834
0.33400006323428855,-0.6055196065208044,1.2584169796921723,0.8839268147584882,-4.10406932950257
0.33629958833944595,-0.601613593133874,1.2496245123950676,0.8853291102412804,-4.090422222902898
0.338636900040056,-0.5976692329379278,1.2408385841030083,0.8868104936913357,-4.076360218148817
0.3408598501530129,-0.593687194310978,1.2320596647082924,0.8883714326217464,-4.061880986286331
0.34296957414739726,-0.5896681456310353,1.2232882241032152,0.8900123945456107,-4.04698219836145
0.3449672074922967,-0.585612755276117,1.2145247321800725,0.8917338469760214,-4.031661525420171
0.3468538856568051,-0.5815216916242312,1.2057696588311617,0.8935362574260737,-4.015916638508505
0.3486307441100074,-0.5773956230533943,1.1970234739487786,0.8954200934088614,-3.999745208672458
0.35029891832099036,-0.5732352179416167,1.1882866474252198,0.8973858224374796,-3.9831449069580316
0.35185954375884343,-0.5690411446669144,1.1795596491527842,0.8994339120250225,-3.9661134044112334
0.3533137558926578,-0.5648140716072958,1.1708429490237635,0.9015648296845853,-3.948648372078063
0.3546626901915193,-0.5605546671407815,1.1621370169304566,0.9037790429292614,-3.930747481004534
0.35590748212451384,-0.5562635996453777,1.1534423227651605,0.9060770192721479,-3.912408402236643
0.3570492671607308,-0.5519415374991001,1.14475933642017,0.9084592262263362,-3.893628806820404
0.3580891807692659,-0.547589149079962,1.1360885277877841,0.9109261313049231,-3.874406365801816
0.3590283584192031,-0.543207102765976,1.127430366760294,0.9134782020210019,-3.8547387502268844
0.35986793557962216,-0.5387960669351521,1.1187853232300022,0.9161159058876682,-3.8346236311416178
0.3606090477196151,-0.5343567099655093,1.1101538670892017,0.9188397104180162,-3.8140586795920157
0.3612528303082865,-0.5298897002350555,1.10153646823019,0.9216500831251406,-3.7930415666240904
0.3618004188146964,-0.5253957061218069,1.0929335965452647,0.9245474915221368,-3.7715699632838415
0.3622529487079609,-0.5208753960037757,1.0843457219267179,0.9275324031220973,-3.749641540617274
0.36261155545714985,-0.5163294382589747,1.0757733142668497,0.9306052854381175,-3.727253969670393
0.3628773745313527,-0.5117585012654153,1.0672168434579548,0.9337666059832941,-3.7044049214892087
0.3630515413996678,-0.507163253401111,1.0586767793923317,0.9370168322707184,-3.6810920671197227
0.36313519153117557,-0.5025443630440805,1.050153591962275,0.9403564318134867,-3.6573130776079346
0.36312946039496996,-0.49790249857232993,1.041647751060082,0.943785872124693,-3.6330656239998564
0.3630354834601377,-0.49323832836387105,1.0331597265780474,0.9473056207174335,-3.6083473773414934
0.3628543961957531,-0.4885525207967234,1.0246899884084693,0.9509161451048018,-3.583156008678852
0.362587334070934,-0.4838457442488977,1.016239006443644,0.954617912799891,-3.5574891890579323
0.3622354325547459,-0.4791186670984029,1.0078072505758668,0.9584113913157974,-3.531344589524739
0.3617998271162728,-0.4743719577232577,0.9993951906974377,0.9622970481656155,-3.504719881125279
0.3612816532246228,-0.4696062845014737,0.9910032967006464,0.9662753508624391,-3.477612734905559
0.3606820463488667,-0.4648223158110616,0.9826320384777945,0.9703467669193637,-3.450020821911586
0.36000214195811076,-0.460020720030033,0.9742818859211786,0.9745117638494829,-3.421941813189356
0.35924307552142665,-0.4552021655364076,0.965953308923091,0.9787708091658915,-3.3933733797848866
0.35840598250791267,-0.4503673207081915,0.9576467773758321,0.983124370381685,-3.3643131927441736
0.357491998386644,-0.44551685392340357,0.9493627611716962,0.9875729150099586,-3.334758923113224
0.35650225862672613,-0.44065143356005443,0.9411017302029805,0.9921169105638037,-3.3047082419380445
0.3554378986972342,-0.43577172799615305,0.9328641543619822,0.9967568245563174,-3.2741588202646383
0.3543000540672683,-0.43087840560971813,0.9246505035409944,1.0014931245005947,-3.2431083291390124
0.3530898602059054,-0.4259721347787613,0.9164612476323195,1.0063262779097286,-3.2115544396071734
0.351808452582242,-0.42105358388129144,0.9082968565282483,1.011256752296814,-3.1794948227151174
0.3504569666653641,-0.4161234212953282,0.9001578001210788,1.016285015174947,-3.146927149508862
0.3490365379243521,-0.41118231539888495,0.8920445483031068,1.0214115340572207,-3.1138490910343997
0.3475483018283061,-0.4062309345699644,0.8839575709666314,1.0266367764567286,-3.0802583183377514
0.3459933938463067,-0.4012699471865897,0.8758973380039476,1.0319612098865671,-3.04615250246491
0.3443729494474468,-0.3963000216267689,0.8678643193073499,1.0373853018598322,-3.0115293144618818
0.3426881041008105,-0.3913218262685181,0.8598589847691378,1.0429095198896157,-2.976386425374674
0.34093999327548374,-0.386336029489847,0.8518818042816045,1.0485343314890123,-2.9407215062492895
0.33912975244057364,-0.38134329966877356,0.843933247737048,1.0542602041711184,-2.904532228131739
0.33725851706515186,-0.3763443051833022,0.836013785027764,1.0600876054490271,-2.867816262068022
0.3353274226182972,-0.3713397144114561,0.8281238860460531,1.0660170028358342,-2.830571279104145
0.3333376045691221,-0.3663301957312406,0.8202640206842049,1.0720488638446328,-2.7927949502861154
0.3312901983866947,-0.3613164175206727,0.8124346588345208,1.0781836559885192,-2.754484946659936
0.32918633954011334,-0.3562990481577666,0.8046362703892953,1.0844218467805877,-2.71563893927161
0.3270271634984674,-0.35127875602053216,0.7968693252408237,1.0907639037339312,-2.676254599167148
0.3248138057308445,-0.346256209486981,0.7891342932814052,1.0972102943616449,-2.636329597392553
0.3225474017063146,-0.3412320769351309,0.7814316444033338,1.1037614861768255,-2.595861604993825
0.320229086893999,-0.33620702674299263,0.7737618484989088,1.1104179466925643,-2.5548482930169705
0.3178599967629552,-0.3311817272885751,0.7661253754604225,1.1171801434219581,-2.5132873325080034
0.3154412667822992,-0.32615684694989877,0.758522695180174,1.124048543878101,-2.471176394512913
0.3129740324210939,-0.32113305410497617,0.750954277550461,1.1310236155740885,-2.428513150077727
0.3104594291484446,-0.3161110171318109,0.7434205924635755,1.138105826023013,-2.385295270248431
0.30789859243343365,-0.31109140440842786,0.735922109811816,1.1452956427379712,-2.3415204260710354
0.30529265774515224,-0.3060748843128307,0.7284592994874819,1.1525935332320563,-2.297186288591547
0.3026427605526809,-0.3010621252230399,0.7210326313828652,1.1599999650183639,-2.252290528855969
0.29995003632511263,-0.29605379551706257,0.7136425753902671,1.1675154056099872,-2.2068308179103084
0.29721562053153683,-0.29105056357291037,0.706289601401977,1.175140322520022,-2.160804826800568
0.2944406486410447,-0.28605309776861,0.698974179310297,1.1828751832615634,-2.1142102265727587
0.29162625612271853,-0.28106206648215704,0.6916967790075219,1.1907204553477042,-2.0670446882728832
0.2887735784456513,-0.276078138091572,0.6844578703859492,1.1986766062915395,-2.019305882946938
0.2858837510789307,-0.27110198097487004,0.677257923337871,1.206744103606166,-1.9709914816409402
0.282957909491639,-0.2661342635100592,0.6700974077555895,1.2149234148046757,-1.9220991554008862
0.279997189152871,-0.26117565407515997,0.6629767935313957,1.2232150074001646,-1.8726265752727862
0.27700272553170535,-0.2562268210481795,0.6558965505575927,1.2316193489057259,-1.8225714123026435
0.2739756540972369,-0.25128843280712765,0.6488571487264698,1.240136906834456,-1.7719313375364578
0.27091711031856924,-0.24636115773002576,0.6418590579303292,1.2487681486994484,-1.720704022020243
0.2678282296647705,-0.24144566419488633,0.634902748061462,1.2575135420137977,-1.6688871368000022
0.2647101476049354,-0.23654262057971387,0.6279886890121693,1.266373554290599,-1.6164783529217388
0.26156399960815335,-0.23165269526252708,0.6211173506747434,1.2753486530429452,-1.5634753414314595
0.25839092114350315,-0.22677655662134022,0.6142892029414844,1.2844393057839336,-1.5098757733751675
0.2551920476800795,-0.2219148730341587,0.6075047157046853,1.2936459800266573,-1.4556773197988662
0.251968514686979,-0.2170683128790083,0.6007643588566465,1.3029691432842117,-1.4008776517485657
0.2487214576332839,-0.21223754453389443,0.5940686022896582,1.3124092630696897,-1.3454744402702623
0.24545201198809075,-0.20742323637682425,0.5874179158960269,1.3219668068961865,-1.289465356409977
0.24216131322045698,-0.2026260567858218,0.5808127695680367,1.3316422422767977,-1.232848071213695
0.23885049679950932,-0.19784667413889778,0.574253633197995,1.3414360367246165,-1.1756202557274378
0.23552069819431232,-0.19308575681405937,0.5677409766781905,1.3513486577527405,-1.1177795809971975
0.2321730528739554,-0.1883439731893244,0.5612752699009231,1.3613805728742618,-1.0593237180689918
0.22880869630754574,-0.18362199164270265,0.5548569827584879,1.3715322496022728,-1.0002503379888203
0.225428763964155,-0.1789204805522111,0.5484865851431815,1.381804155449871,-0.9405571118026756
0.22203439131287617,-0.17424010829586134,0.5421645469473031,1.3921967579301513,-0.880241710556593
0.21862671382278975,-0.16958154325166852,0.5358913380631458,1.4027105245562086,-0.8193018052965471
0.21520686696298874,-0.16494545379763625,0.5296674283830063,1.4133459228411343,-0.757735067068559
0.21177598620256788,-0.1603325083117877,0.5234932877991803,1.4241034202980272,-0.6955391669186284
0.20833520701061836,-0.15574337517213532,0.5173693862039679,1.4349834844399778,-0.6327117758927656
0.2048856648562225,-0.15117872275668276,0.5112961934896649,1.445986582780085,-0.5692505650369668
0.20142849520845374,-0.14663921944345493,0.5052741795485591,1.4571131828314394,-0.5051532053972387
0.19796483353642813,-0.1421255336104581,0.49930381427295956,1.4683637521071384,-0.4404173680196024
0.19449581530920845,-0.13763833363570832,0.4933855675551557,1.4797387581202734,-0.37504072395003973
0.1910225759959001,-0.1331782878972092,0.48751990928744426,1.4912386683839438,-0.3090209442345646
0.1875462510655801,-0.12874606477299544,0.4817073093621236,1.5028639504112409,-0.24235569991919093
0.18406797598735025,-0.12434233264105288,0.4759482376714841,1.5146150717152587,-0.17504266204991836
0.1805888862302787,-0.1199677598794171,0.47024316410783396,1.526492499809092,-0.10707950167275371
0.17711011726347792,-0.11562301486608817,0.46459255856346005,1.5384967022058378,-0.03846388983368243
0.1736328045560125,-0.11130876597908212,0.4589968909306599,1.550628146418589,0.030806502421263815
0.17015808357699314,-0.1070256815964079,0.45345663110173273,1.5628872999604413,0.1007340040460889
0.1666870897954933,-0.10277443009609577,0.44797224896897525,1.575274630344488,0.17132094399479314
0.16322095868060416,-0.09855567985613511,0.44254421442467695,1.587790605083824,0.2425696512213591
0.1597608257014187,-0.09437009925455442,0.4371729973611451,1.6004356916915423,0.31448245467979774
0.15630782632702633,-0.0902183566693644,0.4318590676706675,1.6132103576807388,0.38706168332409874
0.1528630960265076,-0.08610112047857044,0.4266028952455443,1.626115070564512,0.4603096661082482
0.1494277702689537,-0.08201905906019391,0.4214049499780712,1.6391502978559505,0.53422873198625
0.14600298452344873,-0.07797284079224731,0.4162657017605449,1.652316507068151,0.6088212099120938
0.1425898742590892,-0.07396313405273602,0.4111856204852602,1.66561416571421,0.683617134597629
0.139189574944945,-0.06999060721967965,0.40616517604451463,1.6790437413072183,0.7572671791322172
0.13580322205014106,-0.06605592867109955,0.4012048383306075,1.6926057013602733,0.8297724801511226
0.13243195104374017,-0.06215976678498514,0.3963050772358292,1.7063005133864717,0.9011341742882379
0.12907689739481754,-0.05830278993937377,0.39146636265247814,1.720128644898904,0.9713533981774205
0.1257391965724981,-0.05448566651226372,0.3866891644728563,1.734090563410665,1.0404312884527993
0.12241998404584464,-0.050709064881672816,0.38197395258925226,1.7481867364348505,1.1083689817481464
0.11912039528393592,-0.04697365342561355,0.3773211968939689,1.7624176314845554,1.175167614697477
0.11584156575589333,-0.04328010052210374,0.37273136727929845,1.776783716072873,1.2408283239345987
0.1125846309307903,-0.03962907454914344,0.3682049336375366,1.7912854577129016,1.305352246093575
0.10935072627770737,-0.03602124388475936,0.3637423658609835,1.8059233239177317,1.3687405178082948
0.10614098726572507,-0.032457276906958654,0.3593441338419314,1.8206977822004582,1.4309942757126244
0.10295654936395593,-0.028937841993755598,0.35501070747268315,1.8356093000741769,1.4921146564405632
0.09979854804147337,-0.025463607523159126,0.3507425566455247,1.8506583450519818,1.552102796626066
0.09666811876735792,-0.022035241873188838,0.34654015125276416,1.8658453846469696,1.6109598329030241
0.09356639701072211,-0.018653413421851894,0.34240396118669025,1.8811708863722316,1.6686869019053
0.09049451824063937,-0.01531879054716434,0.33833445633960135,1.8966353177408655,1.725285140266898
0.08745361792619732,-0.012032041627140444,0.334332106603795,1.9122391462659625,1.7807556846217985
0.08444483153648008,-0.008793835039792697,0.33039738187156686,1.9279828394606193,1.8350996716038566
0.08146929454058949,-0.005604839163128261,0.326530752035211,1.943866864837931,1.8883182378469172
0.07852814240760608,-0.0024657223751702873,0.3227326869870275,1.9598916899109922,1.9404125199851023
0.07562251060662106,0.0006228469460776154,0.3190036566193122,1.9760577821928944,1.991383654652246
0.07275353460671496,0.0036602004225994023,0.3153441308243581,1.992365609196737,2.04123277848225
0.06992234987698609,0.006645669676377253,0.3117545794944663,2.0088156384356095,2.0899610281090517
0.06713009188651853,0.009578586329402228,0.30823547252193073,2.0254083374226104,2.137569540166602
0.06437789610439637,0.012458282003667165,0.3047872797990463,2.042144173670833,2.184059451288885
0.06166689799972147,0.015284088321143585,0.3014104712181114,2.0590236146933725,2.229431898109752
0.05899823304155305,0.01805533690383143,0.2981055166714217,2.076047128003321,2.273688017263108
0.05637303669901783,0.020771359373716436,0.2948728860512766,2.0932151811137762,2.3168289453829765
0.05379244444118214,0.023431487352780778,0.2917130492499691,2.110528241537831,2.3588558191032547
0.05125759173712652,0.026035052463015518,0.2886264761597932,2.12798677678858,2.399769775057859
0.04876961405594926,0.028581386326404612,0.28561363667305173,2.1455912543791182,2.43957194988063
0.04632964686674512,0.031069820564937345,0.2826750006820369,2.163342141822543,2.478263480205655
0.043938825638594636,0.033499686800603,0.27981103807904617,2.1812399066319443,2.5158455026667923
0.04159828584058545,0.03587031665538021,0.277022218756378,2.1992850163204176,2.552319153898001
0.0393091629418123,0.038181041751260025,0.2743090126063219,2.217477938401059,2.587685570533111
0.0370725924113664,0.04043119371023529,0.2716718895211834,2.235819140386962,2.621945889206163
0.034889709718324724,0.04262010415428641,0.2691113193932537,2.2543090897912226,2.6551012465510766
0.03276165033177847,0.044747104705400886,0.2666277721148278,2.272948254126936,2.687152779201746
0.030689549720822384,0.04681152698556623,0.2642217175782049,2.291737100907193,2.718101623792041
0.028674543354519244,0.04881270261677706,0.26189362567568253,2.310676097645091,2.747948916956009
0.026717766702002876,0.05074996322100489,0.2596439662995511,2.3297657118537227,2.7766957953275586
0.02482035523232895,0.05262264042025144,0.2574732093421197,2.3490064110461866,2.80434339554051
0.022983444414578003,0.054430065836495345,0.2553818246956716,2.368398662735574,2.8308928542289387
0.02120816971786965,0.05617157109172588,0.25337028225250613,2.38794293443498,2.8563453080266648
0.019495666611284435,0.05784648780792878,0.25143905190492255,2.407639693657501,2.8807018935677107
0.01784707056387802,0.059454147607096886,0.24958860354521661,2.4274894079162266,2.9039637474858964
0.016263517044780684,0.060993882111205266,0.24781940706568228,2.4474925447242555,2.926132006415262
0.0147461415230552,0.06246502294225209,0.2461319323586224,2.4676495715946842,2.947207806989674
0.013296079467814081,0.06386690172221954,0.24452664931632206,2.4879609560406024,2.967192285843087
0.011914466348123653,0.06519885007308979,0.24300402783108943,2.5084271655751067,2.98608657960936
0.010602437633075112,0.06646019961686811,0.2415645377952167,2.5290486677112956,3.003891824922537
0.009361128791756101,0.06765028197551892,0.2402086491009996,2.5498259299622568,3.020609158416473
0.008191675293257816,0.06876842877104039,0.23893683164073387,2.570759419841089,3.036239716725145
0.007095212606671453,0.0698139716254218,0.2377495553067117,2.591849604860885,3.050784636482362
0.006072876201084654,0.07078624216064355,0.23664728999123952,2.6130969525347405,3.0642450543222495
0.005125801545574404,0.07168457199869671,0.23563050558660947,2.634501930375751,3.076622106878631
0.004255124109246111,0.072508292761567,0.23469967198511377,2.65606500589701,3.087916930785404
0.0034619793611838645,0.07325673607124372,0.23385525907905347,2.6777866466116107,3.0981306626764606
0.0027475027704646493,0.07392923354971082,0.2330977367607261,2.69966732003265,3.107264439185915
0.002112829806193872,0.0745251168189558,0.23242757492242383,2.7217074936732244,3.115319396947527
0.0015590959374591762,0.07504371750096084,0.23184524345644242,2.7439076350464235,3.122296672595322
0.0010874366333233354,0.07548436721772056,0.23135121225508115,2.766268211665344,3.128197402763149
0.0006989873629024146,0.07584639759122602,0.23094595121063755,2.790134409592156,3.1330227240850057
0.0003948835952556351,0.07612914024345052,0.23062993021540557,2.809240441494694,3.1367737731947933
0.00017626079950616713,0.07633192679639222,0.23040361916168095,2.8232741222618642,3.1394516867264564
4.42544447309956e-05,0.07645408887203509,0.23026748794176655,2.8319232665999152,3.141057601313854
7.105427357601002e-15,0.07649495809236129,0.23022200644794744,2.8348756892191886,3.1415926535910295
