oscarkremer/mentor-optimization/notebooks/traject_1/adaptive/angles_2.csv
theta1,theta2,theta3,theta4,theta5
3.1415926535,-0.9030865823619687,2.1246196420553805,1.9200595938963783,8.979318433952318e-11
3.1414201814497065,-0.9030873451631432,2.122225367434578,1.9200558787519701,-6.122845752181758e-05
3.1409051747801833,-0.9030895890888219,2.115270842696219,1.920044793250826,-0.00024217235335646334
3.140051247713465,-0.9030932474222381,2.104098516526372,1.9200264272910659,-0.000538718978545198
3.138862014471586,-0.9030982534466248,2.0890508376111083,1.9200008707708103,-0.0009467557139224656
3.1373410892765814,-0.9031045404452152,2.070470254636499,1.9199682135881786,-0.0014621699403227118
3.1354920863504856,-0.9031120417012424,2.0486992162886137,1.9199285456412916,-0.0020808490385803816
3.133318619915334,-0.9031206904979394,2.0240801712535226,1.9198819568282692,-0.0027986803895299187
3.1308243041931605,-0.9031304201185396,1.9969555682172968,1.9198285370472314,-0.0036115513740057684
3.1280127534060007,-0.9031411638462759,1.9676678558660066,1.9197683761962985,-0.004515349372842376
3.1248875817758885,-0.9031528549643815,1.936559482885722,1.9197015641735906,-0.005505961766874185
3.1214524035248594,-0.9031654267560895,1.903972897962514,1.9196281908772277,-0.006579275936935642
3.117710832874948,-0.9031788125046329,1.8702505497824524,1.91954834620533,-0.007731179263861193
3.1136664840481894,-0.9031929454932451,1.8357348870316081,1.9194621200560176,-0.008957559128485275
3.1093229712666175,-0.903207759005159,1.8007683583960514,1.9193696023274107,-0.010254302911642343
3.1046839087522673,-0.9032231863236079,1.7656934125618529,1.9192708829176295,-0.011617297994166836
3.0997529107271737,-0.9032391607318248,1.7308524982150824,1.919166051724794,-0.013042431756893203
3.0945335914133727,-0.9032556155130428,1.6965880640418107,1.9190551986470243,-0.014525591580655887
3.0890295650328965,-0.903272483950495,1.6632425587281083,1.9189384135824408,-0.016062664846289328
3.0832444458077823,-0.9032896993274147,1.6311584309600458,1.918815786429163,-0.017649538934627975
3.0771818479600634,-0.9033071949270348,1.6006781294236931,1.9186874070853117,-0.019282101226506268
3.070845385711775,-0.9033249040325887,1.572144102805121,1.9185533654490068,-0.020956239102758664
3.064238673284952,-0.9033427599273092,1.5458987997903995,1.9184137514183681,-0.022667839944219594
3.0573653249016286,-0.9033606958944297,1.5222846690655998,1.9182686548915162,-0.024412791131723517
3.0502289547838406,-0.9033786452171831,1.5016441593167917,1.918118165766571,-0.026186980046104872
3.042833177153622,-0.9033965411788027,1.4843197192300455,1.9179623739416525,-0.027986294068198088
3.035181606233007,-0.9034143170625216,1.4706537974914322,1.9178013693148812,-0.02980662057883762
3.0272778562440323,-0.9034319061515728,1.460988842787022,1.917635241784377,-0.03164384695885794
3.01912554140873,-0.9034492417291895,1.4556673038028847,1.91746408124826,-0.03349386058909345
3.0107282759491376,-0.9034662570786048,1.4550316292250913,1.9172879776046503,-0.03535254885037861
3.002089674087288,-0.9034828854830519,1.4594242677397122,1.9171070207516683,-0.037215799123547874
2.9932133500452167,-0.9034990602257639,1.4691876680328184,1.9169213005874337,-0.0390794987894357
2.9841029180449583,-0.9035147145899739,1.4816039611108767,1.9167309070100669,-0.040939535228876486
2.9747619923085473,-0.9035297818589147,1.4938800781547021,1.916535929917688,-0.04279179582270472
2.9651941870580187,-0.9035441953158202,1.5060165062689541,1.9163364592084169,-0.04463216795175484
2.955403116515408,-0.9035578882439228,1.518013732558293,1.9161325847803743,-0.04645653899686125
2.9453923949027483,-0.9035707939264558,1.5298722441273793,1.9159243965316797,-0.04826079633885847
2.9351656364420764,-0.9035828456466526,1.5415925280808727,1.9157119843604535,-0.050040827358580876
2.924726455355425,-0.903593976687746,1.5531750715234331,1.915495438164816,-0.05179251943686294
2.91407846586483,-0.9036041203329693,1.5646203615597212,1.915274847842887,-0.053511759954539106
2.903225282192327,-0.9036132098655556,1.5759288852943971,1.9150503032927866,-0.055194436292443826
2.892170518559949,-0.9036211785687379,1.5871011298321203,1.9148218944126352,-0.05683643583141152
2.8809177891897315,-0.9036279597257495,1.5981375822775508,1.914589711100553,-0.05843364595227668
2.869470708303709,-0.9036334866198235,1.60903872973535,1.9143538432546596,-0.05998195403587371
2.8578328901239174,-0.9036376925341928,1.619805059310177,1.9141143807730756,-0.06147724746303705
2.8460079488723897,-0.9036405107520907,1.630437058106692,1.913871413553921,-0.06291541361460119
2.833999498771162,-0.9036418745567504,1.6409352132295554,1.9136250314953158,-0.06429233987140053
2.821811154042269,-0.9036417172314049,1.651300011783427,1.9133753244953804,-0.0656039136142695
2.8094465289077446,-0.9036399720592874,1.661531940872967,1.9131223824522348,-0.06684602222404265
2.7969092375896243,-0.9036365723236308,1.671631487602836,1.912866295263999,-0.06801455308155428
2.7842028943099426,-0.9036314513076686,1.6815991390776934,1.9126071528287933,-0.06910539356763892
2.771331113290735,-0.9036245422946337,1.6914353824021995,1.9123450450447377,-0.070114431063131
2.7582975087540347,-0.9036157785677593,1.701140704681015,1.9120800618099523,-0.07103755294886496
2.745105694921878,-0.9036050934102783,1.7107155930187994,1.9118122930225574,-0.07187064660567527
2.731759286016298,-0.9035924201054241,1.7201605345202127,1.9115418285806731,-0.07260959941439636
2.7182618962593317,-0.9035776919364297,1.7294760162899157,1.9112687583824195,-0.07325029875586268
2.7046171398730117,-0.9035608421865281,1.7386625254325676,1.9109931723259166,-0.07378863201090859
2.690828631079374,-0.9035418041389527,1.7477205490528296,1.9107151603092845,-0.07422048656036867
2.6768999841004533,-0.9035205110769366,1.7566505742553615,1.9104348122306434,-0.0745417497850773
2.662834813158284,-0.9034968962837127,1.7654530881448225,1.9101522179881136,-0.0747483090658689
2.6486367324749005,-0.9034708930425142,1.7741285778258735,1.909867467479815,-0.07483605178357797
2.6343093562723388,-0.9034424346365741,1.7826775304031748,1.909580650603868,-0.0748008653190389
2.6198562987726324,-0.9034114543491258,1.7911004329813858,1.9092918572583921,-0.07463863705308621
2.605281174197817,-0.9033778854634025,1.799397772665167,1.9090011773415083,-0.07434525436655426
2.5905875967699266,-0.9033416612626369,1.807570036559179,1.9087087007513361,-0.07391660464027752
2.575779180710996,-0.9033027150300624,1.8156177117680812,1.9084145173859959,-0.0733485752550905
2.560859540243061,-0.9032609800489121,1.823541285396534,1.9081187171436076,-0.07263705359182757
2.545832289588155,-0.9032163896024191,1.8313412445491974,1.9078213899222918,-0.07177792703132316
2.530701042968314,-0.9031688769738164,1.8390180763307318,1.9075226256201678,-0.07076708295441178
2.515469414605572,-0.9031183754463374,1.8465722678457972,1.9072225141353567,-0.06960040874192783
2.5001410187219637,-0.9030648183032148,1.8540043061990534,1.906921145365978,-0.06827379177470574
2.4847194695395243,-0.9030081388276823,1.8613146784951609,1.9066186092101518,-0.06678311943358009
2.4692083812802883,-0.9029482703029724,1.8685038718387799,1.9063149955659986,-0.06512427909938517
2.4536113681662903,-0.9028851460123188,1.87557237333457,1.9060103943316384,-0.06329315815295539
2.4379320444195653,-0.9028186992389542,1.8825206700871917,1.9057048954051912,-0.061285643975125426
2.4221740242621483,-0.9027488632661119,1.889349249201305,1.905398588684777,-0.05909762394672946
2.4063409219160734,-0.902675571377025,1.89605859778157,1.9050915640685162,-0.056724985448602105
2.3904363516033764,-0.9025987568549266,1.902649202932647,1.904783911454529,-0.05416361586157781
2.374463927546091,-0.9025183529830499,1.909121551759196,1.904475720740935,-0.05140940256649085
2.3584272639662527,-0.902434293044628,1.9154761313658768,1.9041670818258551,-0.04845823294417584
2.342329975085896,-0.9023465103228939,1.92171342885735,1.903858084607409,-0.04530599437546712
2.3261756751270553,-0.9022549381010808,1.927833931338276,1.9035488189837164,-0.041948574241199243
2.3099679783117657,-0.902159509662422,1.933838125913314,1.9032393748528984,-0.038381859922206496
2.293710498862062,-0.9020601582901502,1.9397264996871244,1.9029298421130745,-0.0346017387993236
2.277406850999979,-0.901956817267499,1.9454995397643675,1.9026203106623645,-0.030604098253384726
2.2610606489475513,-0.9018494198777012,1.9511577332497039,1.9023108703988891,-0.026384825665224487
2.244675506926814,-0.90173789940399,1.9567015672477934,1.9020016112207685,-0.02193980841567722
2.228255039159801,-0.9016221891295986,1.9621315288632954,1.9016926230261226,-0.017264933885577316
2.2118028598685484,-0.90150222233776,1.9674481052008705,1.9013839957130716,-0.01235608945575939
2.19532258327509,-0.9013779323117074,1.972651783365179,1.9010758191797354,-0.00720916250705772
2.178817823601461,-0.901249252334674,1.977743050460881,1.9007681833242343,-0.0018200404203070342
2.1622921950696954,-0.9011161156898929,1.9827223935926364,1.9004611780446883,0.003815389423658555
2.1457493119018287,-0.900978455660597,1.9875902998651056,1.9001548932392178,0.009701239644004489
2.129192788319896,-0.9008362055300198,1.992347256382948,1.8998494188059425,0.01584162285989632
2.112626238545931,-0.9006892985813939,1.996993750250825,1.899544844642983,0.022240651690499602
2.0960532768019693,-0.9005376680979529,2.0015302685733958,1.8992412606484592,0.028902438754979776
2.0794775173100453,-0.9003812473629298,2.0059572984553204,1.8989387567204914,0.035831096672502394
2.0629025742921936,-0.9002199696595576,2.0102753270012594,1.8986374227571992,0.04303073806223345
2.0463320619704493,-0.9000537682710696,2.0144848413158725,1.8983373486567034,0.05050547554333795
2.0297695945668472,-0.8998825764806988,2.01858632850382,1.8980386243171237,0.058259421734981665
2.013218786303422,-0.8997063275716782,2.022580275669762,1.8977413396365803,0.06629668925633003
1.9966832514022084,-0.8995249548272412,2.026467169918359,1.8974455845131935,0.07462139072654905
1.9801666040852413,-0.8993383915306208,2.030247498354271,1.8971514488450831,0.0832376387648035
1.963672458574555,-0.89914657096505,2.033921748082157,1.8968590225303696,0.09214954599025982
1.9472044290921853,-0.8989494264137622,2.0374904062066785,1.896568395467173,0.10136122502208278
1.9307661298601655,-0.8987468911599902,2.0409539598324953,1.8962796575536132,0.11087678847943827
1.9143611751005314,-0.8985388984869674,2.0443128960642674,1.8959928986878105,0.12070034898149207
1.8979931790353168,-0.8983253816779267,2.047567702006655,1.8957082087678854,0.1308360191474094
1.8816657558865586,-0.8981062740161014,2.0507188647643178,1.8954256776919571,0.14128791159635623
1.865382519876289,-0.8978815087847246,2.0537668714419164,1.8951453953581467,0.15206013894749737
1.8491470852265444,-0.8976510192670294,2.05671220914411,1.8948674516645738,0.16315681381999902
1.8329630661593588,-0.8974147387462489,2.0595553649755605,1.8945919365093586,0.17458204883302653
1.8168340768967675,-0.897172600505616,2.0622968260409267,1.8943189397906213,0.18633995660574565
1.8007637316608047,-0.8969245378283642,2.0649370794448685,1.894048551406482,0.19843464975732128
1.7847556446735053,-0.8966704839977265,2.067476612292047,1.8937808612550608,0.21087024090691997
1.7688134301569038,-0.896410372296936,2.0699159116871213,1.893515959234478,0.2236508426737066
1.7529407023330363,-0.8961441360092257,2.072255464734752,1.8932539352428532,0.23678056767684663
1.7371410754239363,-0.895871708417829,2.0744957585395998,1.892994879178307,0.2502635285355064
1.7214181636516392,-0.8955930228059787,2.076637280206324,1.8927388809389598,0.2641038378688505
1.7057755812381787,-0.8953080124569082,2.0786805168395848,1.892486030422931,0.2783056082960449
1.6902169424055908,-0.8950166106538504,2.0806259555440425,1.8922364175283413,0.29287295243625533
1.6747458613759096,-0.8947187506800386,2.0824740834243576,1.8919901321533104,0.30780998290864714
1.6593659523711703,-0.8944143658187058,2.0842253875851897,1.8917472641959587,0.3231208123323861
1.644080829613407,-0.8941033893530852,2.0858803551311986,1.8915079035544062,0.3388095533266372
1.6288941073246552,-0.89378575456641,2.0874394731670454,1.8912721401267731,0.35488031851056656
1.6138093997269494,-0.8934613947419131,2.088903228797389,1.8910400638111797,0.3713372205033396
1.5988303210423238,-0.8931302431628277,2.090272109126891,1.8908117645057458,0.3881843719241219
1.583960485492814,-0.892792233112387,2.0915466012602106,1.8905873321085918,0.4054258853920786
1.5692035073004547,-0.8924472978738242,2.0927271923020077,1.8903668565178373,0.42306587352637615
1.5545630006872804,-0.8920953707303723,2.093814369356943,1.890150427631603,0.4411084489461796
1.540042579875325,-0.8917363849652643,2.094808619529676,1.889938135348009,0.4595577242706539
1.5256458590866249,-0.8913702738617335,2.0957104299248672,1.8897300695651753,0.4784178121189657
1.5113764525432138,-0.890996970703013,2.096520287647177,1.8895263201812218,0.49769282511027946
1.497237974467127,-0.8906164087723359,2.097238679801265,1.8893269770942687,0.5173868758637621
1.4832340390803984,-0.8902285213529353,2.0978660934917914,1.8891321302024366,0.5375040769985775
1.4693682606050642,-0.8898332417280445,2.0984030158234166,1.8889418694038451,0.5580485411338925
1.455644253263158,-0.8894305031808962,2.0988499339008007,1.8887562845966144,0.5790243808888726
1.4420656312767148,-0.8890202389947239,2.0992073348286038,1.888575465678865,0.6004357088826824
1.4286360088677694,-0.8886023824527607,2.0994757057114852,1.8883995025487166,0.6222866377344884
1.4153590002583574,-0.8881768668382397,2.099655533654106,1.8882284851042894,0.6445812800634558
1.4022382196705119,-0.8877436254343938,2.0997473057611264,1.8880625032437037,0.6673237484887502
1.3892772813262686,-0.8873025915244563,2.0997515091372065,1.8879016468650796,0.6905181556295366
1.3764797994476625,-0.8868536983916604,2.0996686308870056,1.887746005866537,0.7141686141049817
1.3638493882567277,-0.8863968793192392,2.099499158115184,1.8875956701461962,0.7382792365342505
1.3513896619754995,-0.8859320675904256,2.0992435779264023,1.8874507296021774,0.7628541355365079
1.3391042348260134,-0.8854591964884528,2.09890237742532,1.8873112741326006,0.7878974237309206
1.3269967210303022,-0.8849781992965542,2.098476043716598,1.8871773936355858,0.8134132137366537
1.315070734810402,-0.8844890092979627,2.0979650639048963,1.8870491780092538,0.8394056181728724
1.3033298903883475,-0.8839915597759114,2.0973699250948745,1.8869267171517237,0.8658787496587419
1.2917778019861734,-0.8834857840136334,2.0966911143911933,1.8868101009611165,0.8928367208134294
1.2804180838259138,-0.8829716152943621,2.095929118898512,1.8866994193355517,0.9202836442560993
1.269254350129604,-0.8824489869013301,2.0950844257214913,1.8865947621731498,0.948223632605917
1.2582902151192794,-0.8819178321177712,2.094157521964791,1.886496219372031,0.9766607984820481
1.247529293016974,-0.8813780842269179,2.093148894733072,1.886403880830315,1.0055992545036585
1.2369751980447226,-0.8808296765120037,2.0920590311309937,1.8863178364461222,1.0350431132899136
1.22663154442456,-0.8802725422562615,2.090888418263216,1.8862381761175728,1.0649964874599789
1.216501946378521,-0.8797066147429246,2.0896375432343994,1.8861649897427868,1.0954634896330206
1.2065900181286398,-0.879131827255226,2.0883068931492055,1.8860983672198843,1.1264482324282032
1.1968993738969518,-0.878548113076399,2.0868969551122913,1.8860383984469857,1.1579548284646932
1.1874336279054933,-0.8779554054896764,2.085408216228319,1.8859851733222106,1.189987390361656
1.1781963943762963,-0.8773536377782918,2.0838411636019485,1.8859387817436797,1.2225500307382557
1.1691912875313952,-0.8767427432254778,2.082196284337839,1.8858993136095126,1.2556468622136596
1.1604219215928278,-0.8761226551144679,2.0804740655406517,1.8858668588178298,1.2892819974070329
1.1518919107826284,-0.8754933067284951,2.078674994315046,1.8858415072667514,1.3234595489375407
1.1436048693228296,-0.8748546313507923,2.076799557765683,1.8858233488543976,1.35818362942435
1.1355644114354675,-0.8742065622645931,2.0748482429972217,1.8858124734788881,1.3934583514866228
1.1277741513425767,-0.8735490327531302,2.072821537114323,1.8858089710383432,1.4292878277435288
1.1202377032661914,-0.8728819760996371,2.070719927221646,1.8858129314308836,1.465676170814231
1.1129586814283474,-0.8722053255873464,2.0685439004238524,1.8858244445546286,1.5026274933178962
1.1059407000510793,-0.8715190144994918,2.0662939438256007,1.8858436003076986,1.5401459078736885
1.0991873733564206,-0.870822976119306,2.0639705445315526,1.8858704885882138,1.5782355271007755
1.0927023155664077,-0.8701171437300222,2.061574189646366,1.8859051992942946,1.6169004636183215
1.086489140903074,-0.8694014506148737,2.0591053662747036,1.8859478223240609,1.6561448300454917
1.080551463588455,-0.8686758300570936,2.056564561521224,1.8859984475756324,1.6953667675466755
1.074892897844586,-0.8679402153399149,2.0539522624905873,1.8860571649471298,1.7341915435818236
1.0695170578935005,-0.8671945397465707,2.0512689562874544,1.886124064336673,1.7726208603520908
1.0644275579572344,-0.8664387365602942,2.0485151300164843,1.8861992356423822,1.8106564200586275
1.0596280122578214,-0.8656727390643185,2.0456912707823376,1.8862827687623775,1.848299924902589
1.0551220350172974,-0.8648964805418768,2.0427978656896757,1.886374753594779,1.8855530770851219
1.050913240457696,-0.8641098942762021,2.039835401843156,1.886475280037707,1.9224175788073883
1.0470052428010534,-0.8633129135505276,2.0368043663474418,1.8865844379892813,1.9588951322705308
1.0434016562694026,-0.8625054716480864,2.0337052463071905,1.886702317347622,1.9949874396757137
1.0401060950847794,-0.8616875018521115,2.030538528827064,1.8868290080108499,2.0306962032240814
1.0371221734692186,-0.8608589374458363,2.0273047010117207,1.886964599877084,2.0660231251167893
1.034453505644755,-0.8600197117124937,2.0240042499658224,1.8871091828444455,2.1009699075549895
1.032103705833423,-0.8591697579353169,2.020637662794029,1.8872628468110542,2.135538252739837
1.0300763882572572,-0.8583090093975392,2.0172054266009996,1.8874256816750299,2.1697298628724804
1.028375167138293,-0.8574373993823933,2.013708028491396,1.8875977773344932,2.20354644015408
1.0270036566985645,-0.8565548611731126,2.010145955569877,1.8877792236875637,2.236989686785779
1.0259654711601067,-0.8556613280529304,2.006519694941102,1.8879701106323616,2.2700613049687384
1.025264224744956,-0.8547567333050794,2.0028297337097327,1.8881705280670076,2.3027629969041055
1.024903531675145,-0.8538410102127929,1.999076558980428,1.8883805658896216,2.3350964647930392
1.0248870061727091,-0.8529140920593042,1.9952606578578487,1.8886003139983234,2.3670634108366846
1.0252182624596822,-0.8519759121278463,1.9913825174466548,1.8888298622912332,2.3986655372362
1.0259009147581004,-0.8510264037016522,1.9874426248515067,1.8890693006664712,2.4299045461927387
1.0269385772899984,-0.8500655000639551,1.9834414671770642,1.8893187190221579,2.4607821399074483
1.0283348642774088,-0.8490931344979882,1.9793795315279876,1.8895782072564127,2.4913000205814875
1.0300933899423708,-0.8481092402869845,1.9752573050089366,1.8898478552673565,2.521459890416004
1.0322177685069152,-0.8471137507141774,1.971075274724572,1.8901277529531089,2.5512634516121566
1.0347116141930774,-0.8461065990627996,1.966833927779553,1.8904179902117901,2.5807124063710907
1.037578541222893,-0.8450877186160844,1.9625337512785412,1.8907186569415202,2.6098084568939655
1.0408221638183983,-0.8440570426572652,1.958175232326195,1.8910298430404198,2.638553305381931
1.0444460962016242,-0.8430145044695748,1.953758858027175,1.891351638406608,2.666948654036145
1.0484539525946097,-0.8419600373362462,1.949285115486142,1.891684132938206,2.6949962050577474
1.0525971901916944,-0.8408935745405131,1.944754491807756,1.8920274165333337,2.722697660647906
1.056612544989803,-0.8398150493656079,1.940167474096676,1.8923815790901108,2.7500547230077648
1.0605007902439392,-0.8387243950947643,1.9355245494575635,1.8927467105066575,2.77706909433848
1.0642626992091115,-0.8376215450112151,1.930826204995078,1.8931229006810941,2.8037424768412027
1.0678990451403192,-0.8365064323981936,1.9260729278138797,1.893510239511541,2.830076572717089
1.0714106012925695,-0.8353789905389326,1.9212652050186283,1.893908816896118,2.8560730841672854
1.0747981409208676,-0.8342391527166658,1.916403523713985,1.894318722732945,2.881733713392951
1.0780624372802134,-0.8330868522146258,1.9114883710046084,1.8947400469201428,2.9070601625952373
1.0812042636256154,-0.831922022316046,1.9065202339951601,1.8951728793558307,2.9320541339752935
1.0842243932120788,-0.8307445963041593,1.901499599790299,1.8956173099381295,2.956717329734275
1.0871235992946033,-0.8295545074621992,1.8964269554946869,1.8960734285651588,2.981051452073333
1.0899026551281958,-0.8283516890733984,1.8913027882129814,1.8965413251350391,3.00505820319363
1.0925623339678625,-0.8271360744209902,1.8861275850498453,1.8970210895458905,3.0287392852963007
1.0951034090686051,-0.8259075967882078,1.8809018331099354,1.897512811695833,3.052096400582514
1.0975266536854271,-0.8246661894582842,1.8756260194979164,1.898016581482987,3.075131251253414
1.0998328410733356,-0.8234117857144526,1.8703006313184436,1.898532488805472,3.0978455395101583
1.1020227444873338,-0.8221443188399461,1.864926155676181,1.899060623561409,3.1202409675538965
1.1040971371824266,-0.8208637221179979,1.8595030796757852,1.8996010756489174,3.1423192375857836
1.1060567924136158,-0.8195699288318408,1.854031890421921,1.9001539349661174,3.164082051806972
1.10790248343591,-0.8182628722647084,1.8485130750192424,1.9007192914111295,3.1855311124186128
1.1096349835043091,-0.8169424856998335,1.8429471205724164,1.9012972348820736,3.2066681216218593
1.11125506587382,-0.8156087024204492,1.8373345141860964,1.90188785527707,3.2274947816178687
1.112763503799447,-0.8142614557097889,1.831675742964948,1.9024912424942384,3.2480127946077895
1.114161070536194,-0.8129006788510855,1.8259712940136268,1.9031074864316995,3.2682238627927735
1.1154485393390638,-0.8115263051275723,1.8202216544367973,1.903736676987573,3.2881296883739766
1.1166266834630656,-0.8101382678224821,1.8144273113391156,1.904378904059979,3.3077319735525514
1.1176962761631966,-0.8087365002190483,1.8085887518252446,1.905034257547038,3.3270324205296475
1.118658090694467,-0.807320935600504,1.8027064629998437,1.90570282734687,3.346032731506419
1.119512900311879,-0.8058915072500823,1.7967809319675725,1.906384703357595,3.364734608684022
1.1202614782704357,-0.8044481484510162,1.7908126458330909,1.9070799754773329,3.3831397542636066
1.120904597825143,-0.8029907924865389,1.7848020917010599,1.9077887336042043,3.4012498704463296
1.1214430322310065,-0.8015193726398837,1.7787497566761399,1.908511067636329,3.4190666594333345
1.1218775547430262,-0.8000338221942835,1.772656127862989,1.9092470674718274,3.4365918234257813
1.1222089386162104,-0.7985340744329714,1.76652169236627,1.9099968230088196,3.4538270646248215
1.1224379571055627,-0.7970200626391806,1.7603469372906404,1.9107604241454255,3.4707740852316147
1.1225653834660871,-0.7954917200961443,1.7541323497407622,1.9115379607797651,3.487434587447295
1.1225919909527862,-0.7939489800870956,1.7478784168212944,1.912329522809959,3.5038102734730345
1.1225185528206685,-0.7923917758952675,1.7415856256368982,1.913135200134127,3.5199028455099817
1.1223458423247323,-0.7908200408038931,1.7352544632922329,1.9139550826503893,3.535714005759284
1.122074632719987,-0.7892337080962057,1.7288854168919592,1.9147892602568661,3.551245456422099
1.1217056972614354,-0.7876327110554385,1.7224789735407364,1.9156378228516775,3.5664988996995657
1.1212398092040818,-0.7860169829648245,1.7160356203432257,1.9165008603329434,3.581476037792857
1.1206777418029317,-0.7843864571075965,1.7095558444040864,1.9173784625987844,3.5961785729031206
1.1200202683129847,-0.7827410667669881,1.703040132827979,1.91827071954732,3.6106082072315067
1.1192681619892528,-0.7810807452262322,1.6964889727195622,1.9191777210766712,3.6247666429791607
1.1184221960867333,-0.779405425768562,1.689902851183499,1.920099557084957,3.638655582347244
1.117483143860433,-0.7777150416772105,1.6832822553244464,1.9210363174702985,3.6522767275369104
1.1164517785653598,-0.776009526235411,1.6766276722470674,1.9219880921308152,3.665631780749308
1.1153288734565123,-0.7742888127263965,1.6699395890560202,1.9229549709646276,3.6787224441855946
1.1141152017888971,-0.7725528344334002,1.6632184928559652,1.9239370438698558,3.691550420046914
1.1128115368175204,-0.7708015246396551,1.6564648707515635,1.9249344007446196,3.704117410534429
1.1114186517973819,-0.7690348166283943,1.649679209847473,1.9259471314870396,3.7164251178492904
1.109937319983493,-0.7672526436828512,1.6428619972483565,1.9269753259952356,3.7284752441926488
1.1083683146308525,-0.7654549390862586,1.6360137200588727,1.9280190741673278,3.740269491765651
1.1067124089944653,-0.76364163612185,1.6291348653836812,1.9290784659014364,3.75180956276946
1.104970376329335,-0.761812668072858,1.6222259203274436,1.9301535910956813,3.7630971594052296
1.1031429898904719,-0.7599679682225162,1.6152873719948189,1.9312445396481828,3.774133983874105
1.1012310229328732,-0.7581074698540575,1.6083197074904672,1.932351401457061,3.7849217383772373
1.0992352487115458,-0.756231106250715,1.601323413919049,1.9334742664204363,3.7954621251157876
1.0971564404814957,-0.7543388106957221,1.5942989783852255,1.9346132244364282,3.8057568462909064
1.094995371497724,-0.7524305164723115,1.587246887993654,1.9357683654031572,3.815807604103748
1.0927528150152384,-0.7505061568637165,1.580167629848998,1.9369397792187442,3.825616100755462
1.09042954428904,-0.7485656651531704,1.5730616910559145,1.9381275557813078,3.835184038447192
1.0880263325741382,-0.746608974623906,1.5659295587190656,1.939331784988969,3.844513119380111
1.0855439531255322,-0.7446360185591567,1.5587717199431115,1.9405525567398478,3.8536050457553586
1.0829831791982265,-0.7426467302421554,1.5515886618327113,1.9417899609320641,3.8624615197740884
1.0803447840472291,-0.7406410429561355,1.5443808714925251,1.9430440874637385,3.871084243637452
1.0776295409275396,-0.7386188899843299,1.5371488360272139,1.9443150262329911,3.8794749195466105
1.0748382230941673,-0.7365802046099719,1.529893042541437,1.9456028671379415,3.887635249702715
1.0719716038021128,-0.7345249201162944,1.522613978139855,1.9469077000767103,3.895566936306915
1.0690304563063835,-0.7324529697865305,1.515312129927128,1.9482296149474172,3.903271681560355
1.06601555386198,-0.7303642869039138,1.507987985007916,1.9495687016481829,3.9107511876642027
1.0629276697239116,-0.7282588047516767,1.5006420304868793,1.950925050077127,3.9180071568196064
1.0597675771471762,-0.726136456613053,1.4932747534686772,1.9522987501323699,3.9250412912277133
1.0565360493867821,-0.7239971757712754,1.485886641057971,1.9536898917120316,3.9318552930896775
1.0532338596977344,-0.7218408955095772,1.4784781803594205,1.9550985647142325,3.9384508646066614
1.049861781335038,-0.7196675491111914,1.4710498584776845,1.9565248590370925,3.9448297079798076
1.0464205875536927,-0.7174770698593512,1.4636021625174247,1.9579688645787314,3.950993525410273
1.042911051608706,-0.7152693910372898,1.4561355795833002,1.9594306712372698,3.956944019099204
1.0393339467550828,-0.7130444459282402,1.4486505967799732,1.9609103689108278,3.962682891247762
1.035690046247825,-0.7108021678154355,1.441147701212101,1.9624080474975256,3.968211844057098
1.0319801233419406,-0.708542489982109,1.433627379984346,1.9639237968954828,3.9735325797283707
1.0282049512924312,-0.7062653457114936,1.4260901202013663,1.96545770700282,3.9786468004627134
1.024365303354298,-0.7039393338039925,1.4185364089678243,1.9670098677176573,3.983556208461298
1.0204619527825511,-0.7015535869910567,1.4109667333883769,1.9685803689381147,3.988262505925273
1.0164956728321957,-0.6991087736507016,1.4033815805676872,1.9701693005623122,3.992767395055788
1.01246723675823,-0.6966055621609368,1.395781437610415,1.9717767524883703,3.9970725780539986
1.0083774178156624,-0.6940446208997786,1.388166791621218,1.9734028146144087,4.001179757121045
1.004226989259498,-0.6914266182452362,1.380538129704758,1.975047576838548,4.005090634458103
1.0000167243447349,-0.6887522225753284,1.3728959389656974,1.976711129058908,4.008806912266313
0.9957473963263843,-0.6860221022680628,1.3652407065086902,1.9783935611736085,4.012330292746816
0.9914197784594507,-0.683236925701451,1.3575729194384034,1.9800949630807705,4.015662478100786
0.9870346439989328,-0.6803973612535144,1.3498930648594936,1.9818154246785133,4.01880517052937
0.9825927661998346,-0.6775040773022627,1.3422016298766208,1.9835550358649576,4.021760072233715
0.978094918317169,-0.674557742225701,1.3344991015944454,1.9853138865382232,4.024528885414982
0.9735418736059356,-0.6715590244018528,1.3267859671176288,1.9870920665964305,4.027113312274307
0.9689344053211384,-0.6685085922087262,1.3190627135508293,1.9888896659376991,4.02951505501286
0.9642732867177775,-0.665407114024335,1.311329827998708,1.9907067744601497,4.03173581583179
0.959559291050867,-0.6622552582266912,1.3035877975659247,1.9925434820619021,4.033777296932248
0.9547931915754013,-0.6590536931938096,1.2958371093571395,1.9943998786410766,4.035641200515384
0.9499757615463889,-0.6558030873037031,1.2880782504770125,1.9962760540957933,4.037329228782351
0.9451077742188385,-0.6525041089343824,1.2803117080302053,1.9981720983241722,4.0388430839343155
0.9401900028477459,-0.6491574264638635,1.2725379691213754,2.0000881012243337,4.040184468172409
0.9352232206881208,-0.645763708270156,1.2647575208551847,2.0020241526943976,4.041355083697793
0.9302082009949664,-0.6423236227312783,1.2569708503362942,2.003980342632484,4.042356632711629
0.9251457170232897,-0.6388378382252382,1.2491784446693597,2.005956760936713,4.043190817415065
0.9200365420280896,-0.6353070231300504,1.2413807909590475,2.0079534975052056,4.043859340009247
0.9148814492643731,-0.6317318458237273,1.2335783763100125,2.009970642236081,4.044363902695329
0.9096812119871482,-0.6281129746842868,1.2257716878269158,2.012008285027459,4.044706207674473
0.9044366034514124,-0.6244510780897321,1.217961212614421,2.014066515777461,4.044887957147822
0.8991483969121754,-0.6207468244180867,1.2101474377771861,2.016145424384206,4.044910853316534
0.8938173656244386,-0.6170008820473569,1.2023308504198695,2.0182451007458146,4.044776598381768
0.888444282843202,-0.6132139193555575,1.1945119376471318,2.020365634760407,4.044486894544663
0.8830299218234838,-0.6093866047207035,1.186691186563635,2.022507116326103,4.04404344400638
0.877575055820274,-0.6055196065208044,1.1788690842740381,2.024669635341023,4.043447948968073
0.8720804580885861,-0.601613593133874,1.1710461178830016,2.0268532817032874,4.042702111630891
0.8665469018834191,-0.5976692329379278,1.1632227744951846,2.0290581453110157,4.041807634195976
0.8609751604597804,-0.593687194310978,1.15539954121525,2.031284316062328,4.040766218864508
0.8553660070726723,-0.5896681456310353,1.1475769051478544,2.0335318838553453,4.039579567837626
0.8497202149770979,-0.585612755276117,1.1397553533976574,2.035800938588187,4.0382493833164705
0.8440385574280667,-0.5815216916242312,1.1319353730693238,2.038091570158973,4.0367773675022125
0.838321807680579,-0.5773956230533943,1.1241174512675092,2.040403868465824,4.0351652225959995
0.8325707389896397,-0.5732352179416167,1.1163020750968768,2.04273792340686,4.03341465079898
0.8267861246102548,-0.5690411446669144,1.1084897316620852,2.045093824880201,4.03152735431231
0.8209687377974229,-0.5648140716072958,1.1006809080677948,2.0474716627839675,4.029505035337136
0.8151193518061577,-0.5605546671407815,1.0928760914186668,2.049871527016279,4.027349396074616
0.809238739891458,-0.5562635996453777,1.0850757688193595,2.052293507475256,4.025062138725922
0.8033276753083278,-0.5519415374991001,1.0772804273745336,2.054737694059019,4.022644965492168
0.7973869313117703,-0.547589149079962,1.0694905541888473,2.057204176665687,4.020099578574538
0.7914172811567957,-0.543207102765976,1.0617066363669658,2.0596930451933813,4.017427680174162
0.7854194980984017,-0.5387960669351521,1.0539291610135457,2.0622043895402213,4.014630972492222
0.7793943553915943,-0.5343567099655093,1.0461586152332454,2.0647382996043273,4.011711157729843
0.7733426262913801,-0.5298897002350555,1.0383954861307307,2.0672948652838197,4.008669938088197
0.767265084052764,-0.5253957061218069,1.030640260810654,2.0698741764768185,4.0055090157684194
0.7611625019307482,-0.5208753960037757,1.0228934263776828,2.0724763230814434,4.002230092971667
0.7550356531803342,-0.5163294382589747,1.0151554699364742,2.0751013949958153,3.9988348718991187
0.748885311056533,-0.5117585012654153,1.0074268785916853,2.0777494821180538,3.9953250547518895
0.7427122488143469,-0.507163253401111,0.999708139447983,2.080420674346279,3.9917023437311503
0.7365172397087729,-0.5025443630440805,0.9919997396100189,2.083115061578611,3.9879684410380527
0.7303010569948274,-0.49790249857232993,0.9843021661824611,2.0858327337131706,3.9841250488737536
0.7240644739275073,-0.49323832836387105,0.9766159062699669,2.088573780648077,3.9801738694394047
0.7178082637618148,-0.4885525207967234,0.9689414469771949,2.0913382922814505,3.976116604936143
0.7115331997527603,-0.4838457442488977,0.9612792754088058,2.0941263585114123,3.9719549575651403
0.7052400551553504,-0.4791186670984029,0.953629878669461,2.096938069236081,3.967690629527551
0.6989296032245731,-0.4743719577232577,0.9459937438638182,2.099773514353578,3.963325323024508
0.6926026172154502,-0.4696062845014737,0.9383713580965396,2.1026327837620222,3.958860740257192
0.6862598703829788,-0.4648223158110616,0.930763208472285,2.1055159673595343,3.954298583426734
0.679902135982168,-0.460020720030033,0.9231697820957132,2.1084231550442354,3.9496405547342786
0.6735301872680184,-0.4552021655364076,0.9155915660714871,2.111354436714244,3.9448883563810213
0.6671447974955278,-0.4503673207081915,0.9080290475042654,2.114309902267681,3.9400436905680714
0.6607467399197171,-0.44551685392340357,0.9004827134987048,2.1172896416026665,3.935108259496584
0.6543367877955744,-0.44065143356005443,0.8929530511594717,2.120293744617321,3.9300837653677387
0.6479157143781107,-0.43577172799615305,0.8854405475912213,2.1233223012097637,3.9249719103826717
0.6414842929223319,-0.43087840560971813,0.8779456898986155,2.1263754012781155,3.9197743967425467
0.6350432966832402,-0.4259721347787613,0.8704689651863169,2.1294531347204964,3.914492926648501
0.6285934989158362,-0.42105358388129144,0.8630108605589797,2.1325555914350263,3.90912920230169
0.6221356728751299,-0.4161234212953282,0.8555718631212681,2.1356828613198253,3.9036849259032795
0.6156705918161292,-0.41118231539888495,0.848152459977844,2.138835034273014,3.8981617996544102
0.6091990289938272,-0.4062309345699644,0.8407531382333624,2.142012200192712,3.8925615257562587
0.6027217576632369,-0.4012699471865897,0.8333743849924873,2.1452144489770393,3.8868858064099303
0.5962395510793597,-0.3963000216267689,0.8260166873598771,2.148441870524117,3.881136343816612
0.589753182497196,-0.3913218262685181,0.818680532440192,2.151694554732064,3.8753148401774684
0.5832634251717614,-0.386336029489847,0.811366407338094,2.1549725914990012,3.8694229976936274
0.5767710523580512,-0.38134329966877356,0.8040747991582418,2.1582760707230486,3.8634625185662337
0.5702768373110683,-0.3763443051833022,0.796806195005292,2.161605082302326,3.857435104996471
0.5637815532858239,-0.3713397144114561,0.7895610819839112,2.164959716134954,3.8513424591854655
0.5572859735373186,-0.3663301957312406,0.782339947198758,2.1683400621190527,3.8451862833343906
0.5507908713205527,-0.3613164175206727,0.7751432777544895,2.1717462101527416,3.8389682796443854
0.5442970198905392,-0.3562990481577666,0.7679715607557673,2.1751782501341417,3.8326901503166084
0.5378051925022733,-0.35127875602053216,0.7608252833072511,2.178636271961372,3.826353597552206
0.531316162410767,-0.346256209486981,0.7537049325136014,2.182120365532554,3.819960323552353
0.5248307028710224,-0.3412320769351309,0.7466109954794771,2.1856306207458065,3.813512030518149
0.5183495871380455,-0.33620702674299263,0.7395439593095396,2.1891671274992506,3.807010420650821
0.5118735884668348,-0.3311817272885751,0.7325043111084524,2.1928093287149686,3.800457196151461
0.5054034801123963,-0.32615684694989877,0.7254925379808697,2.1965886783007704,3.793854059221255
0.4989400353297384,-0.32113305410497617,0.7185091270314539,2.2005024292352218,3.787202712061342
0.4924840273738669,-0.3161110171318109,0.7115545653648656,2.2045478344967577,3.7805048568728896
0.486036229499776,-0.31109140440842786,0.7046293400857655,2.2087221470638347,3.7737621958570227
0.47959741496247954,-0.3060748843128307,0.6977339382988124,2.213022619914913,3.7669764312149177
0.47316835701697624,-0.3010621252230399,0.6908688471086668,2.217446506028402,3.760149265147721
0.4667498289182772,-0.29605379551706257,0.6840345536199903,2.221991058382759,3.753282399856598
0.4603426039213794,-0.29105056357291037,0.6772315449374391,2.2266535299564723,3.746377537542674
0.45394745528128677,-0.28605309776861,0.6704603081656781,2.231431173727934,3.739436380407117
0.4475651562530123,-0.28106206648215704,0.6637213304093637,2.2363212426756185,3.732460630651076
0.4411964800915582,-0.276078138091572,0.6570150987731598,2.2413209897779787,3.7254519904757117
0.43484220005191787,-0.27110198097487004,0.65034210036172,2.246427668013414,3.7184121620821777
0.42850308938910686,-0.2661342635100592,0.643702822279713,2.2516385303604416,3.7113428476716166
0.4221799213581239,-0.26117565407515997,0.6370977516317913,2.256950829797457,3.704245749445178
0.41587346921398094,-0.2562268210481795,0.6305273755226208,2.2623618193029245,3.697122569604037
0.40958450621167497,-0.25128843280712765,0.6239921810568569,2.2678687518552785,3.6899750103493325
0.40331380560621,-0.24636115773002576,0.617492655339162,2.2734688804329686,3.682804773882207
0.3970621406525954,-0.24144566419488633,0.6110292854741974,2.2791594580144654,3.6756135624038215
0.3908302846058298,-0.23654262057971387,0.6046025585666222,2.2849377375781827,3.6684030781153396
0.38461901072092175,-0.23165269526252708,0.5982129617210941,2.2908009721025877,3.6611750232179077
0.37842909225287436,-0.22677655662134022,0.5918609820422782,2.2967464145661296,3.653931099912679
0.37226130245669253,-0.2219148730341587,0.585547106634829,2.302771317947215,3.6466730104007894
0.3661164145873794,-0.2170683128790083,0.5792718226034141,2.3088729352243362,3.6394024568834205
0.3599952018999417,-0.21223754453389443,0.5730356170526854,2.315048519375921,3.632121141561697
0.35389843764938256,-0.20742323637682425,0.5668389770873041,2.321295323380447,3.624830766636798
0.347826895090698,-0.2026260567858218,0.5606823898119373,2.3276106002162997,3.6175330343098473
0.34178134747890887,-0.19784667413889778,0.5545663423312392,2.3339916028619676,3.6102296467820345
0.3357625680690077,-0.19308575681405937,0.5484913217498679,2.3404355842958893,3.6029223062544737
0.3297713301159977,-0.1883439731893244,0.542457815172491,2.346939797496514,3.5956127149283397
0.323808406874889,-0.18362199164270265,0.536466309703763,2.3535014954422664,3.5883025750048034
0.3178745716006901,-0.1789204805522111,0.5305172924483452,2.3601179311116063,3.5809935886849686
0.31197059754839174,-0.17424010829586134,0.5246112505108984,2.3667863574830044,3.5736874581700206
0.306097257973013,-0.16958154325166852,0.5187486709960814,2.3735040275348958,3.5663858856611306
0.30025532612954287,-0.16494545379763625,0.5129300410085573,2.380268194245687,3.5590905733593985
0.2944455752730022,-0.1603325083117877,0.5071558476529843,2.3870761105938634,3.5518032234660204
0.2886687786583799,-0.15574337517213532,0.5014265780340219,2.393925029557863,3.5445255381821426
0.2829257095406881,-0.15117872275668276,0.49574271925632907,2.400812204116143,3.537259219708897
0.2772171411749369,-0.14663921944345493,0.4901047584245699,2.4077348872471234,3.5300059702474584
0.27154384681612065,-0.1421255336104581,0.4845131826434006,2.414690331929286,3.5227674919989624
0.2659065997192531,-0.13763833363570832,0.47896847901748263,2.421675791141034,3.5155454871645873
0.2603061731393215,-0.1331782878972092,0.4734711346514775,2.428688517860863,3.508341657945447
0.25474334033135015,-0.12874606477299544,0.4680216366500449,2.4357257650671897,3.501157706542731
0.24921887455032987,-0.12434233264105288,0.4626204721178402,2.442784785738432,3.493995335157585
0.24373354905127087,-0.1199677598794171,0.45726812815953277,2.4498628328530785,3.4868562459911416
0.23828813708918162,-0.11562301486608817,0.4519650918797744,2.4569571593895816,3.479742141244561
0.23288341191905282,-0.11130876597908212,0.44671185038322836,2.4640650183263944,3.4726547231190175
0.2275201467958965,-0.1070256815964079,0.441508890774557,2.4711836626418986,3.465595693815647
0.22219911497472822,-0.10277443009609577,0.43635670015841477,2.4783103453146182,3.458566755535596
0.21692108971053514,-0.09855567985613511,0.43125576563946577,2.485442319322921,3.451569610480032
0.21168684425833106,-0.09437009925455442,0.4262065743223715,2.4925768376453092,3.4446059608500903
0.20649715187311557,-0.0902183566693644,0.42120961331178997,2.499711153260229,3.4376775088469493
0.20135278580989002,-0.08610112047857044,0.41626536971237904,2.5068425191461046,3.4307859566717447
0.19625451932366822,-0.08201905906019391,0.4113743306288047,2.51396818828141,3.423933006525619
0.1912031256694533,-0.07797284079224731,0.4065369831657213,2.5210854136445633,3.4171203606097436
0.18619937810224307,-0.07396313405273602,0.40175381442779123,2.528191448214038,3.410349721125268
0.181244049877046,-0.06999060721967965,0.3970253115196769,2.5352835449682374,3.403622790273335
0.17633791424886525,-0.06605592867109955,0.3923519615460318,2.5423589568856357,3.396941270255109
0.17148174447270215,-0.06215976678498514,0.3877342516115254,2.5494149369446717,3.3903068632717535
0.16667631380356696,-0.05830278993937377,0.3831726688208077,2.5564487381238195,3.383721271524397
0.16192239549646104,-0.05448566651226372,0.3786677002785481,2.5634576134015035,3.377186197214183
0.15722076280638753,-0.050709064881672816,0.374219833089402,2.5704388157561553,3.3707033425422956
0.15257218898835667,-0.04697365342561355,0.3698295543580272,2.577389598166249,3.364274409709896
0.14797744729736806,-0.04328010052210374,0.3654973511890871,2.5843072136102094,3.3579011009180917
0.14343731098841772,-0.03962907454914344,0.36122371068724135,2.591188915066475,3.3515851183680603
0.13895255331653011,-0.03602124388475936,0.3570091199571559,2.5980319555135267,3.345328164260966
0.13452394753668706,-0.032457276906958654,0.3528540661034789,2.604833587929811,3.339131940797934
0.1301522669039077,-0.028937841993755598,0.34875903623087634,2.6115910652937373,3.3329981501801527
0.12583828467319869,-0.025463607523159126,0.3447245174440141,2.6183016405837733,3.3269284946087474
0.12158277409955431,-0.022035241873188838,0.34075099684754395,2.6249625667783576,3.320924676284882
0.11738650843797593,-0.018653413421851894,0.33683896154612647,2.6315710968559642,3.3149883974096923
0.11325026094348623,-0.01531879054716434,0.33298889864442405,2.638124483794982,3.3091213601843528
0.10917480487106879,-0.012032041627140444,0.32920129524709907,2.6446199805739212,3.3033252668100133
0.10516091347574275,-0.008793835039792697,0.32547663845881036,2.6510548401711986,3.297601819487827
0.10120936001250591,-0.005604839163128261,0.321815415384215,2.657426315565253,3.29195272041893
0.0973209177363632,-0.0024657223751702873,0.318218113127978,2.6637316597345304,3.286379671804493
0.0934963599023142,0.0006228469460776154,0.3146852187947564,2.6699681256574905,3.2808843758456483
0.0897364597653727,0.0036602004225994023,0.31121721948920644,2.6761329663125863,3.275468534743599
0.08604199058054363,0.006645669676377253,0.30781460231599755,2.6822234346782494,3.270133850699434
0.08241372560281945,0.009578586329402228,0.3044778543797779,2.688236783732954,3.2648820259143285
0.0788524380872122,0.012458282003667165,0.30120746278522326,2.694170266455089,3.259714762589457
0.07535890128872857,0.015284088321143585,0.2980039146369826,2.7000211358231354,3.2546337629259625
0.07193388846236459,0.01805533690383143,0.2948676970397175,2.7057866448155536,3.2496407291249803
0.06857817286313228,0.020771359373716436,0.2917992970980876,2.711464046410775,3.2447373633876673
0.06529252774603478,0.023431487352780778,0.28879920191675534,2.7170505935872455,3.2399253679151983
0.062077726366077,0.026035052463015518,0.285867898600376,2.722543539323425,3.2352064449087017
0.05893454197825321,0.028581386326404612,0.28300587425362167,2.7279401365977236,3.2305822965693345
0.05586374783758785,0.031069820564937345,0.2802136159811379,2.733237638388637,3.226054625098268
0.05286611719906098,0.033499686800603,0.277491610887596,2.738433297674561,3.221625132696648
0.049942423317698825,0.03587031665538021,0.2748403460776476,2.74352436743397,3.2172955215655996
0.04709343944849387,0.038181041751260025,0.27226030865595874,2.748508100645317,3.213067493906326
0.04431993884644925,0.04043119371023529,0.2697519857271864,2.7533817502870264,3.208942751919931
0.04162269476657343,0.04262010415428641,0.2673158643959894,2.758142569337565,3.2049229978075857
0.03900248046386956,0.044747104705400886,0.26495243176703376,2.7627878107753716,3.201009933770461
0.036460069193344324,0.04681152698556623,0.26266217494497646,2.767314727578899,3.1972052620096747
0.03399623421000442,0.04881270261677706,0.26044558103447457,2.771720572726565,3.1935106847264088
0.03161174876884587,0.05074996322100489,0.2583031371401905,2.7760025991968433,3.1899279041218236
0.029307386124877155,0.05262264042025144,0.2562353303667866,2.780158059968194,3.18645862239703
0.027083919533099632,0.054430065836495345,0.2542426478189217,2.784184208019049,3.18310454175322
0.024942122248519993,0.05617157109172588,0.25232557660125465,2.7880782963278037,3.1798673643915265
0.02288276752614493,0.05784648780792878,0.2504846038184425,2.791837577873018,3.1767487925130986
0.020906628620981138,0.059454147607096886,0.24872021657515297,2.795459305633038,3.1737505283191147
0.019014478788029976,0.060993882111205266,0.24703290197604133,2.798940732586317,3.1708742740107
0.017207091282285703,0.06246502294225209,0.24542314712577173,2.802279111711357,3.1681217317890074
0.01548523935876922,0.06386690172221954,0.2438914391289959,2.8054716959865473,3.1654946038552367
0.013849696272476564,0.06519885007308979,0.24243826509038335,2.808515738390419,3.1629945924104774
0.01230123527840199,0.06646019961686811,0.24106411211458578,2.811408491901311,3.1606233996559183
0.010840629631575283,0.06765028197551892,0.2397694673062709,2.814147209497719,3.1583827277927057
0.009468652586974713,0.06876842877104039,0.2385548177700958,2.816729144158117,3.1562742790219858
0.008186077399628289,0.0698139716254218,0.23742065061071926,2.8191515488609085,3.154299755544926
0.006993677324517833,0.07078624216064355,0.23636745293280192,2.821411676584539,3.1524608595626518
0.005892225616662472,0.07168457199869671,0.23539571184100438,2.823506780307504,3.15075929327633
0.004882495531054687,0.072508292761567,0.2345059144399908,2.825434113008228,3.1491967588871574
0.00396526032271538,0.07325673607124372,0.23369854783441113,2.8271909276651144,3.1477749585962087
0.0031412932466352572,0.07392923354971082,0.23297409912893663,2.8287744772566583,3.146495594604687
0.0024113675578174565,0.0745251168189558,0.23233305542821903,2.8301820147612844,3.145360369113739
0.0017762565112811046,0.07504371750096084,0.23177590383692426,2.8314107931574313,3.144370984324503
0.0012367333620133536,0.07548436721772056,0.23130313145970938,2.8324580654235945,3.1435291424381404
0.0007935713650333298,0.07584639759122602,0.230915225401235,2.833321084538156,3.142836545655797
0.000447543775337067,0.07612914024345052,0.23061267276615993,2.8339971034796108,3.1422948961786474
0.00019942384792237533,0.07633192679639222,0.23039596065914836,2.834483375226384,3.141905896207824
4.99848378101575e-05,0.07645408887203509,0.23026557618485377,2.8347771527569137,3.141671247944487
-7.105427357601002e-15,0.07649495809236129,0.23022200644794566,2.8348756890496674,3.1415926535897896
