oscarkremer/mentor-optimization/notebooks/traject_1/adaptive/angles_1.csv
theta1,theta2,theta3,theta4,theta5
3.1415926535,-0.9030865823619687,2.1246196420553805,1.9200595938963783,8.979318433952318e-11
3.1414201814497065,-0.903106630429133,2.122225367434578,1.9200558787519701,-6.122845752181758e-05
3.1409051747801833,-0.9031664262633965,2.115270842696219,1.920044793250826,-0.00024217235335646334
3.140051247713465,-0.9032654473139152,2.104098516526372,1.9200264272910659,-0.000538718978545198
3.138862014471586,-0.9034031710298454,2.0890508376111083,1.9200008707708103,-0.0009467557139224656
3.1373410892765814,-0.9035790748603428,2.070470254636499,1.9199682135881786,-0.0014621699403227118
3.1354920863504856,-0.9037926362545635,2.0486992162886137,1.9199285456412916,-0.0020808490385803816
3.133318619915334,-0.9040433326616637,2.0240801712535226,1.9198819568282692,-0.0027986803895299187
3.1308243041931605,-0.9043306415307992,1.9969555682172968,1.9198285370472314,-0.0036115513740057684
3.1280127534060007,-0.9046540403111263,1.9676678558660066,1.9197683761962985,-0.004515349372842376
3.1248875817758885,-0.9050130064518007,1.936559482885722,1.9197015641735906,-0.005505961766874185
3.1214524035248594,-0.9054070174019787,1.903972897962514,1.9196281908772277,-0.006579275936935642
3.117710832874948,-0.9058355506108162,1.8702505497824524,1.91954834620533,-0.007731179263861193
3.1136664840481894,-0.9062980835274693,1.8357348870316081,1.9194621200560176,-0.008957559128485275
3.1093229712666175,-0.9067940936010939,1.8007683583960514,1.9193696023274107,-0.010254302911642343
3.1046839087522673,-0.9073230582808463,1.7656934125618529,1.9192708829176295,-0.011617297994166836
3.0997529107271737,-0.9078844550158821,1.7308524982150824,1.919166051724794,-0.013042431756893203
3.0945335914133727,-0.9084777612553577,1.6965880640418107,1.9190551986470243,-0.014525591580655887
3.0890295650328965,-0.909102454448429,1.6632425587281083,1.9189384135824408,-0.016062664846289328
3.0832444458077823,-0.9097580120442521,1.6311584309600458,1.918815786429163,-0.017649538934627975
3.0771818479600634,-0.9104439114919828,1.6006781294236931,1.9186874070853117,-0.019282101226506268
3.070845385711775,-0.9111596302407774,1.572144102805121,1.9185533654490068,-0.020956239102758664
3.064238673284952,-0.9119046457397917,1.5458987997903995,1.9184137514183681,-0.022667839944219594
3.0573653249016286,-0.912678435438182,1.5222846690655998,1.9182686548915162,-0.024412791131723517
3.0502289547838406,-0.913480476785104,1.5016441593167917,1.918118165766571,-0.026186980046104872
3.042833177153622,-0.9143102472297141,1.4843197192300455,1.9179623739416525,-0.027986294068198088
3.035181606233007,-0.915167224221168,1.4706537974914322,1.9178013693148812,-0.02980662057883762
3.0272778562440323,-0.9160508852086219,1.460988842787022,1.917635241784377,-0.03164384695885794
3.01912554140873,-0.9169607076412317,1.4556673038028847,1.91746408124826,-0.03349386058909345
3.0107282759491376,-0.9178961689681536,1.4550316292250913,1.9172879776046503,-0.03535254885037861
3.002089674087288,-0.9188567466385436,1.4594242677397122,1.9171070207516683,-0.037215799123547874
2.9932133500452167,-0.9198419181015576,1.4691876680328184,1.9169213005874337,-0.0390794987894357
2.9841029180449583,-0.9208511608063518,1.4816039611108767,1.9167309070100669,-0.040939535228876486
2.9747619923085473,-0.921883952202082,1.4938800781547021,1.916535929917688,-0.04279179582270472
2.9651941870580187,-0.9229397697379044,1.5060165062689541,1.9163364592084169,-0.04463216795175484
2.955403116515408,-0.924018090862975,1.518013732558293,1.9161325847803743,-0.04645653899686125
2.9453923949027483,-0.9251183930264498,1.5298722441273793,1.9159243965316797,-0.04826079633885847
2.9351656364420764,-0.9262401536774849,1.5415925280808727,1.9157119843604535,-0.050040827358580876
2.924726455355425,-0.9273828502652363,1.5531750715234331,1.915495438164816,-0.05179251943686294
2.91407846586483,-0.9285459602388599,1.5646203615597212,1.915274847842887,-0.053511759954539106
2.903225282192327,-0.9297289610475119,1.5759288852943971,1.9150503032927866,-0.055194436292443826
2.892170518559949,-0.9309313301403483,1.5871011298321203,1.9148218944126352,-0.05683643583141152
2.8809177891897315,-0.932152544966525,1.5981375822775508,1.914589711100553,-0.05843364595227668
2.869470708303709,-0.9333920829751982,1.60903872973535,1.9143538432546596,-0.05998195403587371
2.8578328901239174,-0.9346494216155238,1.619805059310177,1.9141143807730756,-0.06147724746303705
2.8460079488723897,-0.9359240383366579,1.630437058106692,1.913871413553921,-0.06291541361460119
2.833999498771162,-0.9372154105877566,1.6409352132295554,1.9136250314953158,-0.06429233987140053
2.821811154042269,-0.9385230158179757,1.651300011783427,1.9133753244953804,-0.0656039136142695
2.8094465289077446,-0.9398463314764713,1.661531940872967,1.9131223824522348,-0.06684602222404265
2.7969092375896243,-0.9411848350123997,1.671631487602836,1.912866295263999,-0.06801455308155428
2.7842028943099426,-0.9425380038749166,1.6815991390776934,1.9126071528287933,-0.06910539356763892
2.771331113290735,-0.9439053155131782,1.6914353824021995,1.9123450450447377,-0.070114431063131
2.7582975087540347,-0.9452862473763404,1.701140704681015,1.9120800618099523,-0.07103755294886496
2.745105694921878,-0.9466802769135594,1.7107155930187994,1.9118122930225574,-0.07187064660567527
2.731759286016298,-0.9480868815739911,1.7201605345202127,1.9115418285806731,-0.07260959941439636
2.7182618962593317,-0.9495055388067916,1.7294760162899157,1.9112687583824195,-0.07325029875586268
2.7046171398730117,-0.9509357260611169,1.7386625254325676,1.9109931723259166,-0.07378863201090859
2.690828631079374,-0.9523769207861229,1.7477205490528296,1.9107151603092845,-0.07422048656036867
2.6768999841004533,-0.9538286004309658,1.7566505742553615,1.9104348122306434,-0.0745417497850773
2.662834813158284,-0.9552902424448017,1.7654530881448225,1.9101522179881136,-0.0747483090658689
2.6486367324749005,-0.9567613242767864,1.7741285778258735,1.909867467479815,-0.07483605178357797
2.6343093562723388,-0.958241323376076,1.7826775304031748,1.909580650603868,-0.0748008653190389
2.6198562987726324,-0.9597297171918266,1.7911004329813858,1.9092918572583921,-0.07463863705308621
2.605281174197817,-0.9612259831731944,1.799397772665167,1.9090011773415083,-0.07434525436655426
2.5905875967699266,-0.962729598769335,1.807570036559179,1.9087087007513361,-0.07391660464027752
2.575779180710996,-0.9642400414294047,1.8156177117680812,1.9084145173859959,-0.0733485752550905
2.560859540243061,-0.9657567886025595,1.823541285396534,1.9081187171436076,-0.07263705359182757
2.545832289588155,-0.9672793177379554,1.8313412445491974,1.9078213899222918,-0.07177792703132316
2.530701042968314,-0.9688071062847484,1.8390180763307318,1.9075226256201678,-0.07076708295441178
2.515469414605572,-0.9703396316920946,1.8465722678457972,1.9072225141353567,-0.06960040874192783
2.5001410187219637,-0.97187637140915,1.8540043061990534,1.906921145365978,-0.06827379177470574
2.4847194695395243,-0.9734168028850707,1.8613146784951609,1.9066186092101518,-0.06678311943358009
2.4692083812802883,-0.9749604035690125,1.8685038718387799,1.9063149955659986,-0.06512427909938517
2.4536113681662903,-0.9765066509101318,1.87557237333457,1.9060103943316384,-0.06329315815295539
2.4379320444195653,-0.9780550223575843,1.8825206700871917,1.9057048954051912,-0.061285643975125426
2.4221740242621483,-0.9796049953605261,1.889349249201305,1.905398588684777,-0.05909762394672946
2.4063409219160734,-0.9811560473681133,1.89605859778157,1.9050915640685162,-0.056724985448602105
2.3904363516033764,-0.9827076558295019,1.902649202932647,1.904783911454529,-0.05416361586157781
2.374463927546091,-0.9842592981938479,1.909121551759196,1.904475720740935,-0.05140940256649085
2.3584272639662527,-0.9858104519103075,1.9154761313658768,1.9041670818258551,-0.04845823294417584
2.342329975085896,-0.9873605944280366,1.92171342885735,1.903858084607409,-0.04530599437546712
2.3261756751270553,-0.9889092031961909,1.927833931338276,1.9035488189837164,-0.041948574241199243
2.3099679783117657,-0.990455755663927,1.933838125913314,1.9032393748528984,-0.038381859922206496
2.293710498862062,-0.9919997292804008,1.9397264996871244,1.9029298421130745,-0.0346017387993236
2.277406850999979,-0.993540601494768,1.9454995397643675,1.9026203106623645,-0.030604098253384726
2.2610606489475513,-0.9950778497561847,1.9511577332497039,1.9023108703988891,-0.026384825665224487
2.244675506926814,-0.9966109515138073,1.9567015672477934,1.9020016112207685,-0.02193980841567722
2.228255039159801,-0.9981393842167914,1.9621315288632954,1.9016926230261226,-0.017264933885577316
2.2118028598685484,-0.9996626253142934,1.9674481052008705,1.9013839957130716,-0.01235608945575939
2.19532258327509,-1.001180152255469,1.972651783365179,1.9010758191797354,-0.00720916250705772
2.178817823601461,-1.0026914424894744,1.977743050460881,1.9007681833242343,-0.0018200404203070342
2.1622921950696954,-1.0041959734654655,1.9827223935926364,1.9004611780446883,0.003815389423658555
2.1457493119018287,-1.0056932226325985,1.9875902998651056,1.9001548932392178,0.009701239644004489
2.129192788319896,-1.0071826674400297,1.992347256382948,1.8998494188059425,0.01584162285989632
2.112626238545931,-1.0086637853369143,1.996993750250825,1.899544844642983,0.022240651690499602
2.0960532768019693,-1.0101360537724091,2.0015302685733958,1.8992412606484592,0.028902438754979776
2.0794775173100453,-1.0115989501956697,2.0059572984553204,1.8989387567204914,0.035831096672502394
2.0629025742921936,-1.0130519520558525,2.0102753270012594,1.8986374227571992,0.04303073806223345
2.0463320619704493,-1.014494536802113,2.0144848413158725,1.8983373486567034,0.05050547554333795
2.0297695945668472,-1.0159261818836078,2.01858632850382,1.8980386243171237,0.058259421734981665
2.013218786303422,-1.0173463647494925,2.022580275669762,1.8977413396365803,0.06629668925633003
1.9966832514022084,-1.0187545628489234,2.026467169918359,1.8974455845131935,0.07462139072654905
1.9801666040852413,-1.0201502536310563,2.030247498354271,1.8971514488450831,0.0832376387648035
1.963672458574555,-1.0215329145450474,2.033921748082157,1.8968590225303696,0.09214954599025982
1.9472044290921853,-1.0229020230400527,2.0374904062066785,1.896568395467173,0.10136122502208278
1.9307661298601655,-1.0242570565652283,2.0409539598324953,1.8962796575536132,0.11087678847943827
1.9143611751005314,-1.02559749256973,2.0443128960642674,1.8959928986878105,0.12070034898149207
1.8979931790353168,-1.026922808502714,2.047567702006655,1.8957082087678854,0.1308360191474094
1.8816657558865586,-1.0282324818133364,2.0507188647643178,1.8954256776919571,0.14128791159635623
1.865382519876289,-1.0295259899507527,2.0537668714419164,1.8951453953581467,0.15206013894749737
1.8491470852265444,-1.0308028103641198,2.05671220914411,1.8948674516645738,0.16315681381999902
1.8329630661593588,-1.032062420502593,2.0595553649755605,1.8945919365093586,0.17458204883302653
1.8168340768967675,-1.0333042978153288,2.0622968260409267,1.8943189397906213,0.18633995660574565
1.8007637316608047,-1.0345279197514832,2.0649370794448685,1.894048551406482,0.19843464975732128
1.7847556446735053,-1.0357327637602116,2.067476612292047,1.8937808612550608,0.21087024090691997
1.7688134301569038,-1.036918307290671,2.0699159116871213,1.893515959234478,0.2236508426737066
1.7529407023330363,-1.0380840277920165,2.072255464734752,1.8932539352428532,0.23678056767684663
1.7371410754239363,-1.0392294027134046,2.0744957585395998,1.892994879178307,0.2502635285355064
1.7214181636516392,-1.0403539095039913,2.076637280206324,1.8927388809389598,0.2641038378688505
1.7057755812381787,-1.041457025612933,2.0786805168395848,1.892486030422931,0.2783056082960449
1.6902169424055908,-1.0425382284893847,2.0806259555440425,1.8922364175283413,0.29287295243625533
1.6747458613759096,-1.0435969955825037,2.0824740834243576,1.8919901321533104,0.30780998290864714
1.6593659523711703,-1.044632804341445,2.0842253875851897,1.8917472641959587,0.3231208123323861
1.644080829613407,-1.045645132215365,2.0858803551311986,1.8915079035544062,0.3388095533266372
1.6288941073246552,-1.04663345665342,2.0874394731670454,1.8912721401267731,0.35488031851056656
1.6138093997269494,-1.0475972551047656,2.088903228797389,1.8910400638111797,0.3713372205033396
1.5988303210423238,-1.0485360050185581,2.090272109126891,1.8908117645057458,0.3881843719241219
1.583960485492814,-1.0494491838439535,2.0915466012602106,1.8905873321085918,0.4054258853920786
1.5692035073004547,-1.0503362690301077,2.0927271923020077,1.8903668565178373,0.42306587352637615
1.5545630006872804,-1.0511967380261766,2.093814369356943,1.890150427631603,0.4411084489461796
1.540042579875325,-1.0520300682813166,2.094808619529676,1.889938135348009,0.4595577242706539
1.5256458590866249,-1.0528357372446837,2.0957104299248672,1.8897300695651753,0.4784178121189657
1.5113764525432138,-1.0536132223654333,2.096520287647177,1.8895263201812218,0.49769282511027946
1.497237974467127,-1.0543620010927226,2.097238679801265,1.8893269770942687,0.5173868758637621
1.4832340390803984,-1.0550815508757063,2.0978660934917914,1.8891321302024366,0.5375040769985775
1.4693682606050642,-1.0557713491635414,2.0984030158234166,1.8889418694038451,0.5580485411338925
1.455644253263158,-1.0564308734053836,2.0988499339008007,1.8887562845966144,0.5790243808888726
1.4420656312767148,-1.0570596010503888,2.0992073348286038,1.888575465678865,0.6004357088826824
1.4286360088677694,-1.0576570095477134,2.0994757057114852,1.8883995025487166,0.6222866377344884
1.4153590002583574,-1.058222576346513,2.099655533654106,1.8882284851042894,0.6445812800634558
1.4022382196705119,-1.0587557788959439,2.0997473057611264,1.8880625032437037,0.6673237484887502
1.3892772813262686,-1.059256094645162,2.0997515091372065,1.8879016468650796,0.6905181556295366
1.3764797994476625,-1.0597230010433232,2.0996686308870056,1.887746005866537,0.7141686141049817
1.3638493882567277,-1.0601559755395837,2.099499158115184,1.8875956701461962,0.7382792365342505
1.3513896619754995,-1.0605544955830997,2.0992435779264023,1.8874507296021774,0.7628541355365079
1.3391042348260134,-1.060918038623027,2.09890237742532,1.8873112741326006,0.7878974237309206
1.3269967210303022,-1.061246082108522,2.098476043716598,1.8871773936355858,0.8134132137366537
1.315070734810402,-1.06153810348874,2.0979650639048963,1.8870491780092538,0.8394056181728724
1.3033298903883475,-1.0617935802128375,2.0973699250948745,1.8869267171517237,0.8658787496587419
1.2917778019861734,-1.0620119897299707,2.0966911143911933,1.8868101009611165,0.8928367208134294
1.2804180838259138,-1.0621928094892952,2.095929118898512,1.8866994193355517,0.9202836442560993
1.269254350129604,-1.0623355169399673,2.0950844257214913,1.8865947621731498,0.948223632605917
1.2582902151192794,-1.062439589531143,2.094157521964791,1.886496219372031,0.9766607984820481
1.247529293016974,-1.062504504711978,2.093148894733072,1.886403880830315,1.0055992545036585
1.2369751980447226,-1.062529739931629,2.0920590311309937,1.8863178364461222,1.0350431132899136
1.22663154442456,-1.0625147726392514,2.090888418263216,1.8862381761175728,1.0649964874599789
1.216501946378521,-1.0624590802840017,2.0896375432343994,1.8861649897427868,1.0954634896330206
1.2065900181286398,-1.0623621403150354,2.0883068931492055,1.8860983672198843,1.1264482324282032
1.1968993738969518,-1.062223430181509,2.0868969551122913,1.8860383984469857,1.1579548284646932
1.1874336279054933,-1.0620424273325781,2.085408216228319,1.8859851733222106,1.189987390361656
1.1781963943762963,-1.0618186092173998,2.0838411636019485,1.8859387817436797,1.2225500307382557
1.1691912875313952,-1.0615514532851287,2.082196284337839,1.8858993136095126,1.2556468622136596
1.1604219215928278,-1.0612404369849213,2.0804740655406517,1.8858668588178298,1.2892819974070329
1.1518919107826284,-1.060885037765934,2.078674994315046,1.8858415072667514,1.3234595489375407
1.1436048693228296,-1.0604847330773224,2.076799557765683,1.8858233488543976,1.35818362942435
1.1355644114354675,-1.0600390003682432,2.0748482429972217,1.8858124734788881,1.3934583514866228
1.1277741513425767,-1.0595473170878515,2.072821537114323,1.8858089710383432,1.4292878277435288
1.1202377032661914,-1.0590091606853043,2.070719927221646,1.8858129314308836,1.465676170814231
1.1129586814283474,-1.0584240086097565,2.0685439004238524,1.8858244445546286,1.5026274933178962
1.1059407000510793,-1.057791338310365,2.0662939438256007,1.8858436003076986,1.5401459078736885
1.0991873733564206,-1.0571106272362858,2.0639705445315526,1.8858704885882138,1.5782355271007755
1.0927023155664077,-1.0563813528366746,2.061574189646366,1.8859051992942946,1.6169004636183215
1.086489140903074,-1.0556029925606876,2.0591053662747036,1.8859478223240609,1.6561448300454917
1.080551463588455,-1.0547750238574802,2.056564561521224,1.8859984475756324,1.6953667675466755
1.074892897844586,-1.0538969241762095,2.0539522624905873,1.8860571649471298,1.7341915435818236
1.0695170578935005,-1.052968170966031,2.0512689562874544,1.886124064336673,1.7726208603520908
1.0644275579572344,-1.0519882416761006,2.0485151300164843,1.8861992356423822,1.8106564200586275
1.0596280122578214,-1.0509566137555746,2.0456912707823376,1.8862827687623775,1.848299924902589
1.0551220350172974,-1.049872764653609,2.0427978656896757,1.886374753594779,1.8855530770851219
1.050913240457696,-1.0487361718193595,2.039835401843156,1.886475280037707,1.9224175788073883
1.0470052428010534,-1.0475463127019826,2.0368043663474418,1.8865844379892813,1.9588951322705308
1.0434016562694026,-1.046302664750634,2.0337052463071905,1.886702317347622,1.9949874396757137
1.0401060950847794,-1.0450047054144695,2.030538528827064,1.8868290080108499,2.0306962032240814
1.0371221734692186,-1.043651912142646,2.0273047010117207,1.886964599877084,2.0660231251167893
1.034453505644755,-1.0422437623843184,2.0240042499658224,1.8871091828444455,2.1009699075549895
1.032103705833423,-1.0407797335886437,2.020637662794029,1.8872628468110542,2.135538252739837
1.0300763882572572,-1.0392593032047777,2.0172054266009996,1.8874256816750299,2.1697298628724804
1.028375167138293,-1.0376819486818758,2.013708028491396,1.8875977773344932,2.20354644015408
1.0270036566985645,-1.0360471474690949,2.010145955569877,1.8877792236875637,2.236989686785779
1.0259654711601067,-1.0343543770155903,2.006519694941102,1.8879701106323616,2.2700613049687384
1.025264224744956,-1.0326031147705186,2.0028297337097327,1.8881705280670076,2.3027629969041055
1.024903531675145,-1.0307928381830354,1.999076558980428,1.8883805658896216,2.3350964647930392
1.0248870061727091,-1.0289230247022971,1.9952606578578487,1.8886003139983234,2.3670634108366846
1.0252182624596822,-1.0269931517774595,1.9913825174466548,1.8888298622912332,2.3986655372362
1.0259009147581004,-1.0250026968576784,1.9874426248515067,1.8890693006664712,2.4299045461927387
1.0269385772899984,-1.0229511373921105,1.9834414671770642,1.8893187190221579,2.4607821399074483
1.0283348642774088,-1.0208379508299112,1.9793795315279876,1.8895782072564127,2.4913000205814875
1.0300933899423708,-1.0186626146202369,1.9752573050089366,1.8898478552673565,2.521459890416004
1.0322177685069152,-1.0164246062122433,1.971075274724572,1.8901277529531089,2.5512634516121566
1.0347116141930774,-1.0141234030550863,1.966833927779553,1.8904179902117901,2.5807124063710907
1.037578541222893,-1.011758482597923,1.9625337512785412,1.8907186569415202,2.6098084568939655
1.0408221638183983,-1.0093293222899082,1.958175232326195,1.8910298430404198,2.638553305381931
1.0444460962016242,-1.0068353995801986,1.953758858027175,1.891351638406608,2.666948654036145
1.0484539525946097,-1.0042761919179497,1.949285115486142,1.891684132938206,2.6949962050577474
1.0525971901916944,-1.0016511767523184,1.944754491807756,1.8920274165333337,2.722697660647906
1.056612544989803,-0.9989598315324597,1.940167474096676,1.8923815790901108,2.7500547230077648
1.0605007902439392,-0.9962016337075301,1.9355245494575635,1.8927467105066575,2.77706909433848
1.0642626992091115,-0.9933760607266859,1.930826204995078,1.8931229006810941,2.8037424768412027
1.0678990451403192,-0.9904825900390829,1.9260729278138797,1.893510239511541,2.830076572717089
1.0714106012925695,-0.9875206990938769,1.9212652050186283,1.893908816896118,2.8560730841672854
1.0747981409208676,-0.9844898653402242,1.916403523713985,1.894318722732945,2.881733713392951
1.0780624372802134,-0.9813895662272809,1.9114883710046084,1.8947400469201428,2.9070601625952373
1.0812042636256154,-0.9782192792042027,1.9065202339951601,1.8951728793558307,2.9320541339752935
1.0842243932120788,-0.9749784817201457,1.901499599790299,1.8956173099381295,2.956717329734275
1.0871235992946033,-0.9716666512242664,1.8964269554946869,1.8960734285651588,2.981051452073333
1.0899026551281958,-0.9682832651657202,1.8913027882129814,1.8965413251350391,3.00505820319363
1.0925623339678625,-0.9648278009936636,1.8861275850498453,1.8970210895458905,3.0287392852963007
1.0951034090686051,-0.9612997361572522,1.8809018331099354,1.897512811695833,3.052096400582514
1.0975266536854271,-0.9576985481056421,1.8756260194979164,1.898016581482987,3.075131251253414
1.0998328410733356,-0.9540237142879898,1.8703006313184436,1.898532488805472,3.0978455395101583
1.1020227444873338,-0.950274712153451,1.864926155676181,1.899060623561409,3.1202409675538965
1.1040971371824266,-0.9464510191511817,1.8595030796757852,1.8996010756489174,3.1423192375857836
1.1060567924136158,-0.942552112730338,1.854031890421921,1.9001539349661174,3.164082051806972
1.10790248343591,-0.9385774703400761,1.8485130750192424,1.9007192914111295,3.1855311124186128
1.1096349835043091,-0.9345265694295516,1.8429471205724164,1.9012972348820736,3.2066681216218593
1.11125506587382,-0.9303988874479207,1.8373345141860964,1.90188785527707,3.2274947816178687
1.112763503799447,-0.9261939018443395,1.831675742964948,1.9024912424942384,3.2480127946077895
1.114161070536194,-0.9219110900679641,1.8259712940136268,1.9031074864316995,3.2682238627927735
1.1154485393390638,-0.9175499295679506,1.8202216544367973,1.903736676987573,3.2881296883739766
1.1166266834630656,-0.9131098977934546,1.8144273113391156,1.904378904059979,3.3077319735525514
1.1176962761631966,-0.9085904721936324,1.8085887518252446,1.905034257547038,3.3270324205296475
1.118658090694467,-0.9039911302176404,1.8027064629998437,1.90570282734687,3.346032731506419
1.119512900311879,-0.8993113493146341,1.7967809319675725,1.906384703357595,3.364734608684022
1.1202614782704357,-0.8945506069337694,1.7908126458330909,1.9070799754773329,3.3831397542636066
1.120904597825143,-0.8897083805242032,1.7848020917010599,1.9077887336042043,3.4012498704463296
1.1214430322310065,-0.8848231386321235,1.7787497566761399,1.908511067636329,3.4190666594333345
1.1218775547430262,-0.879929223681215,1.772656127862989,1.9092470674718274,3.4365918234257813
1.1222089386162104,-0.8750268416890479,1.76652169236627,1.9099968230088196,3.4538270646248215
1.1224379571055627,-0.8701161986731918,1.7603469372906404,1.9107604241454255,3.4707740852316147
1.1225653834660871,-0.8651975006512175,1.7541323497407622,1.9115379607797651,3.487434587447295
1.1225919909527862,-0.8602709536406947,1.7478784168212944,1.912329522809959,3.5038102734730345
1.1225185528206685,-0.8553367636591944,1.7415856256368982,1.913135200134127,3.5199028455099817
1.1223458423247323,-0.8503951367242866,1.7352544632922329,1.9139550826503893,3.535714005759284
1.122074632719987,-0.8454462788535417,1.7288854168919592,1.9147892602568661,3.551245456422099
1.1217056972614354,-0.8404903960645295,1.7224789735407364,1.9156378228516775,3.5664988996995657
1.1212398092040818,-0.8355276943748206,1.7160356203432257,1.9165008603329434,3.581476037792857
1.1206777418029317,-0.830558379801985,1.7095558444040864,1.9173784625987844,3.5961785729031206
1.1200202683129847,-0.8255826583635933,1.703040132827979,1.91827071954732,3.6106082072315067
1.1192681619892528,-0.820600736077216,1.6964889727195622,1.9191777210766712,3.6247666429791607
1.1184221960867333,-0.8156128189604221,1.689902851183499,1.920099557084957,3.638655582347244
1.117483143860433,-0.8106191130307836,1.6832822553244464,1.9210363174702985,3.6522767275369104
1.1164517785653598,-0.8056198243058699,1.6766276722470674,1.9219880921308152,3.665631780749308
1.1153288734565123,-0.8006151588032511,1.6699395890560202,1.9229549709646276,3.6787224441855946
1.1141152017888971,-0.7956053225404974,1.6632184928559652,1.9239370438698558,3.691550420046914
1.1128115368175204,-0.7905905215351802,1.6564648707515635,1.9249344007446196,3.704117410534429
1.1114186517973819,-0.7855709618048677,1.649679209847473,1.9259471314870396,3.7164251178492904
1.109937319983493,-0.7805468493671327,1.6428619972483565,1.9269753259952356,3.7284752441926488
1.1083683146308525,-0.775518390239543,1.6360137200588727,1.9280190741673278,3.740269491765651
1.1067124089944653,-0.7704857904396709,1.6291348653836812,1.9290784659014364,3.75180956276946
1.104970376329335,-0.7654492559850851,1.6222259203274436,1.9301535910956813,3.7630971594052296
1.1031429898904719,-0.7604089928933573,1.6152873719948189,1.9312445396481828,3.774133983874105
1.1012310229328732,-0.755365207182056,1.6083197074904672,1.932351401457061,3.7849217383772373
1.0992352487115458,-0.7503181048687535,1.601323413919049,1.9334742664204363,3.7954621251157876
1.0971564404814957,-0.745267891971018,1.5942989783852255,1.9346132244364282,3.8057568462909064
1.094995371497724,-0.7402147745064218,1.587246887993654,1.9357683654031572,3.815807604103748
1.0927528150152384,-0.7351589584925331,1.580167629848998,1.9369397792187442,3.825616100755462
1.09042954428904,-0.7301006499469247,1.5730616910559145,1.9381275557813078,3.835184038447192
1.0880263325741382,-0.7250400548871643,1.5659295587190656,1.939331784988969,3.844513119380111
1.0855439531255322,-0.7199773793308234,1.5587717199431115,1.9405525567398478,3.8536050457553586
1.0829831791982265,-0.7149128292954725,1.5515886618327113,1.9417899609320641,3.8624615197740884
1.0803447840472291,-0.7098466107986813,1.5443808714925251,1.9430440874637385,3.871084243637452
1.0776295409275396,-0.7047789298580204,1.5371488360272139,1.9443150262329911,3.8794749195466105
1.0748382230941673,-0.6997099924910597,1.529893042541437,1.9456028671379415,3.887635249702715
1.0719716038021128,-0.6946400047153699,1.522613978139855,1.9469077000767103,3.895566936306915
1.0690304563063835,-0.6895691725485209,1.515312129927128,1.9482296149474172,3.903271681560355
1.06601555386198,-0.6844977020080834,1.507987985007916,1.9495687016481829,3.9107511876642027
1.0629276697239116,-0.6794257991116269,1.5006420304868793,1.950925050077127,3.9180071568196064
1.0597675771471762,-0.6743536698767228,1.4932747534686772,1.9522987501323699,3.9250412912277133
1.0565360493867821,-0.6692815203209402,1.485886641057971,1.9536898917120316,3.9318552930896775
1.0532338596977344,-0.6642095564618503,1.4784781803594205,1.9550985647142325,3.9384508646066614
1.049861781335038,-0.6591379843170226,1.4710498584776845,1.9565248590370925,3.9448297079798076
1.0464205875536927,-0.6540670099040286,1.4636021625174247,1.9579688645787314,3.950993525410273
1.042911051608706,-0.6489968392404368,1.4561355795833002,1.9594306712372698,3.956944019099204
1.0393339467550828,-0.6439276783438188,1.4486505967799732,1.9609103689108278,3.962682891247762
1.035690046247825,-0.6388597332317439,1.441147701212101,1.9624080474975256,3.968211844057098
1.0319801233419406,-0.6337932099217835,1.433627379984346,1.9639237968954828,3.9735325797283707
1.0282049512924312,-0.6287283144315072,1.4260901202013663,1.96545770700282,3.9786468004627134
1.024365303354298,-0.6236652527784853,1.4185364089678243,1.9670098677176573,3.983556208461298
1.0204619527825511,-0.6186042309802883,1.4109667333883769,1.9685803689381147,3.988262505925273
1.0164956728321957,-0.613545455054486,1.4033815805676872,1.9701693005623122,3.992767395055788
1.01246723675823,-0.6084891310186487,1.395781437610415,1.9717767524883703,3.9970725780539986
1.0083774178156624,-0.6034354648903475,1.388166791621218,1.9734028146144087,4.001179757121045
1.004226989259498,-0.5983846626871516,1.380538129704758,1.975047576838548,4.005090634458103
1.0000167243447349,-0.5933369304266317,1.3728959389656974,1.976711129058908,4.008806912266313
0.9957473963263843,-0.5882924741263585,1.3652407065086902,1.9783935611736085,4.012330292746816
0.9914197784594507,-0.5832514998039021,1.3575729194384034,1.9800949630807705,4.015662478100786
0.9870346439989328,-0.5782142134768317,1.3498930648594936,1.9818154246785133,4.01880517052937
0.9825927661998346,-0.5731808211627196,1.3422016298766208,1.9835550358649576,4.021760072233715
0.978094918317169,-0.5681515288791333,1.3344991015944454,1.9853138865382232,4.024528885414982
0.9735418736059356,-0.5631265426436464,1.3267859671176288,1.9870920665964305,4.027113312274307
0.9689344053211384,-0.5581060684738259,1.3190627135508293,1.9888896659376991,4.02951505501286
0.9642732867177775,-0.5530903123872445,1.311329827998708,1.9907067744601497,4.03173581583179
0.959559291050867,-0.5480794804014713,1.3035877975659247,1.9925434820619021,4.033777296932248
0.9547931915754013,-0.5430737785340765,1.2958371093571395,1.9943998786410766,4.035641200515384
0.9499757615463889,-0.5380734128026309,1.2880782504770125,1.9962760540957933,4.037329228782351
0.9451077742188385,-0.5330785892247043,1.2803117080302053,1.9981720983241722,4.0388430839343155
0.9401900028477459,-0.5280895138178674,1.2725379691213754,2.0000881012243337,4.040184468172409
0.9352232206881208,-0.523106392599691,1.2647575208551847,2.0020241526943976,4.041355083697793
0.9302082009949664,-0.5181294315877434,1.2569708503362942,2.003980342632484,4.042356632711629
0.9251457170232897,-0.513158836799597,1.2491784446693597,2.005956760936713,4.043190817415065
0.9200365420280896,-0.5081948142528208,1.2413807909590475,2.0079534975052056,4.043859340009247
0.9148814492643731,-0.5032375699649851,1.2335783763100125,2.009970642236081,4.044363902695329
0.9096812119871482,-0.49828730995366133,1.2257716878269158,2.012008285027459,4.044706207674473
0.9044366034514124,-0.4933442402364183,1.217961212614421,2.014066515777461,4.044887957147822
0.8991483969121754,-0.48840856683082734,1.2101474377771861,2.016145424384206,4.044910853316534
0.8938173656244386,-0.48348049575445784,1.2023308504198695,2.0182451007458146,4.044776598381768
0.888444282843202,-0.47856023302488104,1.1945119376471318,2.020365634760407,4.044486894544663
0.8830299218234838,-0.4736479846596662,1.186691186563635,2.022507116326103,4.04404344400638
0.877575055820274,-0.46874395667638447,1.1788690842740381,2.024669635341023,4.043447948968073
0.8720804580885861,-0.46384835509260536,1.1710461178830016,2.0268532817032874,4.042702111630891
0.8665469018834191,-0.45896138592589986,1.1632227744951846,2.0290581453110157,4.041807634195976
0.8609751604597804,-0.45408325519383763,1.15539954121525,2.031284316062328,4.040766218864508
0.8553660070726723,-0.44921416891398946,1.1475769051478544,2.0335318838553453,4.039579567837626
0.8497202149770979,-0.4443543331039248,1.1397553533976574,2.035800938588187,4.0382493833164705
0.8440385574280667,-0.4395039537812149,1.1319353730693238,2.038091570158973,4.0367773675022125
0.838321807680579,-0.4346632369634289,1.1241174512675092,2.040403868465824,4.0351652225959995
0.8325707389896397,-0.42983238866813855,1.1163020750968768,2.04273792340686,4.03341465079898
0.8267861246102548,-0.4250116149129133,1.1084897316620852,2.045093824880201,4.03152735431231
0.8209687377974229,-0.42020112171532276,1.1006809080677948,2.0474716627839675,4.029505035337136
0.8151193518061577,-0.4154011150929382,1.0928760914186668,2.049871527016279,4.027349396074616
0.809238739891458,-0.4106118010633302,1.0850757688193595,2.052293507475256,4.025062138725922
0.8033276753083278,-0.4058333856440677,1.0772804273745336,2.054737694059019,4.022644965492168
0.7973869313117703,-0.4010660748527215,1.0694905541888473,2.057204176665687,4.020099578574538
0.7914172811567957,-0.3963100747068624,1.0617066363669658,2.0596930451933813,4.017427680174162
0.7854194980984017,-0.3915655912240603,1.0539291610135457,2.0622043895402213,4.014630972492222
0.7793943553915943,-0.38683283042188465,1.0461586152332454,2.0647382996043273,4.011711157729843
0.7733426262913801,-0.3821119983179073,1.0383954861307307,2.0672948652838197,4.008669938088197
0.767265084052764,-0.3774033009296973,1.030640260810654,2.0698741764768185,4.0055090157684194
0.7611625019307482,-0.37270694427482587,1.0228934263776828,2.0724763230814434,4.002230092971667
0.7550356531803342,-0.36802313437086265,1.0151554699364742,2.0751013949958153,3.9988348718991187
0.748885311056533,-0.363352077235378,1.0074268785916853,2.0777494821180538,3.9953250547518895
0.7427122488143469,-0.35869397888594134,0.999708139447983,2.080420674346279,3.9917023437311503
0.7365172397087729,-0.3540490453401246,0.9919997396100189,2.083115061578611,3.9879684410380527
0.7303010569948274,-0.3494174826154972,0.9843021661824611,2.0858327337131706,3.9841250488737536
0.7240644739275073,-0.3447994967296293,0.9766159062699669,2.088573780648077,3.9801738694394047
0.7178082637618148,-0.3401952937000918,0.9689414469771949,2.0913382922814505,3.976116604936143
0.7115331997527603,-0.3356050795444536,0.9612792754088058,2.0941263585114123,3.9719549575651403
0.7052400551553504,-0.3310290602802859,0.953629878669461,2.096938069236081,3.967690629527551
0.6989296032245731,-0.32646744192515986,0.9459937438638182,2.099773514353578,3.963325323024508
0.6926026172154502,-0.3219204304966441,0.9383713580965396,2.1026327837620222,3.958860740257192
0.6862598703829788,-0.31738823201230937,0.930763208472285,2.1055159673595343,3.954298583426734
0.679902135982168,-0.3128710524897269,0.9231697820957132,2.1084231550442354,3.9496405547342786
0.6735301872680184,-0.3083690979464655,0.9155915660714871,2.111354436714244,3.9448883563810213
0.6671447974955278,-0.3038825744000968,0.9080290475042654,2.114309902267681,3.9400436905680714
0.6607467399197171,-0.29941168786819006,0.9004827134987048,2.1172896416026665,3.935108259496584
0.6543367877955744,-0.29495664436831515,0.8929530511594717,2.120293744617321,3.9300837653677387
0.6479157143781107,-0.2905176499180444,0.8854405475912213,2.1233223012097637,3.9249719103826717
0.6414842929223319,-0.28609491053494573,0.8779456898986155,2.1263754012781155,3.9197743967425467
0.6350432966832402,-0.28168863223659146,0.8704689651863169,2.1294531347204964,3.914492926648501
0.6285934989158362,-0.27729902104055015,0.8630108605589797,2.1325555914350263,3.90912920230169
0.6221356728751299,-0.2729262829643928,0.8555718631212681,2.1356828613198253,3.9036849259032795
0.6156705918161292,-0.26857062402568954,0.848152459977844,2.138835034273014,3.8981617996544102
0.6091990289938272,-0.2642322502420109,0.8407531382333624,2.142012200192712,3.8925615257562587
0.6027217576632369,-0.25991136763092726,0.8333743849924873,2.1452144489770393,3.8868858064099303
0.5962395510793597,-0.25560818221000825,0.8260166873598771,2.148441870524117,3.881136343816612
0.589753182497196,-0.25132289999682444,0.818680532440192,2.151694554732064,3.8753148401774684
0.5832634251717614,-0.2470557270089464,0.811366407338094,2.1549725914990012,3.8694229976936274
0.5767710523580512,-0.24280686926394401,0.8040747991582418,2.1582760707230486,3.8634625185662337
0.5702768373110683,-0.23857653277938717,0.796806195005292,2.161605082302326,3.857435104996471
0.5637815532858239,-0.23436492357284733,0.7895610819839112,2.164959716134954,3.8513424591854655
0.5572859735373186,-0.23017224766189348,0.782339947198758,2.1683400621190527,3.8451862833343906
0.5507908713205527,-0.2259987110640973,0.7751432777544895,2.1717462101527416,3.8389682796443854
0.5442970198905392,-0.22184451979702713,0.7679715607557673,2.1751782501341417,3.8326901503166084
0.5378051925022733,-0.2177098798782553,0.7608252833072511,2.178636271961372,3.826353597552206
0.531316162410767,-0.2135949973253506,0.7537049325136014,2.182120365532554,3.819960323552353
0.5248307028710224,-0.20950007815588378,0.7466109954794771,2.1856306207458065,3.813512030518149
0.5183495871380455,-0.205425328387425,0.7395439593095396,2.1891671274992506,3.807010420650821
0.5118735884668348,-0.20137095403754635,0.7325043111084524,2.1928093287149686,3.800457196151461
0.5054034801123963,-0.19733716112381416,0.7254925379808697,2.1965886783007704,3.793854059221255
0.4989400353297384,-0.19332415566380168,0.7185091270314539,2.2005024292352218,3.787202712061342
0.4924840273738669,-0.18933214367507922,0.7115545653648656,2.2045478344967577,3.7805048568728896
0.486036229499776,-0.1853613311752158,0.7046293400857655,2.2087221470638347,3.7737621958570227
0.47959741496247954,-0.18141192418178131,0.6977339382988124,2.213022619914913,3.7669764312149177
0.47316835701697624,-0.1774841287123483,0.6908688471086668,2.217446506028402,3.760149265147721
0.4667498289182772,-0.1735781507844838,0.6840345536199903,2.221991058382759,3.753282399856598
0.4603426039213794,-0.1696941964157619,0.6772315449374391,2.2266535299564723,3.746377537542674
0.45394745528128677,-0.16583247162374937,0.6704603081656781,2.231431173727934,3.739436380407117
0.4475651562530123,-0.1619931824260188,0.6637213304093637,2.2363212426756185,3.732460630651076
0.4411964800915582,-0.15817653484013938,0.6570150987731598,2.2413209897779787,3.7254519904757117
0.43484220005191787,-0.15438273488368148,0.65034210036172,2.246427668013414,3.7184121620821777
0.42850308938910686,-0.15061198857421454,0.643702822279713,2.2516385303604416,3.7113428476716166
0.4221799213581239,-0.14686450192931133,0.6370977516317913,2.256950829797457,3.704245749445178
0.41587346921398094,-0.14314048096653975,0.6305273755226208,2.2623618193029245,3.697122569604037
0.40958450621167497,-0.13944013170347214,0.6239921810568569,2.2678687518552785,3.6899750103493325
0.40331380560621,-0.1357636601576755,0.617492655339162,2.2734688804329686,3.682804773882207
0.3970621406525954,-0.13211127234672349,0.6110292854741974,2.2791594580144654,3.6756135624038215
0.3908302846058298,-0.12848317428818445,0.6046025585666222,2.2849377375781827,3.6684030781153396
0.38461901072092175,-0.12487957199963029,0.5982129617210941,2.2908009721025877,3.6611750232179077
0.37842909225287436,-0.121300671498628,0.5918609820422782,2.2967464145661296,3.653931099912679
0.37226130245669253,-0.11774667880275169,0.585547106634829,2.302771317947215,3.6466730104007894
0.3661164145873794,-0.11421779992956926,0.5792718226034141,2.3088729352243362,3.6394024568834205
0.3599952018999417,-0.11071424089665216,0.5730356170526854,2.315048519375921,3.632121141561697
0.35389843764938256,-0.10723620772156961,0.5668389770873041,2.321295323380447,3.624830766636798
0.347826895090698,-0.10378390642189306,0.5606823898119373,2.3276106002162997,3.6175330343098473
0.34178134747890887,-0.10035754301519129,0.5545663423312392,2.3339916028619676,3.6102296467820345
0.3357625680690077,-0.09695732351903708,0.5484913217498679,2.3404355842958893,3.6029223062544737
0.3297713301159977,-0.09358345395099743,0.542457815172491,2.346939797496514,3.5956127149283397
0.323808406874889,-0.09023614032864469,0.536466309703763,2.3535014954422664,3.5883025750048034
0.3178745716006901,-0.0869155886695494,0.5305172924483452,2.3601179311116063,3.5809935886849686
0.31197059754839174,-0.08362200499127859,0.5246112505108984,2.3667863574830044,3.5736874581700206
0.306097257973013,-0.08035559531140812,0.5187486709960814,2.3735040275348958,3.5663858856611306
0.30025532612954287,-0.07711656564750413,0.5129300410085573,2.380268194245687,3.5590905733593985
0.2944455752730022,-0.07390512201713761,0.5071558476529843,2.3870761105938634,3.5518032234660204
0.2886687786583799,-0.07072147043787824,0.5014265780340219,2.393925029557863,3.5445255381821426
0.2829257095406881,-0.0675658169272988,0.49574271925632907,2.400812204116143,3.537259219708897
0.2772171411749369,-0.06443836750296672,0.4901047584245699,2.4077348872471234,3.5300059702474584
0.27154384681612065,-0.061339328182455244,0.4845131826434006,2.414690331929286,3.5227674919989624
0.2659065997192531,-0.05826890498333048,0.47896847901748263,2.421675791141034,3.5155454871645873
0.2603061731393215,-0.05522730392316699,0.4734711346514775,2.428688517860863,3.508341657945447
0.25474334033135015,-0.05221473101953267,0.4680216366500449,2.4357257650671897,3.501157706542731
0.24921887455032987,-0.04923139228999762,0.4626204721178402,2.442784785738432,3.493995335157585
0.24373354905127087,-0.04627749375213375,0.45726812815953277,2.4498628328530785,3.4868562459911416
0.23828813708918162,-0.04335324142351027,0.4519650918797744,2.4569571593895816,3.479742141244561
0.23288341191905282,-0.040458841321696415,0.44671185038322836,2.4640650183263944,3.4726547231190175
0.2275201467958965,-0.03759449946426363,0.441508890774557,2.4711836626418986,3.465595693815647
0.22219911497472822,-0.03476042186878292,0.43635670015841477,2.4783103453146182,3.458566755535596
0.21692108971053514,-0.03195681455282351,0.43125576563946577,2.485442319322921,3.451569610480032
0.21168684425833106,-0.02918388353395507,0.4262065743223715,2.4925768376453092,3.4446059608500903
0.20649715187311557,-0.026441834829749933,0.42120961331178997,2.499711153260229,3.4376775088469493
0.20135278580989002,-0.023730874457775997,0.41626536971237904,2.5068425191461046,3.4307859566717447
0.19625451932366822,-0.02105120843560515,0.4113743306288047,2.51396818828141,3.423933006525619
0.1912031256694533,-0.01840304278080751,0.4065369831657213,2.5210854136445633,3.4171203606097436
0.18619937810224307,-0.015786583510952745,0.40175381442779123,2.528191448214038,3.410349721125268
0.181244049877046,-0.01320203664361097,0.3970253115196769,2.5352835449682374,3.403622790273335
0.17633791424886525,-0.010649608196353189,0.3923519615460318,2.5423589568856357,3.396941270255109
0.17148174447270215,-0.00812950418674907,0.3877342516115254,2.5494149369446717,3.3903068632717535
0.16667631380356696,-0.005641930632370062,0.3831726688208077,2.5564487381238195,3.383721271524397
0.16192239549646104,-0.003187093550783615,0.3786677002785481,2.5634576134015035,3.377186197214183
0.15722076280638753,-0.0007651989595629516,0.374219833089402,2.5704388157561553,3.3707033425422956
0.15257218898835667,0.0016235471237222576,0.3698295543580272,2.577389598166249,3.364274409709896
0.14797744729736806,0.003978938681502342,0.3654973511890871,2.5843072136102094,3.3579011009180917
0.14343731098841772,0.006300769696207631,0.36122371068724135,2.591188915066475,3.3515851183680603
0.13895255331653011,0.008588834150267122,0.3570091199571559,2.5980319555135267,3.345328164260966
0.13452394753668706,0.010842926026109367,0.3528540661034789,2.604833587929811,3.339131940797934
0.1301522669039077,0.013062839306165586,0.34875903623087634,2.6115910652937373,3.3329981501801527
0.12583828467319869,0.015248367972866106,0.3447245174440141,2.6183016405837733,3.3269284946087474
0.12158277409955431,0.01739930600864037,0.34075099684754395,2.6249625667783576,3.320924676284882
0.11738650843797593,0.01951544739591604,0.33683896154612647,2.6315710968559642,3.3149883974096923
0.11325026094348623,0.02159658611712567,0.33298889864442405,2.638124483794982,3.3091213601843528
0.10917480487106879,0.023642516154695148,0.32920129524709907,2.6446199805739212,3.3033252668100133
0.10516091347574275,0.02565303149106013,0.32547663845881036,2.6510548401711986,3.297601819487827
0.10120936001250591,0.027627926108644285,0.321815415384215,2.657426315565253,3.29195272041893
0.0973209177363632,0.029566993989881496,0.318218113127978,2.6637316597345304,3.286379671804493
0.0934963599023142,0.03147002911719854,0.3146852187947564,2.6699681256574905,3.2808843758456483
0.0897364597653727,0.033336825473027965,0.31121721948920644,2.6761329663125863,3.275468534743599
0.08604199058054363,0.03516717703979788,0.30781460231599755,2.6822234346782494,3.270133850699434
0.08241372560281945,0.03696087779993862,0.3044778543797779,2.688236783732954,3.2648820259143285
0.0788524380872122,0.038717721735878285,0.30120746278522326,2.694170266455089,3.259714762589457
0.07535890128872857,0.040437502830049876,0.2980039146369826,2.7000211358231354,3.2546337629259625
0.07193388846236459,0.042120015064878835,0.2948676970397175,2.7057866448155536,3.2496407291249803
0.06857817286313228,0.0437650524227986,0.2917992970980876,2.711464046410775,3.2447373633876673
0.06529252774603478,0.04537240888623639,0.28879920191675534,2.7170505935872455,3.2399253679151983
0.062077726366077,0.046941878437625206,0.285867898600376,2.722543539323425,3.2352064449087017
0.05893454197825321,0.048473255059390485,0.28300587425362167,2.7279401365977236,3.2305822965693345
0.05586374783758785,0.04996633273396478,0.2802136159811379,2.733237638388637,3.226054625098268
0.05286611719906098,0.05142090544377753,0.277491610887596,2.738433297674561,3.221625132696648
0.049942423317698825,0.052836767171258625,0.2748403460776476,2.74352436743397,3.2172955215655996
0.04709343944849387,0.054213711898835726,0.27226030865595874,2.748508100645317,3.213067493906326
0.04431993884644925,0.05555153360894094,0.2697519857271864,2.7533817502870264,3.208942751919931
0.04162269476657343,0.05685002628400415,0.2673158643959894,2.758142569337565,3.2049229978075857
0.03900248046386956,0.05810898390645303,0.26495243176703376,2.7627878107753716,3.201009933770461
0.036460069193344324,0.05932820045871834,0.26266217494497646,2.767314727578899,3.1972052620096747
0.03399623421000442,0.060507469923229085,0.26044558103447457,2.771720572726565,3.1935106847264088
0.03161174876884587,0.06164658628241737,0.2583031371401905,2.7760025991968433,3.1899279041218236
0.029307386124877155,0.06274534351871086,0.2562353303667866,2.780158059968194,3.18645862239703
0.027083919533099632,0.06380353561453989,0.2542426478189217,2.784184208019049,3.18310454175322
0.024942122248519993,0.06482095655233389,0.25232557660125465,2.7880782963278037,3.1798673643915265
0.02288276752614493,0.06579740031452275,0.2504846038184425,2.791837577873018,3.1767487925130986
0.020906628620981138,0.06673266088353591,0.24872021657515297,2.795459305633038,3.1737505283191147
0.019014478788029976,0.06762653224180415,0.24703290197604133,2.798940732586317,3.1708742740107
0.017207091282285703,0.06847880837175557,0.24542314712577173,2.802279111711357,3.1681217317890074
0.01548523935876922,0.06928928325582229,0.2438914391289959,2.8054716959865473,3.1654946038552367
0.013849696272476564,0.07005775087643107,0.24243826509038335,2.808515738390419,3.1629945924104774
0.01230123527840199,0.07078400521601358,0.24106411211458578,2.811408491901311,3.1606233996559183
0.010840629631575283,0.07146784025699837,0.2397694673062709,2.814147209497719,3.1583827277927057
0.009468652586974713,0.07210904998181711,0.2385548177700958,2.816729144158117,3.1562742790219858
0.008186077399628289,0.07270742837289834,0.23742065061071926,2.8191515488609085,3.154299755544926
0.006993677324517833,0.07326276941267151,0.23636745293280192,2.821411676584539,3.1524608595626518
0.005892225616662472,0.07377486708356695,0.23539571184100438,2.823506780307504,3.15075929327633
0.004882495531054687,0.0742435153680141,0.2345059144399908,2.825434113008228,3.1491967588871574
0.00396526032271538,0.07466850824844062,0.23369854783441113,2.8271909276651144,3.1477749585962087
0.0031412932466352572,0.07504963970728085,0.23297409912893663,2.8287744772566583,3.146495594604687
0.0024113675578174565,0.0753867037269611,0.23233305542821903,2.8301820147612844,3.145360369113739
0.0017762565112811046,0.07567949428991128,0.23177590383692426,2.8314107931574313,3.144370984324503
0.0012367333620133536,0.07592780537856214,0.23130313145970938,2.8324580654235945,3.1435291424381404
0.0007935713650333298,0.07613143097534358,0.230915225401235,2.833321084538156,3.142836545655797
0.000447543775337067,0.0762901650626846,0.23061267276615993,2.8339971034796108,3.1422948961786474
0.00019942384792237533,0.07640380162301508,0.23039596065914836,2.834483375226384,3.141905896207824
4.99848378101575e-05,0.07647213463876579,0.23026557618485377,2.8347771527569137,3.141671247944487
-7.105427357601002e-15,0.07649495809236484,0.23022200644794566,2.8348756890496674,3.1415926535897896
