oscarkremer/mentor-optimization/notebooks/traject_1/adaptive/angles_4.csv
theta1,theta2,theta3,theta4,theta5
3.1415926535,-0.9030865823619687,2.1246196420553805,1.9200595938963783,8.979318433952318e-11
3.1414201814497065,-0.9030873451631432,2.1176513400537336,1.9200558787519701,-0.0002245199320042745
3.1409051747801833,-0.9030895890888219,2.0991860547402554,1.920044793250826,-0.0008936477873441388
3.140051247713465,-0.9030932474222381,2.072883217152138,1.9200264272910659,-0.0020007351611476725
3.138862014471586,-0.9030982534466248,2.0424022583265766,1.9200008707708103,-0.003539133738336139
3.1373410892765814,-0.9031045404452152,2.011402609300763,1.9199682135881786,-0.005502195203830803
3.1354920863504856,-0.9031120417012424,1.9835437011118913,1.9199285456412916,-0.007883271242552925
3.133318619915334,-0.9031206904979394,1.9624849647971543,1.9198819568282692,-0.01067571353942377
3.1308243041931605,-0.9031304201185396,1.9518858313937455,1.9198285370472314,-0.013872873779364608
3.1280127534060007,-0.9031411638462759,1.955405731938858,1.9197683761962985,-0.017468103647296698
3.1248875817758885,-0.9031528549643815,1.9670982036185933,1.9197015641735906,-0.021454754828141298
3.1214524035248594,-0.9031654267560895,1.9786520175837872,1.9196281908772277,-0.025826179006819674
3.117710832874948,-0.9031788125046329,1.9900676437267357,1.91954834620533,-0.030575727868253105
3.1136664840481894,-0.9031929454932451,2.001345551939736,1.9194621200560176,-0.03569675309736283
3.1093229712666175,-0.903207759005159,2.0124862121150833,1.9193696023274107,-0.041182606379070126
3.1046839087522673,-0.9032231863236079,2.0234900941450755,1.9192708829176295,-0.047026639398296266
3.0997529107271737,-0.9032391607318248,2.034357667922008,1.919166051724794,-0.0532222038399625
3.0945335914133727,-0.9032556155130428,2.0450894033381775,1.9190551986470243,-0.0597626513889901
3.0890295650328965,-0.903272483950495,2.05568577028588,1.9189384135824408,-0.06664133373030032
3.0832444458077823,-0.9032896993274147,2.066147238657412,1.918815786429163,-0.07385160254881441
3.0771818479600634,-0.9033071949270348,2.0764742783450703,1.9186874070853117,-0.0813868095294537
3.070845385711775,-0.9033249040325887,2.0866673592411513,1.9185533654490068,-0.08924030635713934
3.064238673284952,-0.9033427599273092,2.096726951237951,1.9184137514183681,-0.09740544471679269
3.0573653249016286,-0.9033606958944297,2.106653524227766,1.9182686548915162,-0.105875576293335
3.0502289547838406,-0.9033786452171831,2.1164475481028933,1.918118165766571,-0.11464405277168752
3.042833177153622,-0.9033965411788027,2.126109492755628,1.9179623739416525,-0.12370422583677143
3.035181606233007,-0.9034143170625216,2.135639828078267,1.9178013693148812,-0.1330494471735082
3.0272778562440323,-0.9034319061515728,2.1450390239631076,1.917635241784377,-0.14267306846681888
3.01912554140873,-0.9034492417291895,2.1543075503024456,1.91746408124826,-0.15256844140162482
3.0107282759491376,-0.9034662570786048,2.1634458769885767,1.9172879776046503,-0.1627289176628474
3.002089674087288,-0.9034828854830519,2.172454473913798,1.9171070207516683,-0.17314784893540766
2.9932133500452167,-0.9034990602257639,2.181333810970406,1.9169213005874337,-0.183818586904227
2.9841029180449583,-0.9035147145899739,2.190084358050697,1.9167309070100669,-0.19473448325422665
2.9747619923085473,-0.9035297818589147,2.198706585046967,1.916535929917688,-0.20588888967032787
2.9651941870580187,-0.9035441953158202,2.207200961851513,1.9163364592084169,-0.21727515783745197
2.955403116515408,-0.9035578882439228,2.215567958356631,1.9161325847803743,-0.22888663944052015
2.9453923949027483,-0.9035707939264558,2.2238080444546178,1.9159243965316797,-0.24071668616445377
2.9351656364420764,-0.9035828456466526,2.231921690037769,1.9157119843604535,-0.25275864969417394
2.924726455355425,-0.903593976687746,2.2399093649983812,1.915495438164816,-0.265005881714602
2.91407846586483,-0.9036041203329693,2.2477715392287516,1.915274847842887,-0.27745173391065925
2.903225282192327,-0.9036132098655556,2.2555086826211763,1.9150503032927866,-0.290089557967267
2.892170518559949,-0.9036211785687379,2.2631212650679515,1.9148218944126352,-0.3029127055693463
2.8809177891897315,-0.9036279597257495,2.270609756461373,1.914589711100553,-0.31591452840181866
2.869470708303709,-0.9036334866198235,2.277974626693738,1.9143538432546596,-0.3290883781496052
2.8578328901239174,-0.9036376925341928,2.2852163456573438,1.9141143807730756,-0.34242760649762716
2.8460079488723897,-0.9036405107520907,2.292335383244484,1.913871413553921,-0.355925565130806
2.833999498771162,-0.9036418745567504,2.299332209347458,1.9136250314953158,-0.3695756057340628
2.821811154042269,-0.9036417172314049,2.3062072938585603,1.9133753244953804,-0.3833710799923189
2.8094465289077446,-0.9036399720592874,2.312961106670088,1.9131223824522348,-0.3973053395904955
2.7969092375896243,-0.9036365723236308,2.3195941176743378,1.912866295263999,-0.41137173621351386
2.7842028943099426,-0.9036314513076686,2.3261067967636047,1.9126071528287933,-0.4255636215462951
2.771331113290735,-0.9036245422946337,2.3324996138301866,1.9123450450447377,-0.43987434727376123
2.7582975087540347,-0.9036157785677593,2.33877303876638,1.9120800618099523,-0.45429726508083246
2.745105694921878,-0.9036050934102783,2.3449275414644797,1.9118122930225574,-0.46882572665243066
2.731759286016298,-0.9035924201054241,2.3509635918167837,1.9115418285806731,-0.48345308367347695
2.7182618962593317,-0.9035776919364297,2.356881659715588,1.9112687583824195,-0.4981726878288927
2.7046171398730117,-0.9035608421865281,2.3626822150531885,1.9109931723259166,-0.5129778908035989
2.690828631079374,-0.9035418041389527,2.3683657277218817,1.9107151603092845,-0.5278620442825174
2.6768999841004533,-0.9035205110769366,2.3739326676139645,1.9104348122306434,-0.5428184999505689
2.662834813158284,-0.9034968962837127,2.379383504621733,1.9101522179881136,-0.5578406094926749
2.6486367324749005,-0.9034708930425142,2.3847187086374833,1.909867467479815,-0.5729217245937565
2.6343093562723388,-0.9034424346365741,2.3899387495535125,1.909580650603868,-0.5880551969387349
2.6198562987726324,-0.9034114543491258,2.3950440972621165,1.9092918572583921,-0.6032343782125318
2.605281174197817,-0.9033778854634025,2.4000352216555916,1.9090011773415083,-0.618452620100068
2.5905875967699266,-0.9033416612626369,2.4049125926262342,1.9087087007513361,-0.6337032742862649
2.575779180710996,-0.9033027150300624,2.409676680066341,1.9084145173859959,-0.648979692456044
2.560859540243061,-0.9032609800489121,2.4143279538682085,1.9081187171436076,-0.6642752262943263
2.545832289588155,-0.9032163896024191,2.4188668839241334,1.9078213899222918,-0.6795832274860334
2.530701042968314,-0.9031688769738164,2.4232939401264106,1.9075226256201678,-0.6948970477160861
2.515469414605572,-0.9031183754463374,2.427609592367338,1.9072225141353567,-0.7102100386694059
2.5001410187219637,-0.9030648183032148,2.431814310539212,1.906921145365978,-0.7255155520309138
2.4847194695395243,-0.9030081388276823,2.4359085645343277,1.9066186092101518,-0.7408069394855317
2.4692083812802883,-0.9029482703029724,2.4398928242449824,1.9063149955659986,-0.7560775527181802
2.4536113681662903,-0.9028851460123188,2.4437675595634727,1.9060103943316384,-0.771320743413781
2.4379320444195653,-0.9028186992389542,2.4475332403820946,1.9057048954051912,-0.786529863257255
2.4221740242621483,-0.9027488632661119,2.4511903365931444,1.905398588684777,-0.8016982639335237
2.4063409219160734,-0.902675571377025,2.454739318088919,1.9050915640685162,-0.8168192971275083
2.3904363516033764,-0.9025987568549266,2.458180654761714,1.904783911454529,-0.8318863145241302
2.374463927546091,-0.9025183529830499,2.461514816503827,1.904475720740935,-0.8468926678083105
2.3584272639662527,-0.902434293044628,2.464742273207553,1.9041670818258551,-0.8618317086649707
2.342329975085896,-0.9023465103228939,2.4678634947651896,1.903858084607409,-0.8766967887790317
2.3261756751270553,-0.9022549381010808,2.470878951069032,1.9035488189837164,-0.8914812598354147
2.3099679783117657,-0.902159509662422,2.4737891120113784,1.9032393748528984,-0.9061784735190412
2.293710498862062,-0.9020601582901502,2.476594447484523,1.9029298421130745,-0.9207817815148331
2.277406850999979,-0.901956817267499,2.479295427380764,1.9026203106623645,-0.9352845355077104
2.2610606489475513,-0.9018494198777012,2.481892521592397,1.9023108703988891,-0.9496800871825954
2.244675506926814,-0.90173789940399,2.484386200011719,1.9020016112207685,-0.9639617882244087
2.228255039159801,-0.9016221891295986,2.4867769325310247,1.9016926230261226,-0.978122990318072
2.2118028598685484,-0.90150222233776,2.4890651890426128,1.9013839957130716,-0.9921570451485062
2.19532258327509,-0.9013779323117074,2.4912514394387775,1.9010758191797354,-1.006057304400633
2.178817823601461,-0.901249252334674,2.4933361536118173,1.9007681833242343,-1.0198171197593733
2.1622921950696954,-0.9011161156898929,2.4953198014540265,1.9004611780446883,-1.033429842909648
2.1457493119018287,-0.900978455660597,2.4972028528577037,1.9001548932392178,-1.0468888255363793
2.129192788319896,-0.9008362055300198,2.498985777715143,1.8998494188059425,-1.060187419324488
2.112626238545931,-0.9006892985813939,2.5006690459186434,1.899544844642983,-1.0733189759588955
2.0960532768019693,-0.9005376680979529,2.502253127360499,1.8992412606484592,-1.0862768471245225
2.0794775173100453,-0.9003812473629298,2.5037384919330075,1.8989387567204914,-1.0990543845062912
2.0629025742921936,-0.9002199696595576,2.505125609528464,1.8986374227571992,-1.1116449397891222
2.0463320619704493,-0.9000537682710696,2.5064149500391673,1.8983373486567034,-1.1240418646579367
2.0297695945668472,-0.8998825764806988,2.507606983357411,1.8980386243171237,-1.1362385107976565
2.013218786303422,-0.8997063275716782,2.508702179375494,1.8977413396365803,-1.1482282298932016
1.9966832514022084,-0.8995249548272412,2.5097010079857105,1.8974455845131935,-1.1600043736294954
1.9801666040852413,-0.8993383915306208,2.5106039390803576,1.8971514488450831,-1.1715602936914582
1.963672458574555,-0.89914657096505,2.511411442551733,1.8968590225303696,-1.18288934176401
1.9472044290921853,-0.8989494264137622,2.5121239882921316,1.896568395467173,-1.1939848695320734
1.9307661298601655,-0.8987468911599902,2.5127420461938503,1.8962796575536132,-1.2048402286805693
1.9143611751005314,-0.8985388984869674,2.5132660861491853,1.8959928986878105,-1.2154487708944193
1.8979931790353168,-0.8983253816779267,2.5136965780504332,1.8957082087678854,-1.2258038478585445
1.8816657558865586,-0.8981062740161014,2.5140339917898906,1.8954256776919571,-1.2358988112578655
1.865382519876289,-0.8978815087847246,2.514278797259854,1.8951453953581467,-1.2457270127773046
1.8491470852265444,-0.8976510192670294,2.514431464352619,1.8948674516645738,-1.2552818041017824
1.8329630661593588,-0.8974147387462489,2.514492462960483,1.8945919365093586,-1.2645565369162208
1.8168340768967675,-0.897172600505616,2.514462262975741,1.8943189397906213,-1.2735445629055395
1.8007637316608047,-0.8969245378283642,2.5143413342906906,1.894048551406482,-1.2822392337546624
1.7847556446735053,-0.8966704839977265,2.514130146797629,1.8937808612550608,-1.2906339011485082
1.7688134301569038,-0.896410372296936,2.51382917038885,1.893515959234478,-1.2987219167719992
1.7529407023330363,-0.8961441360092257,2.5134388749566523,1.8932539352428532,-1.3064966323100575
1.7371410754239363,-0.895871708417829,2.512959730393331,1.892994879178307,-1.3139513994476029
1.7214181636516392,-0.8955930228059787,2.5123922065911835,1.8927388809389598,-1.3210795698695577
1.7057755812381787,-0.8953080124569082,2.5117367734425056,1.892486030422931,-1.3278744952608421
1.6902169424055908,-0.8950166106538504,2.5109939008395936,1.8922364175283413,-1.3343295273063787
1.6747458613759096,-0.8947187506800386,2.5101640586747433,1.8919901321533104,-1.3404380176910873
1.6593659523711703,-0.8944143658187058,2.5092477168402536,1.8917472641959587,-1.3461933180998904
1.644080829613407,-0.8941033893530852,2.5082453452284184,1.8915079035544062,-1.3515887802177087
1.6288941073246552,-0.89378575456641,2.5071574137315347,1.8912721401267731,-1.3566177557294639
1.6138093997269494,-0.8934613947419131,2.505984392241899,1.8910400638111797,-1.3612735963200766
1.5988303210423238,-0.8931302431628277,2.504726750651808,1.8908117645057458,-1.3655496536744685
1.583960485492814,-0.892792233112387,2.503384958853558,1.8905873321085918,-1.3694392794775605
1.5692035073004547,-0.8924472978738242,2.5019594867394446,1.8903668565178373,-1.3729358254142743
1.5545630006872804,-0.8920953707303723,2.5004508042017655,1.890150427631603,-1.3760326431695318
1.540042579875325,-0.8917363849652643,2.498859381132817,1.889938135348009,-1.3787230844282523
1.5256458590866249,-0.8913702738617335,2.497185687424894,1.8897300695651753,-1.3810005008753587
1.5113764525432138,-0.890996970703013,2.4954301929702942,1.8895263201812218,-1.3828582441957722
1.497237974467127,-0.8906164087723359,2.4935933676613136,1.8893269770942687,-1.3842896660744128
1.4832340390803984,-0.8902285213529353,2.491675681390249,1.8891321302024366,-1.3852881181962027
1.4693682606050642,-0.8898332417280445,2.489677604049396,1.8889418694038451,-1.3858469522460628
1.455644253263158,-0.8894305031808962,2.4875996055310523,1.8887562845966144,-1.385959519908916
1.4420656312767148,-0.8890202389947239,2.4854421557275126,1.888575465678865,-1.3856191728696823
1.4286360088677694,-0.8886023824527607,2.4832057245310746,1.8883995025487166,-1.384819262813282
1.4153590002583574,-0.8881768668382397,2.480890781834034,1.8882284851042894,-1.383553141424637
1.4022382196705119,-0.8877436254343938,2.478497797528688,1.8880625032437037,-1.3818141603886689
1.3892772813262686,-0.8873025915244563,2.476027241507332,1.8879016468650796,-1.379595671390299
1.3764797994476625,-0.8868536983916604,2.473479583662263,1.887746005866537,-1.3768910261144494
1.3638493882567277,-0.8863968793192392,2.4708552938857773,1.8875956701461962,-1.3736935762460387
1.3513896619754995,-0.8859320675904256,2.4681548420701716,1.8874507296021774,-1.3699966734699909
1.3391042348260134,-0.8854591964884528,2.4653786981077417,1.8873112741326006,-1.3657936694712256
1.3269967210303022,-0.8849781992965542,2.4625273318907843,1.8871773936355858,-1.3610779159346653
1.315070734810402,-0.8844890092979627,2.4596012133115956,1.8870491780092538,-1.3558427645452302
1.3033298903883475,-0.8839915597759114,2.4566008122624723,1.8869267171517237,-1.3500815669878423
1.2917778019861734,-0.8834857840136334,2.453526598635711,1.8868101009611165,-1.3437876749474222
1.2804180838259138,-0.8829716152943621,2.450379042323607,1.8866994193355517,-1.3369544401088924
1.269254350129604,-0.8824489869013301,2.4471586132184577,1.8865947621731498,-1.3295752141571722
1.2582902151192794,-0.8819178321177712,2.44386578121256,1.886496219372031,-1.3216433487771844
1.247529293016974,-0.8813780842269179,2.4405010161982092,1.886403880830315,-1.3131521956538506
1.2369751980447226,-0.8808296765120037,2.437064788067702,1.8863178364461222,-1.30409510647209
1.22663154442456,-0.8802725422562615,2.433557566713335,1.8862381761175728,-1.2944654329168248
1.216501946378521,-0.8797066147429246,2.4299798220274043,1.8861649897427868,-1.2842565266729782
1.2065900181286398,-0.879131827255226,2.426332023902207,1.8860983672198843,-1.2734617394254686
1.1968993738969518,-0.878548113076399,2.422614642230039,1.8860383984469857,-1.2620744228592207
1.1874336279054933,-0.8779554054896764,2.418828146903196,1.8859851733222106,-1.250087928659152
1.1781963943762963,-0.8773536377782918,2.4149730078139746,1.8859387817436797,-1.2374956085101854
1.1691912875313952,-0.8767427432254778,2.4110496948546722,1.8858993136095126,-1.224290814097242
1.1604219215928278,-0.8761226551144679,2.407058677917585,1.8858668588178298,-1.2104668971052428
1.1518919107826284,-0.8754933067284951,2.403000426895009,1.8858415072667514,-1.19601720921911
1.1436048693228296,-0.8748546313507923,2.398875411679241,1.8858233488543976,-1.1809351021237635
1.1355644114354675,-0.8742065622645931,2.394684102162577,1.8858124734788881,-1.1652139275041273
1.1277741513425767,-0.8735490327531302,2.3904269682373127,1.8858089710383432,-1.1488470370451198
1.1202377032661914,-0.8728819760996371,2.386104479795746,1.8858129314308836,-1.131827782431662
1.1129586814283474,-0.8722053255873464,2.3817171067301723,1.8858244445546286,-1.1141495153486778
1.1059407000510793,-0.8715190144994918,2.377265318932888,1.8858436003076986,-1.0958055874810864
1.0991873733564206,-0.870822976119306,2.3727495862961896,1.8858704885882138,-1.0767893505138106
1.0927023155664077,-0.8701171437300222,2.368170378712375,1.8859051992942946,-1.05709415613177
1.086489140903074,-0.8694014506148737,2.3635281660737384,1.8859478223240609,-1.0367133560198862
1.080551463588455,-0.8686758300570936,2.358823418272577,1.8859984475756324,-1.0156403018630833
1.074892897844586,-0.8679402153399149,2.3540566052011873,1.8860571649471298,-0.9938683453462778
1.0695170578935005,-0.8671945397465707,2.3492281967518656,1.886124064336673,-0.9713908381543934
1.0644275579572344,-0.8664387365602942,2.3443386628169085,1.8861992356423822,-0.9482011319723522
1.0596280122578214,-0.8656727390643185,2.3393884732886123,1.8862827687623775,-0.9242925784850744
1.0551220350172974,-0.8648964805418768,2.3343780980592728,1.886374753594779,-0.8996585293774801
1.050913240457696,-0.8641098942762021,2.329308007021188,1.886475280037707,-0.8742923363344941
1.0470052428010534,-0.8633129135505276,2.3241786700666536,1.8865844379892813,-0.8481873510410338
1.0434016562694026,-0.8625054716480864,2.3189905570879645,1.886702317347622,-0.8213369251820222
1.0401060950847794,-0.8616875018521115,2.313744137977418,1.8868290080108499,-0.7937344104423802
1.0371221734692186,-0.8608589374458363,2.3084398826273116,1.886964599877084,-0.7653731585070309
1.034453505644755,-0.8600197117124937,2.303078260929941,1.8871091828444455,-0.7362465210608935
1.032103705833423,-0.8591697579353169,2.297659742777602,1.8872628468110542,-0.70634784978889
1.0300763882572572,-0.8583090093975392,2.2921847980625913,1.8874256816750299,-0.6756704963759406
1.028375167138293,-0.8574373993823933,2.2866538966772065,1.8875977773344932,-0.6442078125069672
1.0270036566985645,-0.8565548611731126,2.281067508513743,1.8877792236875637,-0.6119531498668911
1.0259654711601067,-0.8556613280529304,2.275426103464495,1.8879701106323616,-0.5788998601406341
1.025264224744956,-0.8547567333050794,2.269730151421763,1.8881705280670076,-0.5450412950131174
1.024903531675145,-0.8538410102127929,2.263980122277841,1.8883805658896216,-0.510370806169262
1.0248870061727091,-0.8529140920593042,2.2581764859250257,1.8886003139983234,-0.47488174529398997
1.0252182624596822,-0.8519759121278463,2.252319712255614,1.8888298622912332,-0.4385674640722206
1.0259009147581004,-0.8510264037016522,2.2464102711619014,1.8890693006664712,-0.4014213141888767
1.0269385772899984,-0.8500655000639551,2.240448632536186,1.8893187190221579,-0.3634366473288786
1.0283348642774088,-0.8490931344979882,2.2344352662707627,1.8895782072564127,-0.3246068151771482
1.0300933899423708,-0.8481092402869845,2.228370642257927,1.8898478552673565,-0.28492516941860657
1.0322177685069152,-0.8471137507141774,2.222255230389978,1.8901277529531089,-0.24438506173817487
1.0347116141930774,-0.8461065990627996,2.2160895005592094,1.8904179902117901,-0.20297984382077416
1.037578541222893,-0.8450877186160844,2.2098739226579203,1.8907186569415202,-0.16070286735132555
1.0408221638183983,-0.8440570426572652,2.203608966578405,1.8910298430404198,-0.11754748401475368
1.0444460962016242,-0.8430145044695748,2.1972951022129603,1.891351638406608,-0.07350704549597609
1.0484539525946097,-0.8419600373362462,2.1909327994538836,1.891684132938206,-0.02857490347991387
1.0525971901916944,-0.8408935745405131,2.1845225281934706,1.8920274165333337,0.017255590348510097
1.056612544989803,-0.8398150493656079,2.178064758324016,1.8923815790901108,0.0639910843043765
1.0605007902439392,-0.8387243950947643,2.1715599597378197,1.8927467105066575,0.11163822670276247
1.0642626992091115,-0.8376215450112151,2.1650086023271755,1.8931229006810941,0.16020366585874335
1.0678990451403192,-0.8365064323981936,2.158411155984381,1.893510239511541,0.20969405008740694
1.0714106012925695,-0.8353789905389326,2.1517680906017316,1.893908816896118,0.26011602770382325
1.0747981409208676,-0.8342391527166658,2.1450798760715237,1.894318722732945,0.3114762470230765
1.0780624372802134,-0.8330868522146258,2.1383469822860564,1.8947400469201428,0.3637813563602421
1.0812042636256154,-0.831922022316046,2.131569879137622,1.8951728793558307,0.4170380040303989
1.0842243932120788,-0.8307445963041593,2.1247490365185198,1.8956173099381295,0.47125283834862586
1.0871235992946033,-0.8295545074621992,2.117884924321044,1.8960734285651588,0.5264325076300036
1.0899026551281958,-0.8283516890733984,2.110978012437494,1.8965413251350391,0.582583660189611
1.0925623339678625,-0.8271360744209902,2.104028770760164,1.8970210895458905,0.6397129443425253
1.0951034090686051,-0.8259075967882078,2.09703766918135,1.897512811695833,0.6978270084038254
1.0975266536854271,-0.8246661894582842,2.0900051775933495,1.898016581482987,0.7569325006885883
1.0998328410733356,-0.8234117857144526,2.0829317658884605,1.898532488805472,0.8170360695118948
1.1020227444873338,-0.8221443188399461,2.075817903958975,1.899060623561409,0.8781443631888255
1.1040971371824266,-0.8208637221179979,2.068664061697193,1.8996010756489174,0.9402640300344576
1.1060567924136158,-0.8195699288318408,2.0614707089954094,1.9001539349661174,1.002328888268277
1.10790248343591,-0.8182628722647084,2.0542383157459225,1.9007192914111295,1.0636700218489654
1.1096349835043091,-0.8169424856998335,2.046967351841027,1.9012972348820736,1.124291047905265
1.11125506587382,-0.8156087024204492,2.0396582871730184,1.90188785527707,1.1841955835659368
1.112763503799447,-0.8142614557097889,2.032311591634195,1.9024912424942384,1.2433872459597195
1.114161070536194,-0.8129006788510855,2.024927735116852,1.9031074864316995,1.301869652215367
1.1154485393390638,-0.8115263051275723,2.017507187513287,1.903736676987573,1.3596464194616145
1.1166266834630656,-0.8101382678224821,2.0100504187157946,1.904378904059979,1.4167211648272318
1.1176962761631966,-0.8087365002190483,2.002557898616672,1.905034257547038,1.4730975054409408
1.118658090694467,-0.807320935600504,1.9950300971082178,1.90570282734687,1.5287790584315282
1.119512900311879,-0.8058915072500823,1.9874674840827253,1.906384703357595,1.5837694409277008
1.1202614782704357,-0.8044481484510162,1.9798705294324919,1.9070799754773329,1.638072270058224
1.120904597825143,-0.8029907924865389,1.9722397030498142,1.9077887336042043,1.6916911629518463
1.1214430322310065,-0.8015193726398837,1.964575474826989,1.908511067636329,1.7446297367373118
1.1218775547430262,-0.8000338221942835,1.9568783146563122,1.9092470674718274,1.7968916085433833
1.1222089386162104,-0.7985340744329714,1.94914869243008,1.9099968230088196,1.8484803954987914
1.1224379571055627,-0.7970200626391806,1.941387078040588,1.9107604241454255,1.8993997147322936
1.1225653834660871,-0.7954917200961443,1.9335939413801355,1.9115379607797651,1.9496531833726394
1.1225919909527862,-0.7939489800870956,1.9257697523410175,1.912329522809959,1.9992444185485692
1.1225185528206685,-0.7923917758952675,1.9179149808155285,1.913135200134127,2.0481770373888377
1.1223458423247323,-0.7908200408038931,1.910030096695966,1.9139550826503893,2.0964546570221927
1.122074632719987,-0.7892337080962057,1.9021155698746277,1.9147892602568661,2.1440808945773817
1.1217056972614354,-0.7876327110554385,1.894171870243808,1.9156378228516775,2.1910593671831595
1.1212398092040818,-0.7860169829648245,1.8861994676958058,1.9165008603329434,2.2373936919682524
1.1206777418029317,-0.7843864571075965,1.8781988321229142,1.9173784625987844,2.28308748606144
1.1200202683129847,-0.7827410667669881,1.8701704334174334,1.91827071954732,2.328144366591447
1.1192681619892528,-0.7810807452262322,1.8621147414716583,1.9191777210766712,2.3725679506870296
1.1184221960867333,-0.779405425768562,1.8540322261778834,1.920099557084957,2.4163618554769446
1.117483143860433,-0.7777150416772105,1.845923357428406,1.9210363174702985,2.4595296980899235
1.1164517785653598,-0.776009526235411,1.837788605115525,1.9219880921308152,2.502075095654723
1.1153288734565123,-0.7742888127263965,1.829628439131533,1.9229549709646276,2.544001665300092
1.1141152017888971,-0.7725528344334002,1.8214433293687287,1.9239370438698558,2.5853130241547966
1.1128115368175204,-0.7708015246396551,1.813233745719408,1.9249344007446196,2.6260127893475556
1.1114186517973819,-0.7690348166283943,1.8050001580758683,1.9259471314870396,2.666104578007113
1.109937319983493,-0.7672526436828512,1.7967430363304049,1.9269753259952356,2.705592007262249
1.1083683146308525,-0.7654549390862586,1.7884628503753144,1.9280190741673278,2.7444786942416854
1.1067124089944653,-0.76364163612185,1.780160070102892,1.9290784659014364,2.78276825607419
1.104970376329335,-0.761812668072858,1.7718351654054367,1.9301535910956813,2.8204643098884947
1.1031429898904719,-0.7599679682225162,1.7634886061752417,1.9312445396481828,2.857570472813352
1.1012310229328732,-0.7581074698540575,1.755120862304606,1.932351401457061,2.894090361977529
1.0992352487115458,-0.756231106250715,1.7467324036858252,1.9334742664204363,2.930027594509747
1.0971564404814957,-0.7543388106957221,1.738323700211197,1.9346132244364282,2.965385787538761
1.094995371497724,-0.7524305164723115,1.7298952217730155,1.9357683654031572,3.000168558193332
1.0927528150152384,-0.7505061568637165,1.721447438263578,1.9369397792187442,3.034379523602201
1.09042954428904,-0.7485656651531704,1.7129808195751801,1.9381275557813078,3.0680223008941088
1.0880263325741382,-0.746608974623906,1.7044958356001196,1.939331784988969,3.101100507197815
1.0855439531255322,-0.7446360185591567,1.6959929562306926,1.9405525567398478,3.133617759642066
1.0829831791982265,-0.7426467302421554,1.6874726513591947,1.9417899609320641,3.1655776753555998
1.0803447840472291,-0.7406410429561355,1.6789353908779228,1.9430440874637385,3.1969838714671805
1.0776295409275396,-0.7386188899843299,1.6703816446791744,1.9443150262329911,3.227839965105545
1.0748382230941673,-0.7365802046099719,1.6618118826552453,1.9456028671379415,3.2581495733994394
1.0719716038021128,-0.7345249201162944,1.6532265746984307,1.9469077000767103,3.2879163134776253
1.0690304563063835,-0.7324529697865305,1.6446261907010267,1.9482296149474172,3.3171438024688573
1.06601555386198,-0.7303642869039138,1.6360112005553322,1.9495687016481829,3.3458356575018477
1.0629276697239116,-0.7282588047516767,1.6273820741536413,1.950925050077127,3.373995495705376
1.0597675771471762,-0.726136456613053,1.6187392813882504,1.9522987501323699,3.4016269342081795
1.0565360493867821,-0.7239971757712754,1.6100832921514578,1.9536898917120316,3.4287335901390072
1.0532338596977344,-0.7218408955095772,1.6014145763355594,1.9550985647142325,3.4553190806266123
1.049861781335038,-0.7196675491111914,1.5927336038328508,1.9565248590370925,3.481387022799735
1.0464205875536927,-0.7174770698593512,1.5840408445356275,1.9579688645787314,3.5069410337871325
1.042911051608706,-0.7152693910372898,1.575336768336188,1.9594306712372698,3.5319847307175465
1.0393339467550828,-0.7130444459282402,1.5666218451268283,1.9609103689108278,3.5565217307197194
1.035690046247825,-0.7108021678154355,1.5578965447998443,1.9624080474975256,3.580555650922431
1.0319801233419406,-0.708542489982109,1.5491613372475315,1.9639237968954828,3.6040901084543773
1.0282049512924312,-0.7062653457114936,1.5404166923621858,1.96545770700282,3.6271287204443574
1.024365303354298,-0.7039393338039925,1.5316630800361075,1.9670098677176573,3.6496751040210906
1.0204619527825511,-0.7015535869910567,1.5229009701615897,1.9685803689381147,3.671732876313337
1.0164956728321957,-0.6991087736507016,1.5141308326309284,1.9701693005623122,3.693305654449828
1.01246723675823,-0.6966055621609368,1.5053531373364228,1.9717767524883703,3.714397055559335
1.0083774178156624,-0.6940446208997786,1.496568354170367,1.9734028146144087,3.7350106967705905
1.004226989259498,-0.6914266182452362,1.4877769530250582,1.975047576838548,3.755150195212364
1.0000167243447349,-0.6887522225753284,1.478979403792791,1.976711129058908,3.7748191680133605
0.9957473963263843,-0.6860221022680628,1.4701761763658652,1.9783935611736085,3.7940212323023754
0.9914197784594507,-0.683236925701451,1.4613677406365762,1.9800949630807705,3.812760005208144
0.9870346439989328,-0.6803973612535144,1.4525545664972177,1.9818154246785133,3.8310391038594105
0.9825927661998346,-0.6775040773022627,1.443737123840089,1.9835550358649576,3.8488621453848957
0.978094918317169,-0.674557742225701,1.434915882557485,1.9853138865382232,3.866232746913383
0.9735418736059356,-0.6715590244018528,1.4260913125417045,1.9870920665964305,3.8831545255736124
0.9689344053211384,-0.6685085922087262,1.4172638836850404,1.9888896659376991,3.899631098494339
0.9642732867177775,-0.665407114024335,1.4084340658797903,1.9907067744601497,3.915666082804293
0.959559291050867,-0.6622552582266912,1.3996023290182515,1.9925434820619021,3.9312630956322216
0.9547931915754013,-0.6590536931938096,1.390769142992721,1.9943998786410766,3.9464257541069045
0.9499757615463889,-0.6558030873037031,1.3819349776954937,1.9962760540957933,3.961157675357054
0.9451077742188385,-0.6525041089343824,1.3731003030188647,1.9981720983241722,3.9754624765114492
0.9401900028477459,-0.6491574264638635,1.3642655888551332,2.0000881012243337,3.9893437746988134
0.9352232206881208,-0.645763708270156,1.3554313050965954,2.0020241526943976,4.002805187047901
0.9302082009949664,-0.6423236227312783,1.346597921635547,2.003980342632484,4.015850330687478
0.9251457170232897,-0.6388378382252382,1.337765908364283,2.005956760936713,4.028482822746259
0.9200365420280896,-0.6353070231300504,1.3289357351751017,2.0079534975052056,4.040706280353032
0.9148814492643731,-0.6317318458237273,1.3201078719602992,2.009970642236081,4.052524320636511
0.9096812119871482,-0.6281129746842868,1.311282788612171,2.012008285027459,4.063940560725467
0.9044366034514124,-0.6244510780897321,1.3024609550230144,2.014066515777461,4.074958617748631
0.8991483969121754,-0.6207468244180867,1.2936428410851253,2.016145424384206,4.085582108834764
0.8938173656244386,-0.6170008820473569,1.2848289166907998,2.0182451007458146,4.095814651112608
0.888444282843202,-0.6132139193555575,1.276019651732335,2.020365634760407,4.1056598617109294
0.8830299218234838,-0.6093866047207035,1.267215516102028,2.022507116326103,4.115121357758451
0.877575055820274,-0.6055196065208044,1.2584169796921723,2.024669635341023,4.124202756383951
0.8720804580885861,-0.601613593133874,1.2496245123950676,2.0268532817032874,4.132907674716122
0.8665469018834191,-0.5976692329379278,1.2408385841030083,2.0290581453110157,4.141239729883765
0.8609751604597804,-0.593687194310978,1.2320596647082924,2.031284316062328,4.149202539015615
0.8553660070726723,-0.5896681456310353,1.2232882241032152,2.0335318838553453,4.156799719240421
0.8497202149770979,-0.585612755276117,1.2145247321800725,2.035800938588187,4.164034887686917
0.8440385574280667,-0.5815216916242312,1.2057696588311617,2.038091570158973,4.170911661483867
0.838321807680579,-0.5773956230533943,1.1970234739487786,2.040403868465824,4.1774336577600195
0.8325707389896397,-0.5732352179416167,1.1882866474252198,2.04273792340686,4.18360449364409
0.8267861246102548,-0.5690411446669144,1.1795596491527842,2.045093824880201,4.189427786264858
0.8209687377974229,-0.5648140716072958,1.1708429490237635,2.0474716627839675,4.194907152751103
0.8151193518061577,-0.5605546671407815,1.1621370169304566,2.049871527016279,4.200046210231498
0.809238739891458,-0.5562635996453777,1.1534423227651605,2.052293507475256,4.204848575834863
0.8033276753083278,-0.5519415374991001,1.14475933642017,2.054737694059019,4.209317866689894
0.7973869313117703,-0.547589149079962,1.1360885277877841,2.057204176665687,4.213457699925389
0.7914172811567957,-0.543207102765976,1.127430366760294,2.0596930451933813,4.2172716926700495
0.7854194980984017,-0.5387960669351521,1.1187853232300022,2.0622043895402213,4.220763462052648
0.7793943553915943,-0.5343567099655093,1.1101538670892017,2.0647382996043273,4.223936625201901
0.7733426262913801,-0.5298897002350555,1.10153646823019,2.0672948652838197,4.226794799246594
0.767265084052764,-0.5253957061218069,1.0929335965452647,2.0698741764768185,4.229341601315475
0.7611625019307482,-0.5208753960037757,1.0843457219267179,2.0724763230814434,4.231580648537285
0.7550356531803342,-0.5163294382589747,1.0757733142668497,2.0751013949958153,4.233515558040782
0.748885311056533,-0.5117585012654153,1.0672168434579548,2.0777494821180538,4.235149946954671
0.7427122488143469,-0.507163253401111,1.0586767793923317,2.080420674346279,4.236487432407738
0.7365172397087729,-0.5025443630440805,1.050153591962275,2.083115061578611,4.237531631528718
0.7303010569948274,-0.49790249857232993,1.041647751060082,2.0858327337131706,4.238286161446396
0.7240644739275073,-0.49323832836387105,1.0331597265780474,2.088573780648077,4.238754639289457
0.7178082637618148,-0.4885525207967234,1.0246899884084693,2.0913382922814505,4.238940682186694
0.7115331997527603,-0.4838457442488977,1.016239006443644,2.0941263585114123,4.238847907266841
0.7052400551553504,-0.4791186670984029,1.0078072505758668,2.096938069236081,4.238479931658635
0.6989296032245731,-0.4743719577232577,0.9993951906974377,2.099773514353578,4.237840372490854
0.6926026172154502,-0.4696062845014737,0.9910032967006464,2.1026327837620222,4.236932846892202
0.6862598703829788,-0.4648223158110616,0.9826320384777945,2.1055159673595343,4.235760971991503
0.679902135982168,-0.460020720030033,0.9742818859211786,2.1084231550442354,4.23432836491742
0.6735301872680184,-0.4552021655364076,0.965953308923091,2.111354436714244,4.232638642798769
0.6671447974955278,-0.4503673207081915,0.9576467773758321,2.114309902267681,4.230695422764224
0.6607467399197171,-0.44551685392340357,0.9493627611716962,2.1172896416026665,4.228502321942621
0.6543367877955744,-0.44065143356005443,0.9411017302029805,2.120293744617321,4.226062957462656
0.6479157143781107,-0.43577172799615305,0.9328641543619822,2.1233223012097637,4.223380946453052
0.6414842929223319,-0.43087840560971813,0.9246505035409944,2.1263754012781155,4.220459906042606
0.6350432966832402,-0.4259721347787613,0.9164612476323195,2.1294531347204964,4.217303453360088
0.6285934989158362,-0.42105358388129144,0.9082968565282483,2.1325555914350263,4.213915205534185
0.6221356728751299,-0.4161234212953282,0.9001578001210788,2.1356828613198253,4.2102987796936695
0.6156705918161292,-0.41118231539888495,0.8920445483031068,2.138835034273014,4.206457792967285
0.6091990289938272,-0.4062309345699644,0.8839575709666314,2.142012200192712,4.20239586248379
0.6027217576632369,-0.4012699471865897,0.8758973380039476,2.1452144489770393,4.198116605371936
0.5962395510793597,-0.3963000216267689,0.8678643193073499,2.148441870524117,4.193623638760464
0.589753182497196,-0.3913218262685181,0.8598589847691378,2.151694554732064,4.188920579778117
0.5832634251717614,-0.386336029489847,0.8518818042816045,2.1549725914990012,4.184011045553639
0.5767710523580512,-0.38134329966877356,0.843933247737048,2.1582760707230486,4.1788986532158
0.5702768373110683,-0.3763443051833022,0.836013785027764,2.161605082302326,4.173587019893333
0.5637815532858239,-0.3713397144114561,0.8281238860460531,2.164959716134954,4.168079762714992
0.5572859735373186,-0.3663301957312406,0.8202640206842049,2.1683400621190527,4.162380498809522
0.5507908713205527,-0.3613164175206727,0.8124346588345208,2.1717462101527416,4.156492845305657
0.5442970198905392,-0.3562990481577666,0.8046362703892953,2.1751782501341417,4.1504204193321925
0.5378051925022733,-0.35127875602053216,0.7968693252408237,2.178636271961372,4.14416683801781
0.531316162410767,-0.346256209486981,0.7891342932814052,2.182120365532554,4.1377357184912995
0.5248307028710224,-0.3412320769351309,0.7814316444033338,2.1856306207458065,4.1311306778814085
0.5183495871380455,-0.33620702674299263,0.7737618484989088,2.1891671274992506,4.124355333316885
0.5118735884668348,-0.3311817272885751,0.7661253754604225,2.1928093287149686,4.117413301926469
0.5054034801123963,-0.32615684694989877,0.758522695180174,2.1965886783007704,4.110308200838908
0.4989400353297384,-0.32113305410497617,0.750954277550461,2.2005024292352218,4.103043647182957
0.4924840273738669,-0.3161110171318109,0.7434205924635755,2.2045478344967577,4.095623258087379
0.486036229499776,-0.31109140440842786,0.735922109811816,2.2087221470638347,4.088050650680884
0.47959741496247954,-0.3060748843128307,0.7284592994874819,2.213022619914913,4.080329442092243
0.47316835701697624,-0.3010621252230399,0.7210326313828652,2.217446506028402,4.072463249450216
0.4667498289182772,-0.29605379551706257,0.7136425753902671,2.221991058382759,4.064455689883523
0.4603426039213794,-0.29105056357291037,0.706289601401977,2.2266535299564723,4.056310380520927
0.45394745528128677,-0.28605309776861,0.698974179310297,2.231431173727934,4.0480309384911735
0.4475651562530123,-0.28106206648215704,0.6916967790075219,2.2363212426756185,4.03962098092299
0.4411964800915582,-0.276078138091572,0.6844578703859492,2.2413209897779787,4.031084124945188
0.43484220005191787,-0.27110198097487004,0.677257923337871,2.246427668013414,4.022423987686473
0.42850308938910686,-0.2661342635100592,0.6700974077555895,2.2516385303604416,4.0136441862755845
0.4221799213581239,-0.26117565407515997,0.6629767935313957,2.256950829797457,4.004748337841285
0.41587346921398094,-0.2562268210481795,0.6558965505575927,2.2623618193029245,3.9957400595123147
0.40958450621167497,-0.25128843280712765,0.6488571487264698,2.2678687518552785,3.9866229684174286
0.40331380560621,-0.24636115773002576,0.6418590579303292,2.2734688804329686,3.977400681685374
0.3970621406525954,-0.24144566419488633,0.634902748061462,2.2791594580144654,3.968076816444885
0.3908302846058298,-0.23654262057971387,0.6279886890121693,2.2849377375781827,3.958654989824744
0.38461901072092175,-0.23165269526252708,0.6211173506747434,2.2908009721025877,3.949138818953692
0.37842909225287436,-0.22677655662134022,0.6142892029414844,2.2967464145661296,3.939531920960455
0.37226130245669253,-0.2219148730341587,0.6075047157046853,2.302771317947215,3.929837912973788
0.3661164145873794,-0.2170683128790083,0.6007643588566465,2.3088729352243362,3.920060412122453
0.3599952018999417,-0.21223754453389443,0.5940686022896582,2.315048519375921,3.9102030355351545
0.35389843764938256,-0.20742323637682425,0.5874179158960269,2.321295323380447,3.9002694003406972
0.347826895090698,-0.2026260567858218,0.5808127695680367,2.3276106002162997,3.8902631236678005
0.34178134747890887,-0.19784667413889778,0.574253633197995,2.3339916028619676,3.880187822645219
0.3357625680690077,-0.19308575681405937,0.5677409766781905,2.3404355842958893,3.8700471144017143
0.3297713301159977,-0.1883439731893244,0.5612752699009231,2.346939797496514,3.859844616066006
0.323808406874889,-0.18362199164270265,0.5548569827584879,2.3535014954422664,3.849583944766863
0.3178745716006901,-0.1789204805522111,0.5484865851431815,2.3601179311116063,3.8392687176330327
0.31197059754839174,-0.17424010829586134,0.5421645469473031,2.3667863574830044,3.82890255179327
0.306097257973013,-0.16958154325166852,0.5358913380631458,2.3735040275348958,3.818489064376287
0.30025532612954287,-0.16494545379763625,0.5296674283830063,2.380268194245687,3.8080318725108597
0.2944455752730022,-0.1603325083117877,0.5234932877991803,2.3870761105938634,3.7975345933257287
0.2886687786583799,-0.15574337517213532,0.5173693862039679,2.393925029557863,3.7870008439496985
0.2829257095406881,-0.15117872275668276,0.5112961934896649,2.400812204116143,3.7764342415114243
0.2772171411749369,-0.14663921944345493,0.5052741795485591,2.4077348872471234,3.765838403139682
0.27154384681612065,-0.1421255336104581,0.49930381427295956,2.414690331929286,3.7552169459632765
0.2659065997192531,-0.13763833363570832,0.4933855675551557,2.421675791141034,3.74457348711087
0.2603061731393215,-0.1331782878972092,0.48751990928744426,2.428688517860863,3.733911643711295
0.25474334033135015,-0.12874606477299544,0.4817073093621236,2.4357257650671897,3.723235032893257
0.24921887455032987,-0.12434233264105288,0.4759482376714841,2.442784785738432,3.712547271785482
0.24373354905127087,-0.1199677598794171,0.47024316410783396,2.4498628328530785,3.701851977516732
0.23828813708918162,-0.11562301486608817,0.46459255856346005,2.4569571593895816,3.691152767215776
0.23288341191905282,-0.11130876597908212,0.4589968909306599,2.4640650183263944,3.680453258011376
0.2275201467958965,-0.1070256815964079,0.45345663110173273,2.4711836626418986,3.6697570670322435
0.22219911497472822,-0.10277443009609577,0.44797224896897525,2.4783103453146182,3.659067811407148
0.21692108971053514,-0.09855567985613511,0.44254421442467695,2.485442319322921,3.648389108264844
0.21168684425833106,-0.09437009925455442,0.4371729973611451,2.4925768376453092,3.6377245747340297
0.20649715187311557,-0.0902183566693644,0.4318590676706675,2.499711153260229,3.627077827943502
0.20135278580989002,-0.08610112047857044,0.4266028952455443,2.5068425191461046,3.616452485022009
0.19625451932366822,-0.08201905906019391,0.4214049499780712,2.51396818828141,3.6058521630982767
0.1912031256694533,-0.07797284079224731,0.4162657017605449,2.5210854136445633,3.5952804793010813
0.18619937810224307,-0.07396313405273602,0.4111856204852602,2.528191448214038,3.5847410507591277
0.181244049877046,-0.06999060721967965,0.40616517604451463,2.5352835449682374,3.5742374946012134
0.17633791424886525,-0.06605592867109955,0.4012048383306075,2.5423589568856357,3.5637734279560505
0.17148174447270215,-0.06215976678498514,0.3963050772358292,2.5494149369446717,3.553352467952415
0.16667631380356696,-0.05830278993937377,0.39146636265247814,2.5564487381238195,3.542978231719019
0.16192239549646104,-0.05448566651226372,0.3866891644728563,2.5634576134015035,3.5326543363846454
0.15722076280638753,-0.050709064881672816,0.38197395258925226,2.5704388157561553,3.522384399078021
0.15257218898835667,-0.04697365342561355,0.3773211968939689,2.577389598166249,3.512172036927929
0.14797744729736806,-0.04328010052210374,0.37273136727929845,2.5843072136102094,3.5020208670630595
0.14343731098841772,-0.03962907454914344,0.3682049336375366,2.591188915066475,3.4919345066122176
0.13895255331653011,-0.03602124388475936,0.3637423658609835,2.5980319555135267,3.481916572704101
0.13452394753668706,-0.032457276906958654,0.3593441338419314,2.604833587929811,3.4719706824675143
0.1301522669039077,-0.028937841993755598,0.35501070747268315,2.6115910652937373,3.462100453031148
0.12583828467319869,-0.025463607523159126,0.3507425566455247,2.6183016405837733,3.452309501523821
0.12158277409955431,-0.022035241873188838,0.34654015125276416,2.6249625667783576,3.4426014450741746
0.11738650843797593,-0.018653413421851894,0.34240396118669025,2.6315710968559642,3.4329799008110555
0.11325026094348623,-0.01531879054716434,0.33833445633960135,2.638124483794982,3.4234484858631973
0.10917480487106879,-0.012032041627140444,0.334332106603795,2.6446199805739212,3.414010817359312
0.10516091347574275,-0.008793835039792697,0.33039738187156686,2.6510548401711986,3.4046705124281544
0.10120936001250591,-0.005604839163128261,0.326530752035211,2.657426315565253,3.3954311881985006
0.0973209177363632,-0.0024657223751702873,0.3227326869870275,2.6637316597345304,3.3862964617990627
0.0934963599023142,0.0006228469460776154,0.3190036566193122,2.6699681256574905,3.377269950358624
0.0897364597653727,0.0036602004225994023,0.3153441308243581,2.6761329663125863,3.368355271005889
0.08604199058054363,0.006645669676377253,0.3117545794944663,2.6822234346782494,3.359556040869684
0.08241372560281945,0.009578586329402228,0.30823547252193073,2.688236783732954,3.350875877078643
0.0788524380872122,0.012458282003667165,0.3047872797990463,2.694170266455089,3.342318396761641
0.07535890128872857,0.015284088321143585,0.3014104712181114,2.7000211358231354,3.333887217047355
0.07193388846236459,0.01805533690383143,0.2981055166714217,2.7057866448155536,3.325585955064504
0.06857817286313228,0.020771359373716436,0.2948728860512766,2.711464046410775,3.317418227941907
0.06529252774603478,0.023431487352780778,0.2917130492499691,2.7170505935872455,3.3093876528082617
0.062077726366077,0.026035052463015518,0.2886264761597932,2.722543539323425,3.30149784679233
0.05893454197825321,0.028581386326404612,0.28561363667305173,2.7279401365977236,3.293752427022909
0.05586374783758785,0.031069820564937345,0.2826750006820369,2.733237638388637,3.28615501062864
0.05286611719906098,0.033499686800603,0.27981103807904617,2.738433297674561,3.2787092147383348
0.049942423317698825,0.03587031665538021,0.277022218756378,2.74352436743397,3.2714186564807832
0.04709343944849387,0.038181041751260025,0.2743090126063219,2.748508100645317,3.2642869529846763
0.04431993884644925,0.04043119371023529,0.2716718895211834,2.7533817502870264,3.2573177213787616
0.04162269476657343,0.04262010415428641,0.2691113193932537,2.758142569337565,3.2505145787918437
0.03900248046386956,0.044747104705400886,0.2666277721148278,2.7627878107753716,3.243881142352592
0.036460069193344324,0.04681152698556623,0.2642217175782049,2.767314727578899,3.237421029189811
0.03399623421000442,0.04881270261677706,0.26189362567568253,2.771720572726565,3.2311378564322126
0.03161174876884587,0.05074996322100489,0.2596439662995511,2.7760025991968433,3.225035241208573
0.029307386124877155,0.05262264042025144,0.2574732093421197,2.780158059968194,3.2191168006476545
0.027083919533099632,0.054430065836495345,0.2553818246956716,2.784184208019049,3.2133861518781686
0.024942122248519993,0.05617157109172588,0.25337028225250613,2.7880782963278037,3.2078469120288418
0.02288276752614493,0.05784648780792878,0.25143905190492255,2.791837577873018,3.2025026982284857
0.020906628620981138,0.059454147607096886,0.24958860354521661,2.795459305633038,3.1973571276058266
0.019014478788029976,0.060993882111205266,0.24781940706568228,2.798940732586317,3.192413817289605
0.017207091282285703,0.06246502294225209,0.2461319323586224,2.802279111711357,3.187676384408576
0.01548523935876922,0.06386690172221954,0.24452664931632206,2.8054716959865473,3.1831484460914794
0.013849696272476564,0.06519885007308979,0.24300402783108943,2.808515738390419,3.1788336194670563
0.01230123527840199,0.06646019961686811,0.2415645377952167,2.811408491901311,3.1747355216640614
0.010840629631575283,0.06765028197551892,0.2402086491009996,2.814147209497719,3.1708577698112776
0.009468652586974713,0.06876842877104039,0.23893683164073387,2.816729144158117,3.1672039810373747
0.008186077399628289,0.0698139716254218,0.2377495553067117,2.8191515488609085,3.163777772471164
0.006993677324517833,0.07078624216064355,0.23664728999123952,2.821411676584539,3.1605827612414146
0.005892225616662472,0.07168457199869671,0.23563050558660947,2.823506780307504,3.15762256447681
0.004882495531054687,0.072508292761567,0.23469967198511377,2.825434113008228,3.1549007993061764
0.00396526032271538,0.07325673607124372,0.23385525907905347,2.8271909276651144,3.152421082858126
0.0031412932466352572,0.07392923354971082,0.2330977367607261,2.8287744772566583,3.150187032261556
0.0024113675578174565,0.0745251168189558,0.23242757492242383,2.8301820147612844,3.148202264645164
0.0017762565112811046,0.07504371750096084,0.23184524345644242,2.8314107931574313,3.146470397137662
0.0012367333620133536,0.07548436721772056,0.23135121225508115,2.8324580654235945,3.144995046867848
0.0007935713650333298,0.07584639759122602,0.23094595121063755,2.833321084538156,3.1437798309643767
0.000447543775337067,0.07612914024345052,0.23062993021540557,2.8339971034796108,3.142828366556131
0.00019942384792237533,0.07633192679639222,0.23040361916168095,2.834483375226384,3.1421442707718086
4.99848378101575e-05,0.07645408887203509,0.23026748794176655,2.8347771527569137,3.1417311607401075
-7.105427357601002e-15,0.07649495809236129,0.23022200644794744,2.8348756890496674,3.141592653589811
