oscarkremer/mentor-optimization/notebooks/traject_1/3_steps/angles_22.csv
theta1,theta2,theta3,theta4,theta5
3.1415926535,-0.9030865823619687,2.1246196420553805,1.9200595938963783,8.979318433952318e-11
3.141502633196184,-0.9030873451631432,2.1176513400537336,1.920002013666638,-7.361709080140305e-05
3.1412333578550022,-0.9030895890888219,2.0991860547402554,1.9198298211698688,-0.0002937324504367858
3.1407860058318575,-0.9030932474222381,2.072883217152138,1.9195438386947488,-0.0006592417158903948
3.14016175548215,-0.9030982534466248,2.0424022583265766,1.9191448885299558,-0.0011690406139396611
3.139361785161281,-0.9031045404452152,2.011402609300763,1.918633792964168,-0.001822024871362015
3.138387273224653,-0.9031120417012424,1.9835437011118913,1.9180113742860634,-0.002617090214934889
3.1372393980276656,-0.9031206904979394,1.9624849647971543,1.9172784547843198,-0.0035531323714357126
3.1359193379257206,-0.9031304201185396,1.9518858313937455,1.916435856747615,-0.004629047067641917
3.13442827127422,-0.9031411638462759,1.955405731938858,1.9154844024646274,-0.0058437300303309314
3.132767376428565,-0.9031528549643815,1.9670982036185933,1.9144249142240346,-0.00719607698628019
3.1309378317441565,-0.9031654267560895,1.9786520175837872,1.9132582143145147,-0.00868498366226712
3.1289408155763954,-0.9031788125046329,1.9900676437267357,1.9119851250247455,-0.01030934578506916
3.1267775062806833,-0.9031929454932451,2.001345551939736,1.9106064686434054,-0.01206805908146373
3.124449082212422,-0.903207759005159,2.0124862121150833,1.909123067459172,-0.013960019278228271
3.1219567217270123,-0.9032231863236079,2.0234900941450755,1.9075357437607232,-0.015984122102140206
3.1193016031798555,-0.9032391607318248,2.034357667922008,1.9058453198367373,-0.01813926327997697
3.116484904926353,-0.9032556155130428,2.0450894033381775,1.9040526179758916,-0.02042433853851599
3.1135078053219063,-0.903272483950495,2.05568577028588,1.9021584604668653,-0.022838243604534705
3.110371482721916,-0.9032896993274147,2.066147238657412,1.900163669598335,-0.02537987420481054
3.1070771154817844,-0.9033071949270348,2.0764742783450703,1.8980690676589795,-0.02804812606612092
3.1036258819569116,-0.9033249040325887,2.0866673592411513,1.8958754769374764,-0.030841894915243286
3.1000189605027,-0.9033427599273092,2.096726951237951,1.893583719722504,-0.03376007647895506
3.0962575294745496,-0.9033606958944297,2.106653524227766,1.89119461830274,-0.036801566484033696
3.0923427672278634,-0.9033786452171831,2.1164475481028933,1.8887089949668625,-0.0399652606572566
3.0882758521180413,-0.9033965411788027,2.126109492755628,1.886127672003549,-0.04325005472540121
3.084057962500485,-0.9034143170625216,2.135639828078267,1.8834514717014783,-0.04665484441524495
3.079690276730596,-0.9034319061515728,2.1450390239631076,1.8806812163493276,-0.05017852545356526
3.0751739731637753,-0.9034492417291895,2.1543075503024456,1.8778177282357753,-0.05381999356713958
3.0705102301554246,-0.9034662570786048,2.1634458769885767,1.8748618296494994,-0.05757814448274532
3.0657002260609447,-0.9034828854830519,2.172454473913798,1.8718143428791774,-0.06145187392715992
3.0607451392357365,-0.9034990602257639,2.181333810970406,1.8686760902134876,-0.06544007762716082
3.055646148035203,-0.9035147145899739,2.190084358050697,1.865447893941108,-0.06954165130952544
3.0504044308147438,-0.9035297818589147,2.198706585046967,1.8621305763507168,-0.07375549070103121
3.0450211659297604,-0.9035441953158202,2.207200961851513,1.8587249597309914,-0.07808049152845556
3.0394975317356545,-0.9035578882439228,2.215567958356631,1.85523186637061,-0.08251554951857593
3.033834706587828,-0.9035707939264558,2.2238080444546178,1.8516521185582506,-0.08705956039816976
3.0280338688416806,-0.9035828456466526,2.231921690037769,1.847986538582591,-0.09171141989401445
3.022096196852615,-0.903593976687746,2.2399093649983812,1.8442359487323097,-0.09647002373288746
3.016022868976032,-0.9036041203329693,2.2477715392287516,1.840401171296084,-0.1013342676415662
3.009815063567333,-0.9036132098655556,2.2555086826211763,1.8364830285625924,-0.1063030473468281
3.0034739589819184,-0.9036211785687379,2.2631212650679515,1.8324823428205121,-0.11137525857545061
2.997000733575191,-0.9036279597257495,2.270609756461373,1.8283999363585222,-0.11654979705421116
2.990396565702551,-0.9036334866198235,2.277974626693738,1.8242366314652996,-0.12182555850988719
2.9836626337194,-0.9036376925341928,2.2852163456573438,1.8199932504295229,-0.12720143866925607
2.9768001159811392,-0.9036405107520907,2.292335383244484,1.8156706155398699,-0.1326763332590953
2.9698101908431704,-0.9036418745567504,2.299332209347458,1.8112695490850186,-0.1382491380061823
2.9626940366608943,-0.9036417172314049,2.3062072938585603,1.8067908733536466,-0.14391874863729445
2.955452831789712,-0.9036399720592874,2.312961106670088,1.8022354106344323,-0.14968406087920927
2.9480877545850257,-0.9036365723236308,2.3195941176743378,1.7976039832160535,-0.1555439704587041
2.9405999834022354,-0.9036314513076686,2.3261067967636047,1.7928974133871884,-0.1614973731025564
2.9329906965967436,-0.9036245422946337,2.3324996138301866,1.7881165234365144,-0.16754316453754364
2.925261072523951,-0.9036157785677593,2.33877303876638,1.78326213565271,-0.1736802404904432
2.9174122895392585,-0.9036050934102783,2.3449275414644797,1.778335072324453,-0.17990749668803252
2.9094455259980685,-0.9035924201054241,2.3509635918167837,1.7733361557404215,-0.18622382885708907
2.901361960255781,-0.9035776919364297,2.356881659715588,1.768266208189293,-0.19262813272439022
2.8931627706677987,-0.9035608421865281,2.3626822150531885,1.763126051959746,-0.1991193040167135
2.8848491355895223,-0.9035418041389527,2.3683657277218817,1.7579165093404583,-0.2056962384608362
2.8764222333763523,-0.9035205110769366,2.3739326676139645,1.7526384026201076,-0.21235783178353587
2.8678832423836913,-0.9034968962837127,2.379383504621733,1.747292554087372,-0.21910297971158993
2.859233340966939,-0.9034708930425142,2.3847187086374833,1.7418797860309299,-0.22593057797177568
2.850473707481498,-0.9034424346365741,2.3899387495535125,1.7364009207394586,-0.23283952229087074
2.8416055202827692,-0.9034114543491258,2.3950440972621165,1.7308567805016362,-0.2398287083956524
2.832629957726154,-0.9033778854634025,2.4000352216555916,1.725248187606141,-0.24689703201289812
2.823548198167053,-0.9033416612626369,2.4049125926262342,1.7195759643416508,-0.25404338886938543
2.8143614199608686,-0.9033027150300624,2.409676680066341,1.7138409329968436,-0.26126667469189163
2.8050708014630015,-0.9032609800489121,2.4143279538682085,1.7080439158603975,-0.2685657852071942
2.7956775210288525,-0.9032163896024191,2.4188668839241334,1.7021857352209901,-0.27593961614207063
2.786182757013824,-0.9031688769738164,2.4232939401264106,1.6962672133672996,-0.2833870632232982
2.776587687773316,-0.9031183754463374,2.427609592367338,1.6902891725880038,-0.2909070221776545
2.7668934916627315,-0.9030648183032148,2.431814310539212,1.6842524351717807,-0.29849838873191686
2.7571013470374695,-0.9030081388276823,2.4359085645343277,1.6781578234073082,-0.30616005861286283
2.747212432252933,-0.9029482703029724,2.4398928242449824,1.6720061595832647,-0.31389092754726966
2.737227925664523,-0.9028851460123188,2.4437675595634727,1.665798265988328,-0.321689891261915
2.727149005627641,-0.9028186992389542,2.4475332403820946,1.6595349649111757,-0.329555845483576
2.7169768504976872,-0.9027488632661119,2.4511903365931444,1.653217078640486,-0.33748768593903034
2.7067126386300635,-0.902675571377025,2.454739318088919,1.6468454294649368,-0.3454843083550554
2.696357548380172,-0.9025987568549266,2.458180654761714,1.6404208396732063,-0.3535446084584285
2.685912758103413,-0.9025183529830499,2.461514816503827,1.6339441315539722,-0.3616674819759272
2.675379446155188,-0.902434293044628,2.464742273207553,1.6274161273959127,-0.36985182463432886
2.664758790890898,-0.9023465103228939,2.4678634947651896,1.6208376494877055,-0.3780965321604109
2.6540519706659444,-0.9022549381010808,2.470878951069032,1.6142095201180284,-0.38640050028095085
2.6432601638357296,-0.902159509662422,2.4737891120113784,1.6075325615755598,-0.39476262472272594
2.6323845487556534,-0.9020601582901502,2.476594447484523,1.6008075961489776,-0.40318180121251385
2.6214263037811176,-0.901956817267499,2.479295427380764,1.5940354461269597,-0.4116569254770918
2.6103866072675235,-0.9018494198777012,2.481892521592397,1.587216933798184,-0.4201868932432374
2.599266637570273,-0.90173789940399,2.484386200011719,1.5803528814513286,-0.428770600237728
2.5880675730447664,-0.9016221891295986,2.4867769325310247,1.5734441113750715,-0.437406942187341
2.5767905920464056,-0.90150222233776,2.4890651890426128,1.56649144585809,-0.44609481481885366
2.565436872930592,-0.9013779323117074,2.4912514394387775,1.5594957071890627,-0.4548331138590438
2.5540075940527256,-0.901249252334674,2.4933361536118173,1.5524577176566678,-0.46362073503468865
2.54250393376821,-0.9011161156898929,2.4953198014540265,1.5453782995495828,-0.47245657407256564
2.5309270704324445,-0.900978455660597,2.4972028528577037,1.5382582751564857,-0.48133952669945224
2.519278182400831,-0.9008362055300198,2.498985777715143,1.5310984667660545,-0.4902684886421258
2.507558448028771,-0.9006892985813939,2.5006690459186434,1.5238996966669673,-0.49924235562736374
2.4957690456716657,-0.9005376680979529,2.502253127360499,1.516662787147902,-0.5082600233819436
2.483911153684916,-0.9003812473629298,2.5037384919330075,1.5093885604975366,-0.5173203876326429
2.4719859504239237,-0.9002199696595576,2.505125609528464,1.502077839004549,-0.5264223441062388
2.45999461424409,-0.9000537682710696,2.5064149500391673,1.494731444957617,-0.5355647885295088
2.4479383235008156,-0.8998825764806988,2.507606983357411,1.487350200645419,-0.5447466166292305
2.435818256549503,-0.8997063275716782,2.508702179375494,1.4799349283566325,-0.5539667241321812
2.423635591745552,-0.8995249548272412,2.5097010079857105,1.4724864503799355,-0.5632240067651382
2.4113915074443653,-0.8993383915306208,2.5106039390803576,1.4650055890040066,-0.5725173602548794
2.399087182001343,-0.89914657096505,2.511411442551733,1.4574931665175228,-0.5818456803281816
2.3867237937718873,-0.8989494264137622,2.5121239882921316,1.4499500052091627,-0.5912078627118228
2.3743025211113986,-0.8987468911599902,2.5127420461938503,1.4423769273676044,-0.60060280313258
2.3618245423752793,-0.8985388984869674,2.5132660861491853,1.434774755281525,-0.6100293973172309
2.349291035918929,-0.8983253816779267,2.5136965780504332,1.4271443112396038,-0.6194865409925526
2.336703180097752,-0.8981062740161014,2.5140339917898906,1.4194864175305173,-0.6289731298853232
2.3240621532671457,-0.8978815087847246,2.514278797259854,1.4118018964429446,-0.6384880597223195
2.3113691337825144,-0.8976510192670294,2.514431464352619,1.4040915702655634,-0.6480302262303191
2.298625299999258,-0.8974147387462489,2.514492462960483,1.396356261287051,-0.6575985251360996
2.2858318302727785,-0.897172600505616,2.514462262975741,1.388596791796086,-0.6671918521664382
2.2729899029584755,-0.8969245378283642,2.5143413342906906,1.3808139840813467,-0.6768091030481123
2.2601006964117527,-0.8966704839977265,2.514130146797629,1.3730086604315102,-0.6864491735078997
2.24716538898801,-0.896410372296936,2.51382917038885,1.3651816431352546,-0.6961109592725774
2.2341851590426494,-0.8961441360092257,2.5134388749566523,1.3573337544812587,-0.7057933560689231
2.221161184931071,-0.895871708417829,2.512959730393331,1.3494658167581994,-0.7154952596237139
2.2080946450086776,-0.8955930228059787,2.5123922065911835,1.3415786522547555,-0.725215565663728
2.1949867176308686,-0.8953080124569082,2.5117367734425056,1.3336730832596044,-0.7349531699157417
2.1818385811530474,-0.8950166106538504,2.5109939008395936,1.325749932061424,-0.7447069681065335
2.168651413930614,-0.8947187506800386,2.5101640586747433,1.317810020948893,-0.7544758559628801
2.1554263943189698,-0.8944143658187058,2.5092477168402536,1.3098541722106891,-0.7642587292115596
2.1421647006735163,-0.8941033893530852,2.5082453452284184,1.3018832081354894,-0.7740544835793486
2.1288675113496547,-0.89378575456641,2.5071574137315347,1.2938979510119732,-0.7838620147930253
2.1155360047027867,-0.8934613947419131,2.505984392241899,1.2858992231288175,-0.7936802185793665
2.102171359088313,-0.8931302431628277,2.504726750651808,1.2778878467747006,-0.8035079906651501
2.088774752861635,-0.892792233112387,2.503384958853558,1.2698646442383006,-0.8133442267771535
2.075347364378154,-0.8924472978738242,2.5019594867394446,1.261830437808295,-0.8231878226421538
2.061890371993272,-0.8920953707303723,2.5004508042017655,1.2537860497733622,-0.8330376739869287
2.048404954062389,-0.8917363849652643,2.498859381132817,1.24573230242218,-0.8428926765382555
2.0348922889409073,-0.8913702738617335,2.497185687424894,1.2376700180434264,-0.8527517260229118
2.021353554984228,-0.890996970703013,2.4954301929702942,1.2296000189257792,-0.8626137181676747
2.007789930547752,-0.8906164087723359,2.4935933676613136,1.2215231273579168,-0.8724775486993219
1.9942025939868804,-0.8902285213529353,2.491675681390249,1.2134401656285165,-0.8823421133446309
1.9805927236570153,-0.8898332417280445,2.489677604049396,1.2053519560262569,-0.8922063078303788
1.9669614979135575,-0.8894305031808962,2.4875996055310523,1.197259320839816,-0.9020690278833432
1.9533100951119082,-0.8890202389947239,2.4854421557275126,1.189163082357871,-0.911929169230302
1.9396396936074694,-0.8886023824527607,2.4832057245310746,1.1810640628691007,-0.9217856275980318
1.9259514717556416,-0.8881768668382397,2.480890781834034,1.1729630846621824,-0.9316372987133106
1.9122466079118259,-0.8877436254343938,2.478497797528688,1.1648609700257944,-0.9414830783029154
1.8985262804314247,-0.8873025915244563,2.476027241507332,1.1567585412486148,-0.9513218620936243
1.884791667669838,-0.8868536983916604,2.473479583662263,1.148656620619321,-0.9611525458122142
1.8710439479824679,-0.8863968793192392,2.4708552938857773,1.1405560304265916,-0.9709740251854628
1.8572842997247156,-0.8859320675904256,2.4681548420701716,1.1324575929591043,-0.9807851959401469
1.8435139012519826,-0.8854591964884528,2.4653786981077417,1.1243621305055371,-0.9905849538030447
1.829733930919669,-0.8849781992965542,2.4625273318907843,1.1162704653545683,-1.0003721945009336
1.8159455670831774,-0.8844890092979627,2.4596012133115956,1.108183419794875,-1.01014581376059
1.8021499880979086,-0.8839915597759114,2.4566008122624723,1.100101816115136,-1.0199047073087928
1.788348372319264,-0.8834857840136334,2.453526598635711,1.0920264766040289,-1.0296477708723186
1.7745418981026448,-0.8829716152943621,2.450379042323607,1.0839582235502316,-1.039373900177945
1.760731743803452,-0.8824489869013301,2.4471586132184577,1.075897879242422,-1.0490819909524494
1.7469190877770873,-0.8819178321177712,2.44386578121256,1.0678462659692787,-1.0587709389226092
1.7331051083789524,-0.8813780842269179,2.4405010161982092,1.059804206019479,-1.0684396398152018
1.7192909839644472,-0.8808296765120037,2.437064788067702,1.0517725216817007,-1.0780869893570044
1.7054778928889747,-0.8802725422562615,2.433557566713335,1.0437520352446228,-1.0877118832747954
1.6916670135079348,-0.8797066147429246,2.4299798220274043,1.0357435689969217,-1.097313217295351
1.6778595241767296,-0.879131827255226,2.426332023902207,1.0277479452272769,-1.1068898871454498
1.6640566032507587,-0.878548113076399,2.422614642230039,1.0197659862243658,-1.116440788551868
1.6502594290854264,-0.8779554054896764,2.418828146903196,1.011798514276866,-1.1259648172413839
1.6364691800361322,-0.8773536377782918,2.4149730078139746,1.003846351673456,-1.1354608689407746
1.6226870344582767,-0.8767427432254778,2.4110496948546722,0.995910320702813,-1.1449278393768174
1.6089141707072627,-0.8761226551144679,2.407058677917585,0.9879912436536158,-1.1543646242762904
1.5951517671384907,-0.8754933067284951,2.403000426895009,0.9800899428145422,-1.1637701193659704
1.581401002107362,-0.8748546313507923,2.398875411679241,0.9722072404742699,-1.1731432203726349
1.5676630539692784,-0.8742065622645931,2.394684102162577,0.964343958921477,-1.1824828230230615
1.5539391010796402,-0.8735490327531302,2.3904269682373127,0.9565009204448413,-1.1917878230440277
1.5402303217938502,-0.8728819760996371,2.386104479795746,0.9486789473330408,-1.2010571161623107
1.526537894467308,-0.8722053255873464,2.3817171067301723,0.9408788618747538,-1.210289598104688
1.5128629974554153,-0.8715190144994918,2.377265318932888,0.9331014863586581,-1.2194841645979373
1.4992068091135744,-0.870822976119306,2.3727495862961896,0.9253476430734312,-1.2286397113688352
1.4855705077971861,-0.8701171437300222,2.368170378712375,0.9176181543077518,-1.2377551341441604
1.4719552718616513,-0.8694014506148737,2.3635281660737384,0.9099138423502975,-1.2468293286506893
1.4583622796623714,-0.8686758300570936,2.358823418272577,0.9022355294897461,-1.2558611906151997
1.4447927095547477,-0.8679402153399149,2.3540566052011873,0.8945840380147759,-1.264849615764469
1.4312477398941819,-0.8671945397465707,2.3492281967518656,0.8869601902140645,-1.2737934998252745
1.4177285490360743,-0.8664387365602942,2.3443386628169085,0.87936480837629,-1.2826917385243934
1.4042363153358273,-0.8656727390643185,2.3393884732886123,0.871798714790131,-1.2915432275886043
1.3907722171488417,-0.8648964805418768,2.3343780980592728,0.8642627317442644,-1.3003468627446835
1.377337432830519,-0.8641098942762021,2.329308007021188,0.8567576815273689,-1.3091015397194092
1.3639331407362594,-0.8633129135505276,2.3241786700666536,0.8492843864281222,-1.3178061542395576
1.350560519221466,-0.8625054716480864,2.3189905570879645,0.8418436687352021,-1.3264596020319075
1.337220746641539,-0.8616875018521115,2.313744137977418,0.834436350737287,-1.3350607788232356
1.3239150013518797,-0.8608589374458363,2.3084398826273116,0.8270632547230545,-1.3436085803403195
1.3106444617078896,-0.8600197117124937,2.303078260929941,0.8197252029811828,-1.3521019023099368
1.2974103060649698,-0.8591697579353169,2.297659742777602,0.8124230178003495,-1.3605396404588646
1.2842137127785218,-0.8583090093975392,2.2921847980625913,0.805157521469233,-1.3689206905138804
1.2710558602039475,-0.8574373993823933,2.2866538966772065,0.797929536276511,-1.377243948201762
1.2579379266966468,-0.8565548611731126,2.281067508513743,0.7907398845108616,-1.385508309249286
1.2448610906120217,-0.8556613280529304,2.275426103464495,0.7835893884609628,-1.3937126693832307
1.2318265303054736,-0.8547567333050794,2.269730151421763,0.7764788704154927,-1.4018559243303732
1.2188354241324035,-0.8538410102127929,2.263980122277841,0.7694091526631286,-1.4099369698174913
1.2058889504482129,-0.8529140920593042,2.2581764859250257,0.7623810574925491,-1.4179547015713614
1.1929882876083029,-0.8519759121278463,2.252319712255614,0.7553954071924317,-1.4259080153187618
1.1801346139680755,-0.8510264037016522,2.2464102711619014,0.7484530240514549,-1.43379580678647
1.1673291078829309,-0.8500655000639551,2.240448632536186,0.7415547303582961,-1.4416169717012626
1.1545729477082711,-0.8490931344979882,2.2344352662707627,0.734701348401634,-1.4493704057899184
1.1418673117994975,-0.8481092402869845,2.228370642257927,0.7278937004701458,-1.4570550047792137
1.12921337851201,-0.8471137507141774,2.222255230389978,0.7211326088525101,-1.4646696643959263
1.1166123262012118,-0.8461065990627996,2.2160895005592094,0.7144188958374045,-1.4722132803668333
1.104065333222503,-0.8450877186160844,2.2098739226579203,0.7077533837135066,-1.4796847484187123
1.0915735779312858,-0.8440570426572652,2.203608966578405,0.7011368947694949,-1.4870829642783412
1.0791382386829598,-0.8430145044695748,2.1972951022129603,0.6945702512940473,-1.4944068236724968
1.066760493832928,-0.8419600373362462,2.1909327994538836,0.6880542755758419,-1.501655222327957
1.054441521736592,-0.8408935745405131,2.1845225281934706,0.6815897899035568,-1.5088270559714994
1.0421825007493513,-0.8398150493656079,2.178064758324016,0.6751776165658687,-1.5159212203299006
1.0299846092266076,-0.8387243950947643,2.1715599597378197,0.6688185778514568,-1.5229366111299385
1.0178490255237633,-0.8376215450112151,2.1650086023271755,0.6625134960489993,-1.5298721240983904
1.0057769279962188,-0.8365064323981936,2.158411155984381,0.6562631934471728,-1.5367266549620346
0.9937694949993761,-0.8353789905389326,2.1517680906017316,0.6500684923346574,-1.5434990994476474
0.9818279048886349,-0.8342391527166658,2.1450798760715237,0.6439302150001289,-1.550188353282006
0.9699533360193979,-0.8330868522146258,2.1383469822860564,0.6378491837322655,-1.5567933121918893
0.9581469667470663,-0.831922022316046,2.131569879137622,0.6318262208197469,-1.5633128719040734
0.9464099754270425,-0.8307445963041593,2.1247490365185198,0.6258621485512497,-1.5697459281453368
0.9347435404147244,-0.8295545074621992,2.117884924321044,0.619957789215452,-1.5760913766424551
0.9231488400655161,-0.8283516890733984,2.110978012437494,0.6141139651010314,-1.5823481131222088
0.9116270527348187,-0.8271360744209902,2.104028770760164,0.6083314984966668,-1.588515033311372
0.9001793567780325,-0.8259075967882078,2.09703766918135,0.6026112116910352,-1.5945910329367248
0.8888069305505586,-0.8246661894582842,2.0900051775933495,0.5969539269728157,-1.6005750077250422
0.8775109524077993,-0.8234117857144526,2.0829317658884605,0.5913604666306855,-1.606465853403104
0.8662926007051559,-0.8221443188399461,2.075817903958975,0.5858316529533232,-1.6122624656976856
0.8551530537980296,-0.8208637221179979,2.068664061697193,0.5803683082294049,-1.6179637403355662
0.84409349004182,-0.8195699288318408,2.0614707089954094,0.5749712547476107,-1.623568573043522
0.8331150877919309,-0.8182628722647084,2.0542383157459225,0.5696413147966182,-1.629075859548331
0.8222190254037622,-0.8169424856998335,2.046967351841027,0.5643793106651043,-1.63448449557677
0.8114064812327144,-0.8156087024204492,2.0396582871730184,0.5591860646417479,-1.6397933768556174
0.8006786336341896,-0.8142614557097889,2.032311591634195,0.5540623990152269,-1.6450013991116497
0.7900366609635912,-0.8129006788510855,2.024927735116852,0.5490091360742184,-1.6501074580716448
0.7794817415763178,-0.8115263051275723,2.017507187513287,0.5440270981074018,-1.6551104494623803
0.7690150538277707,-0.8101382678224821,2.0100504187157946,0.539117107403454,-1.6600092690106338
0.758637776073352,-0.8087365002190483,2.002557898616672,0.5342799862510528,-1.664802812443182
0.748351086668464,-0.807320935600504,1.9950300971082178,0.5295165569388773,-1.669489975486802
0.7381561639685064,-0.8058915072500823,1.9874674840827253,0.5248276417556044,-1.6740696538682727
0.728054186328881,-0.8044481484510162,1.9798705294324919,0.5202140629899124,-1.67854074331437
0.718046332104989,-0.8029907924865389,1.9722397030498142,0.5156766429304787,-1.682902139551873
0.7081337796522309,-0.8015193726398837,1.964575474826989,0.5112162038659827,-1.687152738307558
0.698317707326011,-0.8000338221942835,1.9568783146563122,0.5068335680851015,-1.691291435308203
0.6885992934817264,-0.7985340744329714,1.94914869243008,0.5025295578765128,-1.6953171262805835
0.6789797164747808,-0.7970200626391806,1.941387078040588,0.4983049955288952,-1.6992287069514798
0.6694601546605754,-0.7954917200961443,1.9335939413801355,0.4941607033309261,-1.7030250730476681
0.6600417863945123,-0.7939489800870956,1.9257697523410175,0.49009750357128357,-1.7067051202959251
0.65072579003199,-0.7923917758952675,1.9179149808155285,0.48611621853864584,-1.7102677444230294
0.6415133439284118,-0.7908200408038931,1.910030096695966,0.48221767052169073,-1.713711841155757
0.6324056264391795,-0.7892337080962057,1.9021155698746277,0.47840268180909584,-1.717036306220887
0.6234038159196937,-0.7876327110554385,1.894171870243808,0.4746720746895401,-1.7202400353451965
0.6145090907253552,-0.7860169829648245,1.8861994676958058,0.4710266714517004,-1.7233219242554623
0.6057226292115652,-0.7843864571075965,1.8781988321229142,0.4674672943842546,-1.7262808686784612
0.5970456097337258,-0.7827410667669881,1.8701704334174334,0.46399476577588294,-1.729115764340972
0.5884792106472365,-0.7810807452262322,1.8621147414716583,0.46060990791526035,-1.7318255069697717
0.5800246103075022,-0.779405425768562,1.8540322261778834,0.4573135430910662,-1.7344089922916375
0.5716829870699205,-0.7777150416772105,1.845923357428406,0.4541064935919785,-1.7368651160333468
0.563455519289894,-0.776009526235411,1.837788605115525,0.45098958170667536,-1.739192773921678
0.5553433853228253,-0.7742888127263965,1.829628439131533,0.4479636297238343,-1.741390861683406
0.5473477635241135,-0.7725528344334002,1.8214433293687287,0.4450294599321334,-1.7434582750453118
0.539469832249162,-0.7708015246396551,1.813233745719408,0.44218789462025065,-1.7453939097341706
0.5317107698533707,-0.7690348166283943,1.8050001580758683,0.4394397560768646,-1.7471966614767593
0.5240717546921401,-0.7672526436828512,1.7967430363304049,0.4367858665906519,-1.7488654259998575
0.5165539651208735,-0.7654549390862586,1.7884628503753144,0.4342270484502919,-1.7503990990302403
0.5091585794949722,-0.76364163612185,1.780160070102892,0.43176412394446095,-1.7517965762946863
0.5018867761698353,-0.761812668072858,1.7718351654054367,0.4293979153618388,-1.7530567535199735
0.494739733500865,-0.7599679682225162,1.7634886061752417,0.4271292449911026,-1.7541785264328782
0.4877186298434646,-0.7581074698540575,1.755120862304606,0.4249589351209302,-1.7551607907601778
0.48082464355303145,-0.756231106250715,1.7467324036858252,0.4228878080399996,-1.756002442228652
0.47405895298497036,-0.7543388106957221,1.738323700211197,0.42091668603698906,-1.7567023765650744
0.4674227364946808,-0.7524305164723115,1.7298952217730155,0.41904639140057576,-1.7572594894962261
0.4609171724375658,-0.7505061568637165,1.721447438263578,0.41727774641943993,-1.7576726767488813
0.45454343916902484,-0.7485656651531704,1.7129808195751801,0.41561157338225607,-1.7579408340498204
0.4483027150444592,-0.746608974623906,1.7044958356001196,0.4140486945777049,-1.7580628571258186
0.4421961784192714,-0.7446360185591567,1.6959929562306926,0.4125899322944626,-1.7580376417036554
0.4362250076488623,-0.7426467302421554,1.6874726513591947,0.4112361088212073,-1.757864083510106
0.43039038108863226,-0.7406410429561355,1.6789353908779228,0.4099880464466188,-1.7575410782719487
0.4246934770939843,-0.7386188899843299,1.6703816446791744,0.4088465674593742,-1.7570675217159621
0.4191354740203179,-0.7365802046099719,1.6618118826552453,0.4078124941481507,-1.756442309568922
0.4137175502230357,-0.7345249201162944,1.6532265746984307,0.4068866488016267,-1.7556643375576062
0.40844088405753753,-0.7324529697865305,1.6446261907010267,0.4060698537084799,-1.7547325014087933
0.4033066538792265,-0.7303642869039138,1.6360112005553322,0.40536293115738875,-1.7536456968492597
0.39831603804350335,-0.7282588047516767,1.6273820741536413,0.4047667034370317,-1.7524028196057828
0.39347021490576806,-0.726136456613053,1.6187392813882504,0.40428199283608546,-1.751002765405139
0.3887703628214241,-0.7239971757712754,1.6100832921514578,0.4039096216432285,-1.7494444299741079
0.38421766014587044,-0.7218408955095772,1.6014145763355594,0.40365041214713804,-1.7477267090394668
0.37981328523450886,-0.7196675491111914,1.5927336038328508,0.4035051866364938,-1.745848498327991
0.3755584164427419,-0.7174770698593512,1.5840408445356275,0.4034747673999717,-1.7438086935664598
0.37145423212597084,-0.7152693910372898,1.575336768336188,0.4035599767262523,-1.74160619048165
0.3675019106395965,-0.7130444459282402,1.5666218451268283,0.4037616369040107,-1.7392398848003392
0.3637026303390192,-0.7108021678154355,1.5578965447998443,0.40408057022192656,-1.7367086722493053
0.3600575695796424,-0.708542489982109,1.5491613372475315,0.40451759896867845,-1.7340114485553242
0.35656790671686256,-0.7062653457114936,1.5404166923621858,0.4050735454329417,-1.7311471094451747
0.35323482010608664,-0.7039393338039925,1.5316630800361075,0.40574923190339707,-1.7281145506456337
0.3500594881027146,-0.7015535869910567,1.5229009701615897,0.40654548066872076,-1.724912667883478
0.3470430890621454,-0.6991087736507016,1.5141308326309284,0.40746311401759305,-1.7215403568854857
0.3441868013397835,-0.6966055621609368,1.5053531373364228,0.408502954238688,-1.7179965133784352
0.34149180329102613,-0.6940446208997786,1.496568354170367,0.4096658236206876,-1.7142800330891026
0.3389592732712776,-0.6914266182452362,1.4877769530250582,0.41095254445226725,-1.7103898117442675
0.3365903896359397,-0.6887522225753284,1.478979403792791,0.41236393902210544,-1.7063247450707033
0.33438633074041046,-0.6860221022680628,1.4701761763658652,0.41390082961887975,-1.7020837287951895
0.3323482749400952,-0.683236925701451,1.4613677406365762,0.41556403853127044,-1.6976656586445067
0.3304774005903912,-0.6803973612535144,1.4525545664972177,0.4173543880479529,-1.6930694303454263
0.3287748860467037,-0.6775040773022627,1.443737123840089,0.41927270045760556,-1.6882939396247307
0.3272419096644299,-0.674557742225701,1.434915882557485,0.4213197980489074,-1.6833380822091941
0.3258796497989751,-0.6715590244018528,1.4260913125417045,0.42349650311053555,-1.678200753825596
0.32468928480573833,-0.6685085922087262,1.4172638836850404,0.42580363793116893,-1.6728808502007126
0.3236719930401213,-0.665407114024335,1.4084340658797903,0.42824202479948337,-1.6673772670613225
0.3228289528575239,-0.6622552582266912,1.3996023290182515,0.43081248600416044,-1.6616889001342017
0.3221613426133496,-0.6590536931938096,1.390769142992721,0.43351584383387465,-1.6558146451461289
0.32167034066299927,-0.6558030873037031,1.3819349776954937,0.4363529205773049,-1.6497533978238819
0.32135712536187455,-0.6525041089343824,1.3731003030188647,0.43932453852312925,-1.6435040538942358
0.3212228750653754,-0.6491574264638635,1.3642655888551332,0.44243151996002794,-1.6370655090839703
0.3212687681289035,-0.645763708270156,1.3554313050965954,0.44567468717667413,-1.6304366591198614
0.32149598290785963,-0.6423236227312783,1.346597921635547,0.4490548624617503,-1.6236163997286868
0.3219056977576473,-0.6388378382252382,1.337765908364283,0.4525728681039318,-1.6166036266372252
0.3224990910336647,-0.6353070231300504,1.3289357351751017,0.4562295263918994,-1.6093972355722537
0.32327734109131523,-0.6317318458237273,1.3201078719602992,0.4600256596143275,-1.601996122260549
0.32424162628599973,-0.6281129746842868,1.311282788612171,0.4639620900598951,-1.5943991824288872
0.3253931249731181,-0.6244510780897321,1.3024609550230144,0.4680396400172828,-1.586605311804048
0.32673301550807565,-0.6207468244180867,1.2936428410851253,0.4722591317751643,-1.5786134061128099
0.3282624762462678,-0.6170008820473569,1.2848289166907998,0.47662138762222117,-1.5704223610819454
0.32998268554309984,-0.6132139193555575,1.276019651732335,0.48112722984712963,-1.562031072438236
0.33189482175397256,-0.6093866047207035,1.267215516102028,0.4857774807385695,-1.5534384359084594
0.33400006323428855,-0.6055196065208044,1.2584169796921723,0.49057296258521443,-1.54464334721939
0.33629958833944595,-0.601613593133874,1.2496245123950676,0.49551449767574596,-1.535644702097808
0.338636900040056,-0.5976692329379278,1.2408385841030083,0.500602908298843,-1.5264413962704895
0.3408598501530129,-0.593687194310978,1.2320596647082924,0.5058390167431801,-1.5170323254642115
0.34296957414739726,-0.5896681456310353,1.2232882241032152,0.511223645297437,-1.5074163854057527
0.3449672074922967,-0.585612755276117,1.2145247321800725,0.5167576162502927,-1.4975924718218918
0.3468538856568051,-0.5815216916242312,1.2057696588311617,0.5224417518904234,-1.487559480439404
0.3486307441100074,-0.5773956230533943,1.1970234739487786,0.5282768745065081,-1.4773163069850659
0.35029891832099036,-0.5732352179416167,1.1882866474252198,0.5342638063872238,-1.4668618471856556
0.35185954375884343,-0.5690411446669144,1.1795596491527842,0.5404033698212496,-1.4561949967679517
0.3533137558926578,-0.5648140716072958,1.1708429490237635,0.5466963870972634,-1.4453146514587312
0.3546626901915193,-0.5605546671407815,1.1621370169304566,0.5531436805039416,-1.4342197069847709
0.35590748212451384,-0.5562635996453777,1.1534423227651605,0.5597460723299648,-1.4229090590728495
0.3570492671607308,-0.5519415374991001,1.14475933642017,0.5665043848640074,-1.411381603449744
0.3580891807692659,-0.547589149079962,1.1360885277877841,0.5734194403947503,-1.399636235842233
0.3590283584192031,-0.543207102765976,1.127430366760294,0.5804920612108706,-1.387671851977088
0.35986793557962216,-0.5387960669351521,1.1187853232300022,0.5877230696010463,-1.3754873475810943
0.3606090477196151,-0.5343567099655093,1.1101538670892017,0.5951132878539562,-1.3630816183810266
0.3612528303082865,-0.5298897002350555,1.10153646823019,0.6026635382582759,-1.3504535601036585
0.3618004188146964,-0.5253957061218069,1.0929335965452647,0.610374643102686,-1.3376020684757712
0.3622529487079609,-0.5208753960037757,1.0843457219267179,0.6182474246758618,-1.3245260392241445
0.36261155545714985,-0.5163294382589747,1.0757733142668497,0.6262827052664823,-1.3112243680755489
0.3628773745313527,-0.5117585012654153,1.0672168434579548,0.6344813071632274,-1.2976959507567676
0.3630515413996678,-0.507163253401111,1.0586767793923317,0.6428440526547741,-1.2839396829945775
0.36313519153117557,-0.5025443630440805,1.050153591962275,0.6513717640297996,-1.2699544605157538
0.36312946039496996,-0.49790249857232993,1.041647751060082,0.6600652635769801,-1.2557391790470716
0.3630354834601377,-0.49323832836387105,1.0331597265780474,0.6689253735849974,-1.2412927343153175
0.3628543961957531,-0.4885525207967234,1.0246899884084693,0.6779529163425275,-1.226614022047258
0.362587334070934,-0.4838457442488977,1.016239006443644,0.6871487141382477,-1.2117019379696785
0.3622354325547459,-0.4791186670984029,1.0078072505758668,0.696513589260837,-1.196555377809351
0.3617998271162728,-0.4743719577232577,0.9993951906974377,0.7060483639989732,-1.1811732372930583
0.3612816532246228,-0.4696062845014737,0.9910032967006464,0.7157538606413336,-1.1655544121475723
0.3606820463488667,-0.4648223158110616,0.9826320384777945,0.7256309014765971,-1.149697798099674
0.36000214195811076,-0.460020720030033,0.9742818859211786,0.7356803087934418,-1.133602290876138
0.35924307552142665,-0.4552021655364076,0.965953308923091,0.7459029048805448,-1.1172667862037464
0.35840598250791267,-0.4503673207081915,0.9576467773758321,0.756299512026585,-1.1006901798092752
0.357491998386644,-0.44551685392340357,0.9493627611716962,0.7668709525202395,-1.083871367419496
0.35650225862672613,-0.44065143356005443,0.9411017302029805,0.7776180486501865,-1.0668092447611919
0.3554378986972342,-0.43577172799615305,0.9328641543619822,0.788541622705103,-1.0495027075611425
0.3543000540672683,-0.43087840560971813,0.9246505035409944,0.7996424969736697,-1.0319506515461203
0.3530898602059054,-0.4259721347787613,0.9164612476323195,0.8109214937445621,-1.0141519724429031
0.351808452582242,-0.42105358388129144,0.9082968565282483,0.82237943530646,-0.9961055659782705
0.3504569666653641,-0.4161234212953282,0.9001578001210788,0.8340171439480377,-0.9778103278789967
0.3490365379243521,-0.41118231539888495,0.8920445483031068,0.845835441957977,-0.9592651538718648
0.3475483018283061,-0.4062309345699644,0.8839575709666314,0.8578351516249549,-0.9404689396836456
0.3459933938463067,-0.4012699471865897,0.8758973380039476,0.8700170952376505,-0.9214205810411222
0.3443729494474468,-0.3963000216267689,0.8678643193073499,0.8823820950847381,-0.9021189736710689
0.3426881041008105,-0.3913218262685181,0.8598589847691378,0.8949309734548985,-0.8825630133002615
0.34093999327548374,-0.386336029489847,0.8518818042816045,0.9076645526368088,-0.8627515956554834
0.33912975244057364,-0.38134329966877356,0.843933247737048,0.920583654919148,-0.842683616463507
0.33725851706515186,-0.3763443051833022,0.836013785027764,0.9336891025905931,-0.8223579714511118
0.3353274226182972,-0.3713397144114561,0.8281238860460531,0.9469817179398214,-0.8017735563450739
0.3333376045691221,-0.3663301957312406,0.8202640206842049,0.9604623232555127,-0.780929266872171
0.3312901983866947,-0.3613164175206727,0.8124346588345208,0.9741317408263441,-0.759823998759181
0.32918633954011334,-0.3562990481577666,0.8046362703892953,0.9879907929409919,-0.7384566477328818
0.3270271634984674,-0.35127875602053216,0.7968693252408237,1.0020403018881368,-0.716826109520051
0.3248138057308445,-0.346256209486981,0.7891342932814052,1.0162810899564558,-0.694931279847463
0.3225474017063146,-0.3412320769351309,0.7814316444033338,1.0307139794346263,-0.6727710544418972
0.320229086893999,-0.33620702674299263,0.7737618484989088,1.0453397926113261,-0.6503443290301334
0.3178599967629552,-0.3311817272885751,0.7661253754604225,1.060159351775237,-0.6276499993389457
0.3154412667822992,-0.32615684694989877,0.758522695180174,1.075173479215029,-0.6046869610951138
0.3129740324210939,-0.32113305410497617,0.750954277550461,1.090382997219387,-0.5814541100254136
0.3104594291484446,-0.3161110171318109,0.7434205924635755,1.1057887280769876,-0.5579503418566247
0.30789859243343365,-0.31109140440842786,0.735922109811816,1.1213914940765042,-0.5341745523155197
0.30529265774515224,-0.3060748843128307,0.7284592994874819,1.137192117506621,-0.5101256371288834
0.3026427605526809,-0.3010621252230399,0.7210326313828652,1.1531914206560137,-0.4858024920234829
0.29995003632511263,-0.29605379551706257,0.7136425753902671,1.16939022581336,-0.4612040127261068
0.29721562053153683,-0.29105056357291037,0.706289601401977,1.1857893552673362,-0.43632909496352745
0.2944406486410447,-0.28605309776861,0.698974179310297,1.2023896313066231,-0.41117663446252095
0.29162625612271853,-0.28106206648215704,0.6916967790075219,1.219191876219897,-0.3857455269498651
0.2887735784456513,-0.276078138091572,0.6844578703859492,1.2361969122958358,-0.3600346681523412
0.2858837510789307,-0.27110198097487004,0.677257923337871,1.2534055618231177,-0.33404295379672355
0.282957909491639,-0.2661342635100592,0.6700974077555895,1.2708186470904215,-0.3077692796097864
0.279997189152871,-0.26117565407515997,0.6629767935313957,1.2884369903864252,-0.28121254131831463
0.27700272553170535,-0.2562268210481795,0.6558965505575927,1.306261413999807,-0.25437163464907897
0.2739756540972369,-0.25128843280712765,0.6488571487264698,1.324292740219243,-0.22724545532886253
0.27091711031856924,-0.24636115773002576,0.6418590579303292,1.3425317913334096,-0.1998328990844378
0.2678282296647705,-0.24144566419488633,0.634902748061462,1.36097938963099,-0.17213286164258434
0.2647101476049354,-0.23654262057971387,0.6279886890121693,1.3796363574006607,-0.14414423873007998
0.26156399960815335,-0.23165269526252708,0.6211173506747434,1.3985035169310942,-0.11586592607370072
0.25839092114350315,-0.22677655662134022,0.6142892029414844,1.4175816905109775,-0.08729681940022616
0.2551920476800795,-0.2219148730341587,0.6075047157046853,1.4368717004289815,-0.05843581443643053
0.251968514686979,-0.2170683128790083,0.6007643588566465,1.456374368973786,-0.029281806909093433
0.2487214576332839,-0.21223754453389443,0.5940686022896582,1.4760905184340691,0.00016630745500556543
0.24545201198809075,-0.20742323637682425,0.5874179158960269,1.4960209710985088,0.029909632929095764
0.24216131322045698,-0.2026260567858218,0.5808127695680367,1.5161665492557868,0.0599492737863887
0.23885049679950932,-0.19784667413889778,0.574253633197995,1.5365280751945756,0.09028633430011901
0.23552069819431232,-0.19308575681405937,0.5677409766781905,1.557106371203555,0.12092191874350355
0.2321730528739554,-0.1883439731893244,0.5612752699009231,1.5779022595714016,0.15185713138976453
0.22880869630754574,-0.18362199164270265,0.5548569827584879,1.5989165625867967,0.1830930765121206
0.225428763964155,-0.1789204805522111,0.5484865851431815,1.6201501025384166,0.21463085838380636
0.22203439131287617,-0.17424010829586134,0.5421645469473031,1.6416037017149376,0.24647158127802982
0.21862671382278975,-0.16958154325166852,0.5358913380631458,1.6632781824050413,0.2786163494680274
0.21520686696298874,-0.16494545379763625,0.5296674283830063,1.6851743668974022,0.31106626722701236
0.21177598620256788,-0.1603325083117877,0.5234932877991803,1.7072930774806983,0.34382243882820696
0.20833520701061836,-0.15574337517213532,0.5173693862039679,1.7296351364436129,0.37688596854484224
0.2048856648562225,-0.15117872275668276,0.5112961934896649,1.7522013660748152,0.41025796065013154
0.20142849520845374,-0.14663921944345493,0.5052741795485591,1.7749925886629896,0.4439395194172988
0.19796483353642813,-0.1421255336104581,0.49930381427295956,1.7980096264968122,0.4779317491195716
0.19449581530920845,-0.13763833363570832,0.4933855675551557,1.821253301864962,0.5122357540301721
0.1910225759959001,-0.1331782878972092,0.48751990928744426,1.8447244370561187,0.5470573659452498
0.1875462510655801,-0.12874606477299544,0.4817073093621236,1.8684238543589515,0.5825161311274769
0.18406797598735025,-0.12434233264105288,0.4759482376714841,1.892352376062151,0.6185856042146156
0.1805888862302787,-0.1199677598794171,0.47024316410783396,1.9165108244543845,0.6552393398445702
0.17711011726347792,-0.11562301486608817,0.46459255856346005,1.9409000218243353,0.6924508926549606
0.1736328045560125,-0.11130876597908212,0.4589968909306599,1.9655207904606815,0.7301938172838618
0.17015808357699314,-0.1070256815964079,0.45345663110173273,1.9903739526520994,0.7684416683689506
0.1666870897954933,-0.10277443009609577,0.44797224896897525,2.015183162059877,0.8071680005483586
0.16322095868060416,-0.09855567985613511,0.44254421442467695,2.0395611412097594,0.846346368459308
0.1597608257014187,-0.09437009925455442,0.4371729973611451,2.0635105628158072,0.8859503267398168
0.15630782632702633,-0.0902183566693644,0.4318590676706675,2.087034099591712,0.9259534300273913
0.1528630960265076,-0.08610112047857044,0.4266028952455443,2.1101344242512354,0.9663292329605042
0.1494277702689537,-0.08201905906019391,0.4214049499780712,2.1328142095081546,1.0070512901760367
0.14600298452344873,-0.07797284079224731,0.4162657017605449,2.1550761280762103,1.0480931563123477
0.1425898742590892,-0.07396313405273602,0.4111856204852602,2.176922852669094,1.0894283860073983
0.139189574944945,-0.06999060721967965,0.40616517604451463,2.19835705600061,1.131030533898297
0.13580322205014106,-0.06605592867109955,0.4012048383306075,2.219381410784493,1.1728731546232325
0.13243195104374017,-0.06215976678498514,0.3963050772358292,2.2399985897344763,1.214929802819995
0.12907689739481754,-0.05830278993937377,0.39146636265247814,2.260211265564294,1.2571740331263754
0.1257391965724981,-0.05448566651226372,0.3866891644728563,2.2800221109877086,1.2995794001799936
0.12241998404584464,-0.050709064881672816,0.38197395258925226,2.2994337987184466,1.342119458618754
0.11912039528393592,-0.04697365342561355,0.3773211968939689,2.3184490014702916,1.3847677630805038
0.11584156575589333,-0.04328010052210374,0.37273136727929845,2.337070391957006,1.4274978682030905
0.1125846309307903,-0.03962907454914344,0.3682049336375366,2.3553006428922245,1.4702833286241344
0.10935072627770737,-0.03602124388475936,0.3637423658609835,2.37314242698983,1.5130976989812552
0.10614098726572507,-0.032457276906958654,0.3593441338419314,2.3905984169635133,1.5559145339124711
0.10295654936395593,-0.028937841993755598,0.35501070747268315,2.407671285527016,1.5987073880554021
0.09979854804147337,-0.025463607523159126,0.3507425566455247,2.424363705394029,1.641449816047725
0.09666811876735792,-0.022035241873188838,0.34654015125276416,2.440678349278393,1.6841153725276854
0.09356639701072211,-0.018653413421851894,0.34240396118669025,2.456617889893785,1.726677612132903
0.09049451824063937,-0.01531879054716434,0.33833445633960135,2.4721849999540098,1.7691100895008844
0.08745361792619732,-0.012032041627140444,0.334332106603795,2.4873823521727942,1.8113863592696475
0.08444483153648008,-0.008793835039792697,0.33039738187156686,2.5022126192638154,1.853479976076983
0.08146929454058949,-0.005604839163128261,0.326530752035211,2.516678473940935,1.8953644945604537
0.07852814240760608,-0.0024657223751702873,0.3227326869870275,2.5307825889178233,1.9370134693580212
0.07562251060662106,0.0006228469460776154,0.3190036566193122,2.544527636908221,1.9784004551075327
0.07275353460671496,0.0036602004225994023,0.3153441308243581,2.557916290625961,2.019499006446722
0.06992234987698609,0.006645669676377253,0.3117545794944663,2.5709512227846716,2.0602826780131522
0.06713009188651853,0.009578586329402228,0.30823547252193073,2.583635106098157,2.1007250244448414
0.06437789610439637,0.012458282003667165,0.3047872797990463,2.595970613280194,2.1407996003791254
0.06166689799972147,0.015284088321143585,0.3014104712181114,2.607960417044467,2.1804799604547043
0.05899823304155305,0.01805533690383143,0.2981055166714217,2.619607190104759,2.2197396593083454
0.05637303669901783,0.020771359373716436,0.2948728860512766,2.630913605174811,2.258552251578692
0.05379244444118214,0.023431487352780778,0.2917130492499691,2.6418823349683933,2.296891291903137
0.05125759173712652,0.026035052463015518,0.2886264761597932,2.652516052199175,2.3347303349191293
0.04876961405594926,0.028581386326404612,0.28561363667305173,2.6628174295809472,2.3720429352650285
0.04632964686674512,0.031069820564937345,0.2826750006820369,2.672789139827472,2.4088026475783977
0.043938825638594636,0.033499686800603,0.27981103807904617,2.6824338556524836,2.444983026496857
0.04159828584058545,0.03587031665538021,0.277022218756378,2.6917542497697653,2.480557626658424
0.0393091629418123,0.038181041751260025,0.2743090126063219,2.700752994892973,2.5155000027008327
0.0370725924113664,0.04043119371023529,0.2716718895211834,2.70943276373594,2.549783709261419
0.034889709718324724,0.04262010415428641,0.2691113193932537,2.7177962290123787,2.5833823009785988
0.03276165033177847,0.044747104705400886,0.2666277721148278,2.725846063436002,2.6162693324897646
0.030689549720822384,0.04681152698556623,0.2642217175782049,2.7335849397206005,2.648418358433105
0.028674543354519244,0.04881270261677706,0.26189362567568253,2.7410155305799364,2.6798029334460125
0.026717766702002876,0.05074996322100489,0.2596439662995511,2.748140508727708,2.7103966121664484
0.02482035523232895,0.05262264042025144,0.2574732093421197,2.754962546877657,2.74017294923226
0.022983444414578003,0.054430065836495345,0.2553818246956716,2.7614843177435873,2.76910549928067
0.02120816971786965,0.05617157109172588,0.25337028225250613,2.767708494039212,2.7971678169500933
0.019495666611284435,0.05784648780792878,0.25143905190492255,2.7736377484782864,2.8243334568785485
0.01784707056387802,0.059454147607096886,0.24958860354521661,2.7792747537745086,2.8505759737029166
0.016263517044780684,0.060993882111205266,0.24781940706568228,2.7846221826416766,2.875868922061329
0.0147461415230552,0.06246502294225209,0.2461319323586224,2.7896827077935598,2.900185856591918
0.013296079467814081,0.06386690172221954,0.24452664931632206,2.7944590019438067,2.9235003319320754
0.011914466348123653,0.06519885007308979,0.24300402783108943,2.798953737806258,2.9457859027199333
0.010602437633075112,0.06646019961686811,0.2415645377952167,2.8031695880945975,2.9670161235929413
0.009361128791756101,0.06765028197551892,0.2402086491009996,2.8071092255226375,2.9871645491892878
0.008191675293257816,0.06876842877104039,0.23893683164073387,2.8107753228040906,3.006204734146138
0.007095212606671453,0.0698139716254218,0.2377495553067117,2.814170552652641,3.024110233101567
0.006072876201084654,0.07078624216064355,0.23664728999123952,2.8172975877821287,3.0408546006938764
0.005125801545574404,0.07168457199869671,0.23563050558660947,2.8201591009062668,3.0564113915600046
0.004255124109246111,0.072508292761567,0.23469967198511377,2.8227577647388244,3.070754160338197
0.0034619793611838645,0.07325673607124372,0.23385525907905347,2.8250962519934717,3.083856461666187
0.0027475027704646493,0.07392923354971082,0.2330977367607261,2.827177235384042,3.0956918501813107
0.002112829806193872,0.0745251168189558,0.23242757492242383,2.829003387624219,3.106233880522268
0.0015590959374591762,0.07504371750096084,0.23184524345644242,2.8305773814277444,3.11545610732594
0.0010874366333233354,0.07548436721772056,0.23135121225508115,2.831901889508451,3.1233320852307997
0.0006989873629024146,0.07584639759122602,0.23094595121063755,2.8329795845799737,3.129835368874069
0.0003948835952556351,0.07612914024345052,0.23062993021540557,2.833813139356181,3.134939512893993
0.00017626079950616713,0.07633192679639222,0.23040361916168095,2.8344052265507003,3.138618071927908
4.42544447309956e-05,0.07645408887203509,0.23026748794176655,2.8347585188773436,3.1408446006142867
7.105427357601002e-15,0.07649495809236129,0.23022200644794744,2.834875689049831,3.14159265359001
