oscarkremer/mentor-optimization/notebooks/traject_3/adaptive/angles_4.csv
theta1,theta2,theta3,theta4,theta5
2.3561944901025518,-1.629564859117027,1.840419211323804,2.930738301383013,0.7853981634872415
2.3562135839273397,-1.6295958031979847,1.840423428130003,2.930606090555953,0.7850053504046544
2.356271326835382,-1.6296881545538984,1.8404360721677682,2.930211308901477,0.7838378988596765
2.356368410977197,-1.6298411918543272,1.840457133865853,2.929556732659642,0.7819122904064826
2.3565055285033014,-1.6300541937688313,1.8404866036530108,2.9286451380705043,0.7792450065992477
2.356683371564215,-1.6303264389669712,1.8405244719579945,2.92747930137412,0.7758525289921463
2.356902632310454,-1.6306572061183058,1.8405707292095577,2.9260619988105465,0.7717513391393536
2.3571640028925374,-1.6310457738923958,1.840625365836453,2.9243960066198396,0.7669579185950443
2.3574681754609825,-1.631491420958801,1.8406883722674339,2.922484101042056,0.7614887489133934
2.3578158421663074,-1.631993425987081,1.8407597389312536,2.9203290583172525,0.7553603116485754
2.35820769515903,-1.632551067646796,1.8408394562566652,2.917933654685485,0.7485890883547657
2.358644426589669,-1.633163624607506,1.8409275146724222,2.915300666386811,0.7411915605861389
2.3591267286087407,-1.6338303755387709,1.8410239046072774,2.9124328696612856,0.7331842098968697
2.3596552933667647,-1.6345505991101505,1.8411286164899843,2.909333040748967,0.7245835178411332
2.360230813014258,-1.6353235739912044,1.8412416407492955,2.9060039558899105,0.7154059659731041
2.3608539797017385,-1.6361485788514931,1.8413629678139651,2.9024483913241728,0.7056680358469573
2.3615254855797243,-1.6370248923605761,1.8414925881127457,2.898669123291811,0.6953862090168678
2.3622460227987334,-1.6379517931880139,1.8416304920743907,2.894668928032881,0.6845769670370102
2.3630162835092836,-1.6389285600033656,1.841776670127653,2.89045058178744,0.6732567914615597
2.3638369598618922,-1.639954471476192,1.8419311127012858,2.8860168607955434,0.6614421638446909
2.364708744007079,-1.641028806276052,1.842093810224043,2.881370541297249,0.6491495657405787
2.36563232809536,-1.6421508430725067,1.842264753124677,2.8765143995326126,0.636395478703398
2.3666084042772537,-1.6433198605351151,1.842443931831941,2.871451211741691,0.6231963842873235
2.3676376647032784,-1.6445351373334374,1.8426313367745888,2.86618375416454,0.6095687640465304
2.3687208015239514,-1.6457959521370338,1.8428269583813732,2.860714803041217,0.5955290995351933
2.3698585068897917,-1.6471015836154637,1.8430307870810472,2.8550471346117785,0.5810938723074871
2.371051472951316,-1.6484513104382874,1.8432428133023644,2.8491835251162803,0.5662795639175868
2.3723003918590426,-1.6498444112750648,1.8434630274740778,2.8431267507947795,0.5511026559196671
2.3736059557634896,-1.6512801647953559,1.8436914200249406,2.8368795878873327,0.5355796298679029
2.3749688568151752,-1.6527578496687203,1.8439279813837062,2.8304448126339965,0.5197269673164691
2.3763897871646162,-1.6542767445647182,1.8441727019791272,2.8238252012748264,0.5035611498195404
2.377869438962332,-1.6558361281529095,1.8444255722399574,2.81702353004988,0.48709865893129195
2.3794085043588393,-1.6574352791028537,1.8446865825949497,2.8100425751992133,0.4703559762058984
2.3810076755046574,-1.6590734760841115,1.8449557234728573,2.8028851129628833,0.45334958319753466
2.3826676445503026,-1.660749997766242,1.8452329853024334,2.7955539195809465,0.43609596146037566
2.3843891036462934,-1.6624641228188057,1.8455183585124315,2.7880517712934583,0.4186115925485961
2.3861727449431482,-1.6642151299113623,1.8458118335316043,2.7803814443404766,0.40091295801637095
2.3880192605913853,-1.6660022977134719,1.8461134007887052,2.772545714962057,0.38301653941787517
2.3899293427415214,-1.6678249048946943,1.8464230507124875,2.764547359398257,0.36493881830728336
2.3919036835440743,-1.6696822301245895,1.8467407737317043,2.756389153889132,0.3466962762387706
2.3939429751495633,-1.671573552072717,1.8470665602751088,2.748073874674739,0.32830539476651166
2.396047909708505,-1.6734981494086372,1.8474004007714542,2.739604297995135,0.30978265544468153
2.398219179371418,-1.6754553008019102,1.8477422856494934,2.730983200090376,0.29114453982745475
2.4004574762888207,-1.6774442849220952,1.8480922053379802,2.722213357200519,0.2724075294690065
2.40276349261123,-1.6794643804387526,1.8484501502656672,2.7132975455656196,0.25358810592351155
2.405137920489164,-1.6815148660214425,1.848816110861308,2.7042385414257346,0.23470275074514452
2.407581452073141,-1.6835950203397245,1.8491900775536556,2.6950391210209212,0.21576794548808076
2.410094779513679,-1.6857041220631583,1.8495720407714633,2.6857020605912356,0.19680017170649505
2.4126785949612954,-1.6878414498613044,1.8499619909434841,2.676230136376734,0.17781591095456173
2.415333590566509,-1.6900062824037223,1.8503599184984714,2.666626124617473,0.15883164478645595
2.418060458479837,-1.6921978983599721,1.8507658138651781,2.6568928015535094,0.13986385475635266
2.4208598908517973,-1.6944155763996138,1.8511796674723577,2.6470329434249,0.12092902241842679
2.4237325798329077,-1.696658595192207,1.8516014697487633,2.6370493264717005,0.10204362932685296
2.4266792175736867,-1.698926233407312,1.8520312111231478,2.6269447269339676,0.08322415703580616
2.429700496224652,-1.7012177697144886,1.8524688820242652,2.616721921051759,0.06448708709946144
2.432797107936321,-1.7035324827832965,1.8529144728808677,2.606383685065129,0.0458489010719933
2.4359697448592126,-1.705869651283296,1.853367974121709,2.5959327952141362,0.027326080507576733
2.4392190991438443,-1.7082285538840467,1.8538293761755424,2.585372027738836,0.008935106960386685
2.4425458629407335,-1.710608469255109,1.8542986694711208,2.5747041588792854,-0.009307538015401962
2.445950728400399,-1.713008676066042,1.8547758444371976,2.563931964875541,-0.02738537286561482
2.4494343876733575,-1.7154284529864061,1.8552608915025257,2.5530582219676585,-0.04528191603607623
2.452997532910128,-1.7178670786857615,1.8557538010958585,2.542085706395696,-0.06298068597261164
2.456640856261228,-1.7203238318336678,1.8562545636459493,2.531017194399708,-0.08046520112104649
2.4603650498771756,-1.722797991099685,1.8567631695815514,2.519855462219753,-0.0977189799272058
2.464170805908489,-1.7252888351533728,1.8572796093314174,2.508603286095886,-0.11472554083691433
2.4680588165056854,-1.7277956426642915,1.8578038733243012,2.4972634422681637,-0.13146840229599777
2.472029773819283,-1.7303176923020007,1.8583359519889553,2.4858387069766437,-0.14793108275028122
2.4760843699998,-1.7328542627360606,1.8588758357541333,2.474331856461381,-0.16409710064558913
2.4802232971977536,-1.7354046326360308,1.8594235150485883,2.4627456669624337,-0.1799499744277473
2.4844472475636628,-1.7379680806714717,1.8599789803010733,2.4510829147198576,-0.19547322254258048
2.4887569132480447,-1.7405438855119426,1.860542221940342,2.439346375973709,-0.21065036343591437
2.4931529864014172,-1.7431313258270038,1.8611132303951474,2.427538826964045,-0.2254649155535735
2.4976361591742986,-1.7457296802862154,1.8616919960942424,2.415663043930921,-0.23990039734138358
2.502207123717207,-1.7483382275591368,1.8622785094663805,2.4037218031143945,-0.2539403272451688
2.5068665721806593,-1.7509562463153283,1.8628727609403148,2.3917178807545225,-0.2675682237107553
2.511615196715175,-1.7535830152243501,1.8634747409447983,2.37965405309136,-0.2807676051839678
2.516453689471271,-1.7562178129557615,1.8640844399085845,2.367533096364965,-0.29352199011063185
2.521382742599465,-1.7588599181791225,1.864701848260426,2.3553577868153925,-0.3058148969365717
2.5264030482502755,-1.7615086095639936,1.8653269564290769,2.3431309006827004,-0.3176298441076133
2.53151529857422,-1.764163165779934,1.8659597548432898,2.3308552142069447,-0.3289503500695814
2.5367201857218165,-1.7668228654965041,1.866600233931818,2.318533503628182,-0.3397599332683017
2.5420184018435834,-1.7694869873832637,1.8672483841234147,2.306168545186469,-0.35004211214959824
2.5474106390900384,-1.7721548101097724,1.867904195846833,2.2937631151218607,-0.359780405159297
2.552897589611699,-1.7748256123455908,1.8685676595308263,2.2813199896744165,-0.3689583307432236
2.5584799455590836,-1.7774986727602784,1.8692387656041476,2.26884194508419,-0.3775594073472015
2.56415839908271,-1.7801732700233952,1.8699175044955503,2.25633175759124,-0.3855671534170575
2.569933642333096,-1.782848682804501,1.870603866633787,2.2437922034356217,-0.39296508739861546
2.5758063674607588,-1.7855241897731557,1.8712978424476119,2.231226058857392,-0.3997367277377013
2.5817772666162178,-1.7881990695989196,1.8719994223657774,2.2186361000966075,-0.40586559288014024
2.58784703194999,-1.7908726009513523,1.8727085968170367,2.206025103393324,-0.41133520127175727
2.5940163556125935,-1.7935440625000136,1.8734253562301435,2.193395844987599,-0.41612907135837807
2.6002859297545466,-1.7962127329144637,1.8741496910338507,2.180751101119489,-0.4202307215858254
2.6066564465263666,-1.7988778908642626,1.8748815916569115,2.1680936480290502,-0.42362367039992765
2.6131285980785717,-1.80153881501897,1.8756210485280789,2.1554262619563387,-0.42629143624650734
2.6197030765616796,-1.8041947840481458,1.8763680520761064,2.142751719141412,-0.42821753757139147
2.6263805741262085,-1.80684507662135,1.877122592729747,2.1300727958243253,-0.42938549282040483
2.6331617829226768,-1.8094889714081426,1.877884660917754,2.117392268245136,-0.4297788204393713
2.640047395101601,-1.8121257470780834,1.8786542470688807,2.1047129126439006,-0.4293810388741175
2.6470381028135006,-1.8147546823007326,1.8794313416118797,2.092037505260676,-0.42817566657046724
2.654134598208892,-1.8173750557456496,1.8802159349755052,2.0793688223355176,-0.42614622197424756
2.6613375734382947,-1.8199861460823947,1.8810080175885093,2.066709640108483,-0.42327622353128147
2.668647720652225,-1.8225872319805276,1.881807579879646,2.054062734819628,-0.4195491896873951
2.6760657320012027,-1.8251775921096085,1.8826146122776681,2.0414308827090095,-0.4149486388884136
2.6835922996357437,-1.827756505139197,1.8834291052113292,2.0288168600166836,-0.4094580895801627
2.6912281157063673,-1.8303232497388537,1.8842510491093818,2.0162234429827075,-0.4030610602084659
2.698973872363591,-1.8328771045781378,1.8850804344005794,2.0036534078471373,-0.39574106921914964
2.706830261757933,-1.8354173483266094,1.8859172515136755,1.99110953085003,-0.3874816350580397
2.7147979760399106,-1.8379432596538283,1.886761490877423,1.978594588231441,-0.378266276170959
2.7228777073600425,-1.840454117229355,1.8876131429205751,1.9661113562314283,-0.36807851100373457
2.7310701478688464,-1.8429491997227487,1.8884721980718853,1.953662611090047,-0.35690185800219076
2.739375989716839,-1.84542778580357,1.889338646760106,1.9412511290473544,-0.3447198356121528
2.7477959250545396,-1.8478891541413782,1.8902124794139912,1.9288796863434072,-0.3315159622794459
2.756330646032466,-1.8503325834057336,1.891093686462294,1.9165510592182615,-0.3172737564498962
2.7649808448011353,-1.8527573522661958,1.891982258333767,1.9042680239119738,-0.3019767365693271
2.773747213511067,-1.8551627393923253,1.8928781854571641,1.8920333566646008,-0.2856084210835643
2.782630444312777,-1.8575480234536814,1.893781458261238,1.8798498337161988,-0.2681523284384335
2.791631229356785,-1.8599124831198244,1.8946920671747423,1.867720231306825,-0.2495919770797581
2.8007502607936074,-1.862255397060314,1.8956100026264298,1.8556473256765351,-0.2299108854533669
2.809988230773763,-1.8645760439447103,1.8965352550450536,1.843633893065386,-0.20909257200508158
2.8193458314477695,-1.8668737024425732,1.8974678148593673,1.8316827097134345,-0.18712055518072734
2.8288237549661455,-1.8691476512234624,1.898407672498124,1.8197965518607362,-0.1639783534261321
2.838422693479408,-1.8713971689569384,1.899354818390077,1.8079781957473486,-0.1396494851871184
2.848143339138075,-1.8736215343125604,1.9003092429639792,1.7962304176133277,-0.11411746890951324
2.857986384092665,-1.8758200259598887,1.9012709366485838,1.78455599369873,-0.0873658230391392
2.8679525204936955,-1.8779919225684831,1.902239889872644,1.7729577002436128,-0.05937806602182594
2.8780424404916842,-1.880136502807904,1.9032160930649131,1.761438313488031,-0.030137716303394235
2.88825683623715,-1.8822530453477104,1.9041995366541444,1.750000609672043,0.00037170767033067875
2.8985963998806095,-1.884340828857463,1.905190211069091,1.7386473650357042,0.0321666874535218
2.909061823572581,-1.8863991320067213,1.906188106738506,1.7273813558190716,0.06526370460035391
2.919653799463583,-1.8884272334650456,1.9071932140911425,1.7162053582622008,0.09967924066500089
2.9303730197041338,-1.890424411901996,1.908205523555754,1.7051221486051493,0.13542977720164107
2.94122017644475,-1.8923899459871312,1.9092250255610934,1.6941345030879735,0.17253179576444833
2.9521959618359497,-1.894323114390012,1.9102517105359142,1.6832451979507301,0.2110017779075939
2.963301068028252,-1.8962231957801992,1.9112855689089694,1.6724570094334745,0.250856205185257
2.974536187172174,-1.898089468827251,1.912326591109012,1.6617727137762646,0.2921115591516106
2.985902011418233,-1.8999212122007283,1.9133747675647954,1.6511950872191563,0.3347843213608295
2.9973992329169485,-1.9017177045701907,1.914430088705073,1.6407269060022058,0.37889097336708843
3.0090285438188364,-1.9034782246051984,1.9154925449585976,1.63037094636547,0.4244479967245649
3.0207906362744166,-1.9052020509753114,1.9165621267541226,1.6201299845490056,0.4714718729874301
3.032686202434206,-1.9068884623500892,1.9176388245204012,1.610006796792869,0.5199790837098597
3.0447159344487225,-1.9085367373990922,1.9187226286861863,1.6000041593371164,0.5699861104460284
3.0568805244684842,-1.9101461547918797,1.9198135296802314,1.5901248484218045,0.6215094347501156
3.0691806646440094,-1.911715993198012,1.92091151793129,1.58037164028699,0.6745655381762878
3.0816170471258153,-1.9132455312870493,1.9220165838681145,1.5707473111727297,0.7291709022787263
3.09419036406442,-1.914734047728551,1.9231287179194587,1.5612546373190792,0.7853420086116039
3.106901307610342,-1.9161808211920777,1.9242479105140755,1.5518963949660955,0.8430953387290963
3.1197505699140993,-1.9175851303471885,1.925374152080718,1.542675360353835,0.9024473741853782
3.1327388431262086,-1.9189462538634436,1.9265074330481398,1.5335943097223552,0.9634145965346228
3.1458668193971886,-1.9202634704104034,1.9276477438450939,1.524656019311711,1.0260134873310065
3.159135190877557,-1.9215360586576269,1.9287950749003335,1.5158632653619604,1.0902605281287059
3.172544649717832,-1.9227632972746753,1.9299494166426114,1.5072188241131588,1.1561722004818922
3.1860958880685315,-1.9239444649311073,1.9311107595006813,1.498725471805363,1.2237649859447401
3.1997895980801725,-1.9250788402964831,1.9322790939032966,1.4903859846786296,1.2930553660714263
3.2136264719032748,-1.9261657020403635,1.9334544102792095,1.482203138973016,1.364059822416129
3.227607201688355,-1.9272043288323075,1.9346366990571742,1.4741797109285772,1.436794836533016
3.241732479585931,-1.9281939993418749,1.9358259506659434,1.4663184767853712,1.5112768899762692
3.256002997746521,-1.9291339922386266,1.9370221555342704,1.458622212783453,1.5875224643000578
3.2704194483206432,-1.9300235861921213,1.9382253040909083,1.4510936951628803,1.6655480410585568
3.2849825234588153,-1.9308620598719202,1.9394353867646104,1.4437357001637086,1.745370101805948
3.2996929153115553,-1.9316486919475824,1.94065239398413,1.4365510040259961,1.8270051280963955
3.3145513160293802,-1.9323827610886675,1.9418763161782198,1.4295423829897977,1.9104696014840865
3.3295584177628093,-1.9330635459647365,1.9431071437756338,1.4227126132951706,1.995780003523187
3.3447149126623597,-1.9336903252453488,1.9443448672051242,1.4160644711821715,2.0829528157678734
3.3600214928785492,-1.934262377600064,1.9455894768954451,1.4096007328908566,2.1720045197723223
3.3754788505618967,-1.934778981698442,1.9468409632753492,1.4033241746612815,2.262951597090707
3.3910876778629193,-1.9352394162100435,1.94809931677359,1.3972375727335038,2.3558105292772016
3.4068486669321345,-1.9356429598044278,1.9493645278189202,1.391343703347581,2.450597797885985
3.4227625099200614,-1.9359888911511551,1.9506365868400934,1.385645342743568,2.5473298844712318
3.438829898977217,-1.936276488919785,1.9519154842658628,1.3801452671615215,2.643909480529981
3.45505152625412,-1.9365050317798778,1.9532012105249814,1.3748462528414986,2.738387015871691
3.471428083901287,-1.9366737984009932,1.9544937560462023,1.3697510760235563,2.8307834502168063
3.4879602640692378,-1.9367820674526908,1.955793111258279,1.36486251294775,2.9211197432858462
3.504648758908489,-1.936829117604531,1.9570992665899645,1.3601833398541356,3.009416854799273
3.5214942605695585,-1.936814227526074,1.9584122124700118,1.3557163329827717,3.0956957444775313
3.538497461202965,-1.9367366758868791,1.9597319393271748,1.3514642685737135,3.1799773720411295
3.5556590529592254,-1.9365957413565065,1.9610584375902058,1.347429922867018,3.2622826972105194
3.572979727988858,-1.9363907026045157,1.9623916976878584,1.343616072102741,3.3426326797061563
3.590460178442382,-1.9361208383004676,1.9637317100488858,1.3400254925209398,3.421048279248577
3.608101096470313,-1.935785427113921,1.9650784651020414,1.3366609603616704,3.497550455558173
3.6259031742231707,-1.9353837477144364,1.9664319532760781,1.3335252518649905,3.5721601683554702
3.6438671038514725,-1.9349150787715739,1.967792164999749,1.3306211432709554,3.6448983773609207
3.661993577505737,-1.9343786989548932,1.9691590907018075,1.3279514108196215,3.7157860422950364
3.68028328733648,-1.9337738869339538,1.970532720811007,1.325518830751045,3.784844122878262
3.698736925494222,-1.9330999213783167,1.9719130457561003,1.3233261793052846,3.852093578831031
3.717355184129479,-1.9323560809575406,1.9733000559658405,1.3213762327223955,3.917555369873881
3.7361387553927696,-1.931541644341186,1.9746937418689812,1.3196717672424327,3.981250455727256
3.755088331434612,-1.9306558901988131,1.9760940938942753,1.3182155591054543,4.043199796111622
3.7742046044055235,-1.9296980971999815,1.977501102470476,1.3170103845515184,4.103424350747449
3.7934882664560226,-1.928667544014251,1.9789147580263369,1.316059019820678,4.161945079355256
3.8129400097366277,-1.9275635093111814,1.9803350509906108,1.315364241152992,4.218782941655469
3.832560526397855,-1.9263852717603334,1.9817619717920507,1.3149288247885167,4.273958897368573
3.852350508590224,-1.9251321100312664,1.9831955108594104,1.314755546967307,4.327493906215029
3.872310648464252,-1.9238033027935404,1.9846356586214424,1.3148471839294222,4.379408927915357
3.8924416381704576,-1.9223981287167144,1.9860824055069004,1.3152065119149166,4.429724922189973
3.9127441698593577,-1.92091586647035,1.9875357419445374,1.3158363071638468,4.478462848759353
3.93321893568147,-1.9193557947240065,1.9889956583631065,1.3167393459162708,4.5256436673440135
3.9538666277873133,-1.9177171921472431,1.990462145191361,1.3179184044122447,4.571288337664431
3.974687938327406,-1.9159993374096205,1.9919351928580549,1.319376258891824,4.615417819441021
3.995683559452265,-1.9142015091806983,1.9934147917919394,1.321115685595065,4.658053072394296
4.016854183312407,-1.912322986130036,1.9949009324217695,1.3231394607620262,4.699215056244704
4.038200502058354,-1.910363046927195,1.9963936051762976,1.3254503606327628,4.738924730712757
4.059723207840619,-1.9083209702417339,1.997892800484277,1.3280511614473305,4.777203055518896
4.081422992809724,-1.9061960347432125,1.9993985087744612,1.3309446394457871,4.8140709903835806
4.1033005491161845,-1.9039875191011915,2.0009107204756034,1.3341335708681892,4.84954949502735
4.1253565689105205,-1.9016947019852308,2.002429426016456,1.3376207319545927,4.883659529170615
4.147591744343247,-1.8993168620648897,2.003954615825773,1.3414088989450552,4.916422052533868
4.1700067675648835,-1.8968532780097285,2.005486280332307,1.3455008480796304,4.947858024837576
4.192602330725948,-1.8943032284893073,2.007024409964812,1.3498993555983785,4.977988405802247
4.215379125976958,-1.8916659921731853,2.0085689951520402,1.354607197741354,5.006834155148308
4.238337845468433,-1.8889408477309235,2.0101200263227454,1.3596271507486146,5.034416232596243
4.261479181350888,-1.8861270738320812,2.011677493905681,1.364961990860213,5.060755597866532
4.284803825774843,-1.883223949146218,2.0132413883295994,1.3706144943162122,5.085873210679644
4.308312470890816,-1.8802307523428945,2.0148117000232544,1.3765874373566631,5.109790030756066
4.332005808849324,-1.87714676209167,2.016388419415399,1.382883596221625,5.132527017816265
4.355884531800886,-1.873971257062105,2.0179715369347866,1.3895057471511527,5.1541051315807
4.379949331896018,-1.870703515923759,2.0195610430101705,1.3964566663853053,5.174545331769863
4.4042009012852406,-1.8673428173461926,2.0211569280703032,1.4037391301641375,5.193868578104201
4.4286399321190695,-1.8638884399989648,2.0227591825439384,1.411355914727705,5.212095830304193
4.453267116548023,-1.860339662551636,2.0243677968598295,1.4193097963160661,5.229248048090362
4.47808314672262,-1.8566957636737667,2.0259827614467283,1.4276035511692773,5.245346191183117
4.503088714793377,-1.8529560220349153,2.02760406673339,1.4362399555273933,5.260411219302966
4.528284512910814,-1.8491197163046431,2.029231703148567,1.4452217856304732,5.274464092170355
4.5536712332254465,-1.8451861251525088,2.030865661121012,1.454551817718571,5.28752576950577
4.5792495678877945,-1.8411545272480736,2.032505931079479,1.464232828031744,5.299617211029734
4.605020209048374,-1.8370242012608968,2.0341525034527197,1.4742675928100506,5.310759376462649
4.630983848857705,-1.8327944258605384,2.0358053686694895,1.4846588882935454,5.3209732255249875
4.657066829057914,-1.828464479716559,2.03746451715854,1.4954094907222841,5.330279717937252
4.682680082476395,-1.8240336414985163,2.0391299393486246,1.506522176336326,5.338699813419936
4.7078267776124605,-1.819501189875973,2.0408016256684967,1.5179997213757246,5.346254471693477
4.732510082965393,-1.8148664035184878,2.0424795665469095,1.529844902080538,5.352964652478342
4.756733167034466,-1.8101285610956201,2.0441637524126164,1.5420604946908236,5.358851315495073
4.780499198318974,-1.8052869412769301,2.0458541736943707,1.5546492754466366,5.3639354204640455
4.80381134531819,-1.8003408227319786,2.0475508208209243,1.5676140205880325,5.368237927105824
4.826672776531403,-1.7952894841303244,2.049253684221032,1.5809575063550714,5.371779795140753
4.849086660457893,-1.7901322041415286,2.0509627543234465,1.5946825089878054,5.374581984289442
4.87105616559694,-1.7848682614351497,2.0526780215569205,1.6087918047262937,5.376665454272327
4.892584460447829,-1.7794969346807492,2.054399476350208,1.6232881698105945,5.378051164809847
4.9136747135098435,-1.7740175025478853,2.056127109132061,1.63817438048076,5.378760075622488
4.9343300932822585,-1.768429243706119,2.0578609103312338,1.6534532129768502,5.378813146430737
4.954553768264367,-1.7627314368250102,2.059600870376479,1.669127443538919,5.378231336955061
4.974348906955455,-1.7569233605741188,2.0613469796965505,1.6851998484070236,5.377035606915932
4.9937186778547815,-1.7510042936230044,2.0630992287202004,1.7016732038212226,5.375246916033781
5.012666249461651,-1.7449735146412269,2.0648576078761827,1.7185502860215731,5.372886224029131
5.031194790275329,-1.7388303022983473,2.0666221075932505,1.7358338712481238,5.369974490622475
5.049307468795123,-1.7325739352639236,2.0683927183001565,1.7535267357409428,5.366532675534252
5.067007453520293,-1.726203692207517,2.0701694304256546,1.7716316557400766,5.36258173848492
5.08429791295012,-1.7197188517986872,2.0719522343984975,1.7901514074855873,5.358142639194973
5.10118201558391,-1.7131186927069941,2.0737411206474383,1.809088767217534,5.353236337384907
5.117662929920929,-1.7064024936019975,2.075536079601231,1.8284465111759642,5.347883792775136
5.133743824460453,-1.699569533153258,2.0773371016886273,1.848227415600939,5.3421059650861835
5.14942786770178,-1.6926190900303346,2.079144177338382,1.8684342567325167,5.335923814038495
5.164718228144176,-1.6855504429027877,2.080957296979247,1.8890698108107529,5.329358299352556
5.179618074286939,-1.678362870440177,2.082776451039977,1.9101368540757058,5.322430380748891
5.194130574629337,-1.6710556513120622,2.084601629949324,1.9316381627674293,5.315161017947872
5.208258897670667,-1.6636280641880044,2.0864328241360406,1.95357651312598,5.307571170669988
5.222006211910205,-1.6560793877375626,2.0882700240288816,1.975954681391415,5.299681798635831
5.235375685847231,-1.6484089006302964,2.0901132200565993,1.9987754438037904,5.291513861565733
5.248370487981022,-1.6406158815357657,2.091962402647947,2.0220415766031614,5.283088319180209
5.2609937868108805,-1.6326996091235313,2.0938175622316777,2.0457558560295874,5.274426131199775
5.273248750836062,-1.624659362063153,2.0956786892365455,2.069921058323123,5.265548257344825
5.285138548555876,-1.6164944190241908,2.0975457740913024,2.0945399597238286,5.25647565733594
5.2966663484695875,-1.6082040586762032,2.099418807224702,2.1196153364717567,5.247229290893536
5.307835319076485,-1.5997875596887519,2.101471968894579,2.1451499648069614,5.237830117738028
5.31864862887584,-1.5912442007313952,2.103796424634986,2.1711466209695054,5.2282990975899395
5.32910944636696,-1.5825732604736946,2.106374307876287,2.1976080811994407,5.218657190169793
5.339220940049101,-1.5737740175852095,2.109187752048598,2.224537121736825,5.2089253551980335
5.3489862784215525,-1.5648457507354991,2.112218890582085,2.2519365188217186,5.199124552395091
5.358408629983602,-1.5557877385941241,2.1154498569068068,2.2798090486941724,5.189275741481467
5.367491163234535,-1.5465992598306446,2.1188627844528867,2.3081574875942454,5.179399882177648
5.37623704667363,-1.537279593114619,2.122439806650455,2.336984611761995,5.169517934204066
5.384649448800168,-1.5278280171156093,2.126163056929677,2.366293197437475,5.159650857281207
5.392731538113432,-1.5182438105031744,2.1300146687205554,2.3960860208607446,5.149819611129615
5.400486483112704,-1.5085262519468738,2.1339767754532843,2.4263658582718595,5.140045155469636
5.4079174522972675,-1.498674620116268,2.1380315105579655,2.457135485910875,5.130348450021856
5.4150276141664015,-1.488233605769949,2.142161007464722,2.488397680017849,5.120750454506734
5.421820137219392,-1.4774553610920407,2.1463473996036626,2.5201552168328387,5.111272128644643
5.428298189955527,-1.466400847836013,2.1505728204048538,2.552410872595896,5.101934432156156
5.434464940874069,-1.45513102775584,2.1548194032984895,2.5851674235470856,5.092758324761746
5.440323558474333,-1.4437068626054952,2.159069281714636,2.6184276459264595,5.083764766181801
5.445877211255562,-1.4321893141387534,2.163304589083424,2.6462041395093365,5.074974716136879
5.451129067717071,-1.420639344109759,2.16750745883499,2.6628796743493695,5.066409134347438
5.456082296358133,-1.409117914272315,2.171660024399422,2.6694540494186185,5.0580889805338956
5.46074006567801,-1.3976859863802815,2.1757444192068007,2.666927063682124,5.050035214416766
5.465105544176025,-1.3864045221878882,2.1797427766873483,2.6562985161158394,5.042268795716581
5.46918190035143,-1.3753344834488814,2.18363723027106,2.638568205683441,5.034810684153683
5.472972302703505,-1.3645368319172064,2.187409913388123,2.6147359313549714,5.027681839448675
5.476479919731551,-1.3540725293466096,2.191042959468632,2.5858014920981987,5.020903221321959
5.479707919934842,-1.3440025374914626,2.1945185019426674,2.5527646868831653,5.014495789494006
5.482659471812667,-1.3343878181054265,2.1978186742404233,2.5166253146767303,5.008480503685291
5.485337743864292,-1.3252893329424182,2.2009256097920087,2.478383174449391,5.002878323616315
5.487745904589001,-1.3167680437562979,2.2038214420274187,2.439038065172099,4.9977102090075505
5.489887122486101,-1.3088849123012096,2.2064883043769186,2.3995897858080752,4.992997119579442
5.491764566054856,-1.3017009003309852,2.208908330270532,2.3610381353328194,4.988760015052463
5.493381403794537,-1.295276969599655,2.2110636531384245,2.324382912708643,4.985019855147129
5.494740804204445,-1.2896740818609373,2.2129364064106483,2.2906239169078617,4.981797599583842
5.495845935783864,-1.2849531988690046,2.214508723517355,2.260760946899609,4.979114208083189
5.496699967032068,-1.28117528237766,2.2157627378886957,2.23579380164756,4.976990640365514
5.497306066448344,-1.2784012941408491,2.216680582954723,2.216722280128124,4.975447856151334
5.49766740253196,-1.276692195912517,2.217244392145602,2.204546181304977,4.974506815161206
5.497787143782219,-1.2761089494466944,2.2174362988914424,2.2002653041490703,4.974188477115462
