oscarkremer/mentor-optimization/notebooks/traject_1/non_adaptive/angles_1.csv
theta1,theta2,theta3,theta4,theta5
3.1415926535,-0.9030865823619687,2.1246196420553805,1.9200595938963783,8.979318433952318e-11
3.1407763161896414,-0.9032809393244104,2.1243926319888504,1.9198191655447436,2.6466163615225383e-05
3.138345973339248,-0.9038620686597234,2.123714044415594,1.9191018166268095,0.00010575488085635215
3.1343296285698434,-0.9048270580398897,2.1225875432751136,1.9179134513480305,0.00023770198517908324
3.1287552855024523,-0.9061729951368906,2.12101679250691,1.9162599739138606,0.00042214322024593725
3.121650947758098,-0.9078969676227084,2.119005456050485,1.9141472885297541,0.0006589143297194328
3.113044618957805,-0.9099960631693247,2.11655719784534,1.9115812994011663,0.0009478510572620883
3.102964302722597,-0.9124673694487211,2.1136756818309768,1.9085679107335507,0.0012887891465364226
3.091438002673497,-0.9153079741328796,2.1103645719468966,1.9051130267323622,0.0016815643412049542
3.078493722431531,-0.9185149648937818,2.1066275321326007,1.901222551603055,0.0021260123849302015
3.064159465617721,-0.9220854294034098,2.102468226327592,1.8969023895510835,0.0026219690213746837
3.0484632358530916,-0.9260164553337451,2.0978903184713698,1.8921584447819024,0.0031692699942009184
3.031433036758667,-0.9303051303567695,2.092897472503437,1.8869966215009657,0.0037677510470714246
3.0130968719554714,-0.9349485421444651,2.0874933523632953,1.8814228239137283,0.004417247923648723
2.9934827450645276,-0.9399437783688134,2.0816816219904455,1.8754429562256443,0.005117596367595328
2.972618659706861,-0.9452879267017962,2.0754659453243893,1.8690629226421678,0.005868632122573762
2.950532619503494,-0.9509780748153953,2.068849986304629,1.862288627368754,0.00667019093224654
2.9272526280754514,-0.9570113103815926,2.061837408870665,1.8551259746108568,0.007522108540276183
2.902806689043758,-0.9633847210723697,2.054431876961999,1.8475808685739306,0.008424220690325212
2.877222806029436,-0.9700953945597087,2.046637054518133,1.83965921346343,0.00937636312605614
2.8505289826535103,-0.9771404185155911,2.0384566054785687,1.8313669134848092,0.01037837159113149
2.822753222537005,-0.9845168806119986,2.0298941937828068,1.822709872843523,0.011430081829213777
2.793923529300943,-0.9922218685209133,2.0209534833703495,1.8136939957450253,0.012531329583965523
2.764067906566349,-1.000252469914317,2.0116381381806976,1.804325186394771,0.013681950599049246
2.7332143579542474,-1.0086057724641913,2.001951822153354,1.794609348998214,0.01488178061812746
2.7013908870856618,-1.0172788638425176,1.9918981992278189,1.7845523877608094,0.01613065538486269
2.6686254975816155,-1.0262688317212785,1.9814809333435939,1.774160206888011,0.017428410642917457
2.6349461930631333,-1.0355727637724554,1.970703688440181,1.7634387105852734,0.018774882135954265
2.600380977151238,-1.04518774766803,1.9595701284570812,1.752393803058051,0.02016990560763565
2.564957853466955,-1.0551108710799841,1.9480839173337967,1.7410313885117983,0.021613316801624118
2.5287048256313076,-1.0653392216802997,1.9362487190098288,1.7293573711519696,0.023104951461582198
2.4916498972653196,-1.0758698871409584,1.9240681974246787,1.7173776551840196,0.0246446453311724
2.453821071990015,-1.0866999551339422,1.911546016517848,1.7050981448134026,0.02623223415405724
2.4152463534264172,-1.0978265133312324,1.8986858402288382,1.6925247442455726,0.02786755367389924
2.3759537451955515,-1.1092466494048112,1.885491332497151,1.6796633576859847,0.029550439634360926
2.33597125091844,-1.1209574510266604,1.8719661572622883,1.6665198893400928,0.03128072777910482
2.2953268742161086,-1.1329560058687616,1.8581139784637506,1.6531002434133513,0.03305825385179342
2.25404861870958,-1.145239401603097,1.8439384600410402,1.639410324111215,0.03488285359608926
2.2121644880198783,-1.1578047259016475,1.8294432659336584,1.6254560356391379,0.03675436275565486
2.169702485768028,-1.1706490664363958,1.8146320600811066,1.6112432822025746,0.038672617074152725
2.1266906155750527,-1.1837695108793231,1.7995085064228866,1.5967779680069798,0.040637452295245395
2.0831568810619756,-1.1971631469024118,1.7840762688984995,1.5820659972578077,0.04264870416259536
2.039129285849822,-1.210827062177643,1.7683390114474475,1.5671132741605123,0.04470620841986516
1.994635833559615,-1.2247583443769987,1.7523003980092315,1.5519257029205482,0.04680980081071731
1.9497045278123786,-1.238954081172461,1.735964092523353,1.5365091877433703,0.048959317078814325
1.9043633722291367,-1.2534113602360113,1.7193337589293138,1.5208696328344327,0.05115459296781873
1.8586403704309136,-1.268127269239632,1.7024130611666155,1.5050129423991898,0.05339546422139304
1.812563526038733,-1.283098895855304,1.6852056631747592,1.488945020643096,0.05568176658319976
1.7661608426736186,-1.2983233277550095,1.6677152288932469,1.4726717717716058,0.058013335796901426
1.719460323956595,-1.3137976526107304,1.6499454222615797,1.4561990999901735,0.06039000760616057
1.6724899735086858,-1.3295189580944484,1.6318999072192595,1.4395329095042537,0.06281161775463967
1.6252777949509143,-1.3454843318781455,1.6135823477057871,1.4226791045193006,0.06527800198600128
1.5778517919043056,-1.3616908616338033,1.594996407660665,1.4056435892407688,0.0677889960439079
1.5302399679898828,-1.378135635033403,1.576145751023394,1.3884322678741126,0.07034443567202205
1.4824703268286696,-1.3948157397489278,1.5570340417334758,1.371051044624786,0.07294415661400626
1.4345708720416916,-1.411728263452358,1.5376649437304124,1.3535058236982445,0.07558799461352302
1.3865696072499705,-1.4288702938156763,1.5180421209537047,1.3358025092999415,0.07827578541423488
1.3384945360745313,-1.4462389185108642,1.4981692373428543,1.3179470056353317,0.08100736475980437
1.2903736621363988,-1.4638312252099035,1.4780499568373628,1.2999452169098695,0.08378256839389396
1.2422349890565956,-1.4816443015847756,1.4576879433767318,1.2818030473290098,0.0866012320601662
1.1941065204561463,-1.4996752353074632,1.4370868609004626,1.2635264010982064,0.08946319150228364
1.1460162599560744,-1.5179211140499471,1.4162503733480571,1.245121182422914,0.09236828246390873
1.0979922111774045,-1.53637902548421,1.3951821446590165,1.2265932955085868,0.09531634068870402
1.0500623777411602,-1.5550460572822329,1.3738858387728425,1.2079486445606795,0.09830720192033203
1.0022547632683647,-1.5739192971159983,1.3523651196290363,1.1891931337846462,0.10134070190245528
0.9545973713800429,-1.5929958326574873,1.3306236511671,1.1703326673859418,0.10441667637873628
0.9071182056972191,-1.6122727515786819,1.3086650973265344,1.1513731495700201,0.10753496109283758
0.8598452698409165,-1.6317471415515645,1.2864931220468412,1.1323204845423358,0.11069539178842164
0.8128065674321581,-1.6514160902481159,1.2641113892675224,1.1131805765083436,0.11389780420915102
0.7660301020919698,-1.6712766853403185,1.2415235629280792,1.0939593296734977,0.11714203409868829
0.7195438774413749,-1.6913260145001539,1.218733306968013,1.0746626482432522,0.12042791720069584
0.6733758971013963,-1.711561165399604,1.1957442853268254,1.055296436423062,0.1237552892588363
0.6275541646930594,-1.7319792257106503,1.1725601619440182,1.0358665984183812,0.12712398601677213
0.5821066838373861,-1.7525772831052755,1.1491846007590927,1.0163790384346643,0.13053384321816586
0.5370614581554027,-1.7733524252554602,1.1256212657115505,0.9968396606773654,0.13398469660668003
0.49244649126813167,-1.7943017398331866,1.1018738207408927,0.9772543693519395,0.1374763819259771
0.4482897867965985,-1.8154223145104367,1.0779459297866207,0.9576290686638408,0.14100873491971969
0.40461934836182545,-1.836711236959192,1.0538412567882371,0.9379696628185239,0.14458159133157023
0.36146317958483687,-1.8581655948514344,1.0295634656852424,0.9182820560214424,0.14819478690519128
0.31884928408665747,-1.8797824758591462,1.0051162204171387,0.8985721524780519,0.15184815738424537
0.2768056654883102,-1.9015589676543083,0.9805031849234271,0.8788458563938056,0.15554153851239494
0.23536032741081936,-1.9234921579089028,0.9557280231436092,0.8591090719741594,0.15927476603330262
0.1945412734752079,-1.945579134294912,0.9307943990171864,0.8393677034245661,0.1630476756906308
0.1543765073025023,-1.9678169844843172,0.9057059764836612,0.819627654950481,0.16686010322804215
0.11489403251372421,-1.9902027961491,0.8804664194825335,0.7998948307573585,0.17071188438919907
0.0761218527298988,-2.0127336569612426,0.8550793919533062,0.7801751350506526,0.17460285491776412
0.03808797157204946,-2.0354066545927267,0.82954855783548,0.7604744720358183,0.1785328505573998
0.0008203926612000423,-2.058218876715534,0.8038775810685568,0.7407987459183096,0.18250170705176869
-0.035652880381625174,-2.0811674110016467,0.7780701255920381,0.721153860903581,0.18650926014453323
-0.07130384393540234,-2.1042493451230455,0.7521298553454249,0.7015457211970869,0.19055534557935602
-0.10610449437910852,-2.1274617667517135,0.7260604342682198,0.681980231004282,0.19463979909989948
-0.14002682809171718,-2.1508017635596315,0.699865526299923,0.6624632945306201,0.1987624564498262
-0.17304284145220716,-2.174266423218782,0.6735487953800374,0.6430008159815561,0.2029231533727987
-0.2051245308395533,-2.1978528334011465,0.647113905448063,0.6235986995625442,0.2071217256124794
-0.23624389263273216,-2.221558081778706,0.6205645204435025,0.6042628494790392,0.21135800891253098
-0.26637292321071726,-2.2453792560234436,0.5939043043058571,0.5849991699364951,0.21563183901661584
-0.2954836189524901,-2.2693134438073406,0.5671369209746283,0.5658135651403666,0.21994305166839656
-0.3235479762370197,-2.2933577328023786,0.5402660343893172,0.5467119392961076,0.22429148261153564
-0.35053799144328845,-2.317509210680539,0.5132953084894257,0.5277001966091733,0.22867696758969558
-0.37642566095026986,-2.3417649651138044,0.4862284072144555,0.5087842412850174,0.2330993423465389
-0.4011829811369374,-2.366122083774157,0.45906899450390826,0.4899699775290951,0.23755844262572806
-0.4247819483822717,-2.390577654333577,0.4318207342972842,0.47126330954685947,0.24205410417092577
-0.4471945590652471,-2.415128764464047,0.40448729053408616,0.4526701415437664,0.24658616272579437
-0.46839280956483975,-2.4397725018375493,0.37707232715381567,0.4341963777252691,0.25115445403399633
-0.488348696260025,-2.4645059541260648,0.34957950809597327,0.4158479222968232,0.2557588138391944
-0.507034215529778,-2.4893262090015758,0.3220124973000612,0.39763067946388175,0.26039907788505084
-0.5244213637530759,-2.514230354136064,0.29437495870558106,0.379550553431901,0.26507508191522855
-0.5404821373088957,-2.539215477201511,0.2666705562520342,0.3616134484063329,0.2697866616733896
-0.5551885325762136,-2.5642786658698995,0.23890295387892146,0.3438252685926342,0.2745336529031968
-0.5685125459340039,-2.5894170078132097,0.21107581552574572,0.3261919181962578,0.2793158913483125
-0.5804261737612428,-2.614627590703425,0.18319280513200786,0.30871930142265924,0.2841332127523993
-0.5909014124369074,-2.6399075022125262,0.15525758663720868,0.29141332247729124,0.28898545285911975
-0.5999102583399747,-2.6652538300124955,0.12727382398084996,0.274279885565611,0.2938724474121363
-0.607424707849419,-2.690663661775314,0.09924518110243419,0.25732489489307,0.2987940321551115
-0.6134167573442157,-2.716134085172964,0.07117532194146226,0.2405542546651238,0.30375004283170787
-0.617858403203341,-2.741662187877427,0.04306791043743563,0.22397386908722772,0.30874031518558803
-0.6207216418057744,-2.7672450575606855,0.014926610529855333,0.2075896423648349,0.3137646849604142
-0.621978469530486,-2.792879781894721,-0.013244913841776174,0.19140747870340014,0.31882298789984925
-0.6216008827564607,-2.8185634485515147,-0.041442998737957426,0.17543328230837818,0.3239150597475555
-0.6195608778626669,-2.844293145203049,-0.06966398021918807,0.15967295738522314,0.3290407362471955
-0.6158304512280814,-2.8700659595213054,-0.09790419434596531,0.14413240813938955,0.33419985314243184
-0.6103815992316814,-2.895878979178266,-0.12615997717878757,0.1288175387763315,0.33939224617692687
-0.6031863182524475,-2.9217292918459123,-0.15442766477815395,0.11373425350150401,0.3446177510943433
-0.5942166046693469,-2.947613985196227,-0.18270359320456397,0.09888845652036093,0.34987620363834343
-0.5834444548613611,-2.97353014690119,-0.2109840985185143,0.08428605203835704,0.3551674395525901
-0.5708418652074663,-2.9994748646327847,-0.23926551678050378,0.06993294426094598,0.36049129458074547
-0.5563808320866421,-3.025445226062992,-0.2675441840510322,0.055835037393583864,0.36584760446647235
-0.5400333518778577,-3.0514383188637937,-0.29581643639059685,0.04199823564172345,0.37123620495343307
-0.5217714209600892,-3.0774512307071715,-0.32407860985969594,0.0284284432108195,0.3766569317852903
-0.5015670357123163,-3.103481049265109,-0.35232704051882835,0.015131564306326784,0.3821096207057065
-0.4793921925135116,-3.1295248622095864,-0.3805580644284934,0.0021135031337000676,0.387594107458344
-0.4552188877426584,-3.155579757212585,-0.40876801764918835,-0.010619836101606772,0.39311022778686566
-0.4290191177787239,-3.1816428219460873,-0.43695323624141236,-0.02306254919413986,0.3986578174349337
-0.40076487900068614,-3.207711144082075,-0.4651100562656634,-0.03520873193844354,0.40423671214621093
-0.37042816778752474,-3.2337818112925305,-0.4932348137824414,-0.04705248012906482,0.4098467476643594
-0.3379809805182177,-3.259851911249435,-0.5213238448522426,-0.058587889560546724,0.4154877597330422
-0.30339531357173577,-3.28591853162477,-0.549373485535567,-0.06980905602743848,0.4211595840959214
-0.26664316332705873,-3.3119787600905175,-0.5773800718929125,-0.0807100753242822,0.42686205649665987
-0.2276965261631574,-3.338029684318659,-0.6053399399847781,-0.09128504324562625,0.43259501267892
-0.18652739845901323,-3.364068391981177,-0.6332494258716617,-0.10152805558601585,0.43835828838636404
-0.1431077765935953,-3.3900919707500536,-0.6611048656140617,-0.11143320813999402,0.4441517193626548
-0.09740965694588866,-3.416097508297269,-0.6889025952724781,-0.12099459670210821,0.4499751413514547
-0.049405035894867666,-3.4420820922948066,-0.7166389509074074,-0.13020631706690455,0.4558283900964264
0.0009340901804986146,-3.468042810414647,-0.7443102685793488,-0.13906246502892827,0.4617113013412322
0.0536357249012287,-3.4939767503287733,-0.771912884348801,-0.14755713638272328,0.4676237108295348
0.10872787188834288,-3.519880999709165,-0.7994431342762633,-0.15568442692283746,0.47356545430499664
0.16623853476287387,-3.5457526462278075,-0.8268973544222324,-0.16343843244381562,0.47953636751128015
0.22619571714584197,-3.571588777556679,-0.854271880847207,-0.17081324874020298,0.485536286192048
0.28862742265826746,-3.597386481367763,-0.8815630496116866,-0.17780297160654612,0.4915650460909627
0.3535616549211813,-3.623142845333041,-0.9087671967761701,-0.1844016968373885,0.4976224829516867
0.42102641755559844,-3.648854957124495,-0.9358806584011541,-0.190603520227278,0.5037084325178824
0.49104971418255516,-3.6745199044141073,-0.9628997705471387,-0.19640253757075898,0.5098227305332126
0.5636595484230646,-3.700134774873857,-0.9898208692746233,-0.20179284466237757,0.5159652127413397
0.6388839238981525,-3.72569665617573,-1.0166402906441032,-0.20676853729667855,0.5221357148859261
0.7167508442288444,-3.751202635991704,-1.0433543707160782,-0.2113237112682076,0.5283340727106344
0.7972883130361659,-3.7766498019937638,-1.069959445551048,-0.21545246237151083,0.5345601219591272
0.880524333941139,-3.8020352418538907,-1.0964518512095114,-0.21914888640113572,0.540813698375067
0.964747351760824,-3.827356043244065,-1.1228279237519643,-0.22240707915162394,0.5470946377021163
1.047941839325333,-3.852609293836271,-1.1490839992389068,-0.2252211364175234,0.5534027756839375
1.1301123800852766,-3.8777920813024878,-1.1752164137308374,-0.2275851539933802,0.559737948064193
1.2112635574912565,-3.902901493314698,-1.201221503288254,-0.22949322767373825,0.5660999905865458
1.2913999549938797,-3.9279346175448833,-1.2270956039716565,-0.2309394532531428,0.5724887389946579
1.370526156043768,-3.9528885416650277,-1.2528350518415428,-0.2319179265261413,0.5789040290321924
1.448646744091513,-3.9777603533471093,-1.2784361829584099,-0.2324227432872794,0.5853456964428112
1.5257663025877384,-4.002547140263112,-1.303895333382758,-0.23244799933110194,0.5918135769701773
1.6018894149830398,-4.027245990085019,-1.3292088391750831,-0.2319877904521528,0.598307506357953
1.6770206647280363,-4.051853990484808,-1.3543730363958866,-0.23103621244498207,0.6048273203498007
1.7511646352733243,-4.076368229134465,-1.3793842611056686,-0.22958736110413014,0.6113728546893831
1.824325910069525,-4.1007857937059695,-1.4042388493649218,-0.22763533222414534,0.6179439451203625
1.896509072567242,-4.125103771871305,-1.4289331372341483,-0.22517422159957334,0.6245404273864019
1.9677187062170876,-4.149319251302449,-1.4534634607738464,-0.22219812502495895,0.6311621372311633
2.0379593944696537,-4.1734293196713885,-1.4778261560445145,-0.21870113829484783,0.6378089103983096
2.1072357207755714,-4.197431064650102,-1.5020175591066502,-0.21467735720378567,0.644480582631503
2.175552268585435,-4.221321573910574,-1.5260340060207525,-0.21012087754631903,0.6511769896744062
2.242913621349862,-4.245097935124784,-1.5498718328473204,-0.20502579511699093,0.6578979672706817
2.3093243625194466,-4.2687572359647135,-1.5735273756468522,-0.1993862057103506,0.664643351163992
2.3747890755448164,-4.292296564102346,-1.5969969704798461,-0.19319620512094016,0.6714129770979995
2.4393123438765656,-4.315713007209663,-1.6202769534068007,-0.18644988914330707,0.678206680816367
2.5028987509653042,-4.339003652958647,-1.6433636604882151,-0.179141353571997,0.685024298062757
2.5655528802616514,-4.362165589021276,-1.6662534277845857,-0.17126469420155477,0.6918656645808314
2.6272793152161995,-4.385195903069537,-1.6889425913564127,-0.16281400682652603,0.6987306161142535
2.688082639279572,-4.4080916827754075,-1.7114274872641952,-0.15378338724145646,0.7056189884066856
2.747967435902371,-4.430850015810872,-1.7337044515684301,-0.14416693124089264,0.71253061720179
2.8069382885352026,-4.45346798984791,-1.7557698203296166,-0.13395873461937935,0.7194653382432294
2.8649997806286756,-4.475942692558506,-1.7776199296082522,-0.12315289317146139,0.7264229872746664
2.922156495633404,-4.498271211614641,-1.799251115464839,-0.11174350269168531,0.7334034000397631
2.978413016999988,-4.520450634688293,-1.8206597139598708,-0.0997246589745977,0.7404064122821824
3.033773928179051,-4.542478049451448,-1.8418420611538484,-0.08709045781474067,0.7474318597455869
3.088243812621183,-4.564350543576089,-1.8627944931072706,-0.07383499500666346,0.7544795781736389
3.141827253777006,-4.586065204734193,-1.883513345880635,-0.05995236634490908,0.7615494033100009
3.194528835097116,-4.607619120597746,-1.903994955534439,-0.04543666762402587,0.7686411708983353
3.246353140032138,-4.629009378838727,-1.9242356581291844,-0.030281994638555965,0.7757547166823051
3.297304752032665,-4.65023306712912,-1.9442317897253654,-0.014482443183048588,0.7828898764055723
3.3473882545493243,-4.671287273140906,-1.9639796863834844,0.0019678909479514672,0.7900464858117997
3.3966082310326993,-4.692169084546066,-1.9834756841640386,0.019074911959902074,0.7972243806446498
3.4449692649334214,-4.712875589016581,-2.002716119127526,0.03684452405825489,0.8044233966477847
3.492475939702077,-4.733403874224436,-2.0216973273344445,0.05528263144846424,0.811643369564868
3.539132838789299,-4.753751027841609,-2.040415644845294,0.07439513833598355,0.8188841351395608
3.5849445456456692,-4.773914137540085,-2.058867407720572,0.09418794892627069,0.826145529115527
3.6299156437218265,-4.793890290991843,-2.0770489520207764,0.11466696742477556,0.833427387236428
3.674050716468347,-4.813676575868866,-2.0949566138064073,0.1358380980369578,0.8407295452459269
3.717354347335876,-4.833270079843139,-2.1125867291379627,0.15770724496826816,0.8480518388876861
3.7598311197749865,-4.852667890586639,-2.1299356340759417,0.18028031242416098,0.8553941039053684
3.8014856172363087,-4.871867095771348,-2.1469996646808402,0.20356320461009325,0.8627561760426355
3.842322423170449,-4.890864783069249,-2.163775157013161,0.22756182573151484,0.8701378910431509
3.882346121028002,-4.909658040152326,-2.180258447133399,0.2522820799938863,0.8775390846505763
3.921561294259596,-4.928243954692559,-2.1964458711020516,0.2777298716026557,0.8849595926085746
3.9599725263158163,-4.94661961436193,-2.212333764979622,0.30391110476328365,0.8923992506608085
3.997584400647294,-4.964782106832419,-2.2279184648266055,0.3308316836812182,0.8998578945509401
4.034401500704625,-4.98272851977601,-2.2431963067034983,0.3584975125619181,0.9073353600226319
4.070428409938428,-5.000455940864684,-2.2581636266708047,0.3869144956108368,0.9148314828195471
4.105669711799295,-5.017961457770423,-2.272816760789018,0.4160885370334313,0.922346098685348
4.1401299897378445,-5.035242158165208,-2.287152045118642,0.44602554103515146,0.9298790433636963
4.173813827204689,-5.052295129721024,-2.3011658157201706,0.4767314118214525,0.9374301525982558
4.2067258076504315,-5.0691174601098465,-2.314854408654103,0.5082120535977896,0.9449992621326875
4.238870514525677,-5.085706237003663,-2.3282141599809405,0.5404733705696181,0.952586207710655
4.270252531281035,-5.102058548074454,-2.341241405761177,0.573521266942393,0.9601908250758209
4.3008764413671345,-5.118171480994199,-2.3539324820553125,0.6073616469215697,0.9678129499718471
4.330746828234553,-5.13404212343488,-2.36628372492385,0.6420004147125944,0.9754524181423965
4.359868275333919,-5.1496675630684825,-2.378291470427283,0.6774434745209312,0.9831090653311314
4.388245366115834,-5.165044887566986,-2.38995205462611,0.7136967305520301,0.9907827272817145
4.415882684030912,-5.180171184602371,-2.4012618135808363,0.750766087011348,0.9984732397378084
4.4427848125297515,-5.195043541846622,-2.4122170833519485,0.7886574481043329,1.0061804384430753
4.468956335062963,-5.209659046971719,-2.422814199999955,0.8273767180364473,1.013904159141178
4.494401835081158,-5.2240147876496446,-2.4330494995853496,0.8669298010131445,1.0216442375757788
4.5191258960349625,-5.2381078515523765,-2.4429193181686335,0.9073226012398692,1.0294005094905405
4.543133101374952,-5.251935326351904,-2.4524199918103022,0.9485610229220924,1.0371728106291256
4.566428034551752,-5.2654942997202046,-2.4615478565708564,0.9906509702652553,1.0449609767351957
4.589015279015964,-5.27878185932926,-2.470299248510794,1.033598347474813,1.0527648435524148
4.61089941821823,-5.291795092851052,-2.478670503690613,1.0774090587562295,1.0605842468244446
4.632085035609109,-5.304531087957562,-2.486657958170813,1.1220890083149513,1.068419022294948
4.652576714639233,-5.3169869323207735,-2.4942579480118905,1.16764410035643,1.0762690057075868
4.672379038759223,-5.329159713612666,-2.5014668092743477,1.2140802390861278,1.0841340328060238
4.691496591419659,-5.341046519505222,-2.508280878018679,1.2614033287094948,1.092013939333922
4.709933956071167,-5.352644437670428,-2.5146964903053854,1.3096192734319896,1.0999085610349435
4.727695716164353,-5.363950555780259,-2.5207099821949637,1.358733977459062,1.1078177336527513
4.744786455149832,-5.374961961506699,-2.5263176897479127,1.408753344996164,1.1157412929310069
4.761210756478198,-5.385675742521731,-2.531515949024733,1.4596832802487558,1.1236790746133736
4.776973203600068,-5.396088986497336,-2.5363010960859196,1.5115296874222945,1.131630914443514
4.792078379966043,-5.406198781105497,-2.5406694669919734,1.5642984707222247,1.1395966481650903
4.806530869026766,-5.416002214018194,-2.5446173978033926,1.6179955343540087,1.1475761115217653
4.820335254232791,-5.425496372907411,-2.548141224580677,1.6726267825230963,1.1555691402572008
4.833496119034757,-5.434678345445126,-2.551237283384321,1.7281981194349463,1.1635755701150603
4.846018046883271,-5.443545219303323,-2.553901910274826,1.7847154492950104,1.1715952368390057
4.85790562122895,-5.452094082153984,-2.55613144131269,1.8421846763087402,1.1796279761727
4.869163425522386,-5.460322021669093,-2.557922212558413,1.9006117046815962,1.187673623859805
4.8797960432141885,-5.4682261255206255,-2.559270560072491,1.9600024386190302,1.1957320156439837
4.889808057754973,-5.475803481380569,-2.5601728199154223,2.020362782326494,1.2038029872688987
4.899204052595355,-5.483051176920904,-2.56062532814771,2.081698640009444,1.2118863744782127
4.907988611185916,-5.489966299813612,-2.5606244208298463,2.144015915873334,1.2199820130155874
4.916166316977291,-5.496545937730674,-2.5601664340223333,2.207320514123623,1.2280897386246854
4.923741753420076,-5.502787178344071,-2.5592477037856707,2.2716183389657623,1.2362093870491702
4.9307195039649,-5.5086871093257885,-2.5578645661803545,2.336915294605202,1.2443407940327038
4.937104152062345,-5.514242818347804,-2.556013357266881,2.403217285247397,1.2524837953189485
4.942900281163022,-5.519451393082103,-2.5536904131057536,2.4705302150978152,1.2606382266515668
4.948112474717565,-5.524309921200663,-2.5508920697574684,2.5388599883618923,1.2688039237742217
4.952745316176545,-5.52881549037547,-2.5476146632825234,2.6082125092450923,1.2769807224305751
4.956803388990604,-5.532965188278505,-2.5438545297414183,2.678593681952872,1.2851684583642902
4.960291276610322,-5.536756102581748,-2.5396080051946495,2.749185891663746,1.2933669673190287
4.963213562486343,-5.54018532095718,-2.534871425702722,2.8186248885761422,1.3015760850384537
4.965574830069238,-5.543249931076788,-2.529641127326121,2.8869178319977706,1.3097956472662275
4.967379662809641,-5.545947020612548,-2.523913446125361,2.954071881236292,1.318025489746013
4.968632644158136,-5.548273677236443,-2.517684718160927,3.020094195599391,1.3262654482214722
4.969338357565375,-5.550226988620457,-2.5109512794933266,3.084991934394722,1.334515358436268
4.9695013864819195,-5.55180404243657,-2.5037094661830555,3.1487722569299272,1.3427750561340626
4.969126314358391,-5.553001926356766,-2.49595561429061,3.211442322512724,1.3510443770585188
4.968217724645415,-5.553817728053023,-2.4876860598764914,3.273009290450773,1.359323156953299
4.966780200793597,-5.554248535197326,-2.4788971390011962,3.3334803200517236,1.3676112315620657
4.964818326253525,-5.554291435461655,-2.469585187725224,3.3928625706232367,1.3759084366284808
4.962336684475819,-5.553943516517993,-2.459746542109075,3.451163201473012,1.3842146078962083
4.959339858911088,-5.5532018660383216,-2.4493775382132412,3.5083893719086845,1.3925295811089098
4.955832433009967,-5.552063571694621,-2.438474512098228,3.56454824123794,1.4008531920102476
4.951818990223018,-5.550525721158875,-2.4270337998245317,3.619646968768432,1.4091852763438844
4.947304114000861,-5.5485854021030665,-2.4150517374526483,3.673692713807853,1.4175256698534833
4.942292387794119,-5.546239702199173,-2.402524661043083,3.7266926356638486,1.425874208282706
4.9367883950534175,-5.54348570911918,-2.389448906656325,3.778653893644101,1.4342307273752155
4.930796719229317,-5.540320510535068,-2.375820810352879,3.8295836470562534,1.4425950628746742
4.924321943772455,-5.536741194118816,-2.3616367081932435,3.8794890552080155,1.4509670505247438
4.9173686521334545,-5.532744847542412,-2.3468929362379143,3.928377277407016,1.4593465260690888
4.909941427762888,-5.5283285584778366,-2.331585830547393,3.9762554729609363,1.4677333252513702
4.902044854111388,-5.523489414597064,-2.3157117271821726,4.023130801177455,1.4761272838152504
4.893683514629551,-5.518224503572084,-2.299266962202756,4.06901042136424,1.4845282375043924
4.884861992768023,-5.5125309130748725,-2.282247871669643,4.113901492828919,1.4929360220624592
4.8755848719773525,-5.50640573077742,-2.264650791643332,4.157811174879228,1.501350473233113
4.865856735708178,-5.499846044351701,-2.246472058184315,4.200746626822763,1.5097714267600153
4.8556821674111035,-5.4928489414696955,-2.2277080073530957,4.242715007967252,1.51819871838683
4.8450657505367545,-5.485411509803393,-2.208354975210172,4.283723477620331,1.526632183857219
4.834012068535721,-5.477530837024769,-2.1884092978160457,4.323779195089674,1.5350716589148448
4.822525704858606,-5.469204010805809,-2.1678673112312072,4.362889319682935,1.5435169793033698
4.810611242956043,-5.4604281188184896,-2.1467253515161584,4.4010610107078065,1.551967980766457
4.798273266278645,-5.451200248734798,-2.124979754731404,4.438301427471938,1.5604244990477687
4.785516358276961,-5.441517488226713,-2.1026268569374302,4.474617729283022,1.5688863698909672
4.772345102401665,-5.431376924966225,-2.079662994194754,4.510017075448701,1.5773534290397149
4.758764082103323,-5.420775646625305,-2.056084502563852,4.544506625276668,1.5858255122376752
4.7447778808325864,-5.4097107408759335,-2.0318877181052386,4.578093538074569,1.5943024552285094
4.7303910820400255,-5.398179295390099,-2.007068976879408,4.6107849731500785,1.6027840937558806
4.715608269176251,-5.386178397839785,-1.9816246149468526,4.64258808981084,1.6112702635634522
4.70043402569188,-5.373705135896966,-1.9555509683680796,4.673510047364548,1.6197608003948856
4.68487293503755,-5.360756597233628,-1.9288443732035816,4.7035580051189,1.6282555399938432
4.668929580663825,-5.347329869521749,-1.9015011655138636,4.732739122381538,1.636754318103988
4.652608546021334,-5.3334220404333195,-1.873517681359413,4.761060558460095,1.6452569704689823
4.635914414560691,-5.319030197640313,-1.8448902568007384,4.7885294726622405,1.6537633328324892
4.618851769732483,-5.304151428814718,-1.8156152278983342,4.815153024295711,1.6622732409381702
4.6014251949873355,-5.288782821628507,-1.785688930712702,4.840938372668127,1.670786530529689
4.583639273775841,-5.272921463753667,-1.7551077013043397,4.865892677087167,1.679303037350707
4.56549858954865,-5.256564442862182,-1.7238678757337418,4.8900230968604745,1.6878225971448875
4.547007725756309,-5.239708846626032,-1.6919657900614062,4.913336791295748,1.6963450456558924
4.5281712658494975,-5.222351762717196,-1.6593977803478381,4.935840919700652,1.7048702186273852
4.5089937932787585,-5.204490278807658,-1.6261601826535248,4.95754264138283,1.7133979518030271
4.489479891494739,-5.186121482569405,-1.5922493330389784,4.97844911564998,1.7219280809264816
4.469634143948035,-5.167242461674407,-1.5576615675646899,4.998567501809767,1.7304604417414107
4.449461134089212,-5.147850303794659,-1.5223932222911607,5.017904959169826,1.7389948699914775
4.428965445368966,-5.127942096602133,-1.4864406332788853,5.036468647037836,1.747531201420344
4.408151661237877,-5.1075149277688165,-1.4498001365883653,5.0542657247214535,1.7560692717716726
4.387024365146523,-5.086565884966685,-1.412468068280095,5.071303351528407,1.7646089167891268
4.365588140545512,-5.065092055867725,-1.374440764414576,5.087588686766338,1.773149972216368
4.343847570885458,-5.043090528143921,-1.3357145610523133,5.103128889742905,1.7816922737970589
4.321807239617019,-5.020558389467247,-1.2962857942537944,5.11793111976575,1.7902356572748621
4.299471730190753,-4.997492727509693,-1.2561508000795243,5.132002536142565,1.7987799583934403
4.276845626057256,-4.973890629943234,-1.2153059145899974,5.14535029818105,1.8073250128964569
4.25393351066716,-4.949749184439856,-1.1737474738457117,5.157981565188791,1.8158706565275726
4.230739967471141,-4.925065478671538,-1.1314718139071758,5.1699034964735375,1.824416725030451
4.207269579919689,-4.8998366003102625,-1.088475270834877,5.1811232513429175,1.8329630541487543
4.183526931463426,-4.874059637028019,-1.044754180689317,5.191647989104617,1.8415094796261453
4.159516605553069,-4.847731676496775,-1.0003048795310008,5.201484869066277,1.850055837206287
4.1352431856391085,-4.820849806388516,-0.9551237034204121,5.210641050535607,1.8586019626328403
4.110711255172241,-4.793411114375239,-0.9092069884180596,5.219123692820226,1.867147691649469
4.085925397602978,-4.7654126881289045,-0.8625510705844448,5.226939955227827,1.8756928599998353
4.060890196382047,-4.736851615321509,-0.8151522859800586,5.234096997066082,1.8842373034276023
4.035610234959972,-4.707724983625031,-0.7670069706654026,5.2406019776426405,1.8927808576764322
4.010090096787373,-4.6780298807114455,-0.7181114607009746,5.246462056265209,1.9013233584899865
3.984334365314872,-4.647763394252742,-0.6684620921472728,5.251684392241401,1.9098646416119283
3.9583476239930704,-4.616922611920899,-0.6180552010647986,5.2562761448789175,1.9184045427859207
3.9321344562725997,-4.585504621387898,-0.56688712351405,5.260244473485436,1.9269428977556258
3.9056994456040144,-4.553506510325722,-0.514954195555525,5.263596537368613,1.9354795422647062
3.8790471754379716,-4.520925366406356,-0.46225275324971804,5.266339495836107,1.944014312056824
3.852182229225086,-4.487758277301772,-0.40877913265713417,5.26848050819558,1.9525470428756426
3.8251091904159615,-4.454002330683959,-0.35452966983826073,5.270026733754712,1.9610775704648236
3.7978326424611595,-4.419654614224903,-0.29950070085361347,5.27098533182118,1.9696057305680303
3.770357168811312,-4.384712215596576,-0.2436885617636726,5.271363461702627,1.978131358928925
3.742687352917063,-4.349172222470962,-0.18708958862895386,5.271168282706803,1.9866542912911698
3.7148277782289867,-4.313031722520055,-0.12970011750993748,5.270406954141222,1.995174363398427
3.6867830281976843,-4.276287803415819,-0.07151648446713921,5.269086635313663,2.00369141099436
3.6585576862737987,-4.238937552830247,-0.012535025561049906,5.267214485531831,2.0122052698226316
3.6301563359079303,-4.2009780584353145,0.04724792314783599,5.264797664103305,2.0207157756269027
3.601583560550644,-4.16240640790301,0.1078360255990134,5.261843330335736,2.029222764150837
3.5728439436525896,-4.1232196889053085,0.16923294573199144,5.258358643536866,2.0377260711380973
3.543942068664375,-4.0834149891142,0.23144234748626502,5.254350763014365,2.046225532332345
3.5148825190365898,-4.042989396201655,0.29446789480133617,5.249826848075848,2.0547209834772433
3.4856698782198663,-4.0019399978396635,0.35831325161670335,5.244794058028958,2.063212260316455
3.4563087296647836,-3.9602638817002074,0.4229820818718757,5.2392595521814656,2.071699198593642
3.4268036568220097,-3.9179581354552653,0.4884780495063481,5.2332304898409845,2.080181634052467
3.3971592431420703,-3.8750198467768158,0.5548048184596261,5.226714030315186,2.0886594024365923
3.367380072075619,-3.8314461033368516,0.6219660526712119,5.219717332911685,2.0971323394896815
3.3374707270732458,-3.7872339928073444,0.6899654160806037,5.212247556938216,2.1056002809553958
3.3074357915855757,-3.7423806028602833,0.7588065726273108,5.204311861702479,2.114063062577398
3.277279849063241,-3.69688302116764,0.8284931862508209,5.195917406512017,2.122520520099352
3.2470074829568034,-3.650738335401403,0.8990289208906432,5.187071350674628,2.1309724892649187
3.2166232767168736,-3.603943633233559,0.9704174404862869,5.177780853497886,2.13941880581776
3.1861318137941126,-3.556496002336079,1.0426624089772432,5.16805307428956,2.1478593055015405
3.1555376776390887,-3.5083925303809558,1.1157674903030141,5.157895172357165,2.1562938240599214
3.1248454517023987,-3.4596303050401573,1.1897363484031018,5.147314307008507,2.164722197236566
3.094059719434661,-3.4102064139856765,1.2645726472170118,5.136317637551208,2.1731442607751363
3.063185064286536,-3.3601179448894953,1.3402800506842425,5.124912323292868,2.1815598504192946
3.0322260697085284,-3.309361985423589,1.4168622227442995,5.113105523541343,2.189968801912704
3.0011873191513274,-3.2579356232599466,1.4943228273366813,5.100904397604104,2.198370950999027
2.970073396065523,-3.2058359460705432,1.5726655284008828,5.088316104788923,2.206766133421925
2.938888883901747,-3.153060041527368,1.6518939898764131,5.0753478044033855,2.2151541849250616
2.907638366110554,-3.0996049973023965,1.7320118757027743,5.062006655755283,2.2235349412520997
2.8763264261425547,-3.0454679010676102,1.8111247082410387,5.048299818152188,2.2319082381467004
2.8449576474484175,-2.990645840494995,1.8872876018461398,5.034234450901778,2.240273911352528
2.8135366134787176,-2.9351359032565263,1.9605367529946989,5.019817713311689,2.248647919856463
2.782067907684066,-2.878935177024193,2.0309083581634013,5.005056764689719,2.2570862314098683
2.7505561135150316,-2.8220407494699735,2.098438613829444,4.9899587643434415,2.2655868150937195
2.71900581442231,-2.764449708265847,2.1631637164701374,4.974530871580491,2.274147639988932
2.687421593856392,-2.7061591410838055,2.2251198625619963,4.958780245708603,2.282766675176479
2.6558080352680022,-2.6471661355958176,2.284343248582843,4.942714046035412,2.2914418897373103
2.624169722107702,-2.587467779473876,2.3408700710090784,4.92633943186862,2.3001712527523672
2.5925112378260806,-2.5270611603899518,2.394736526318127,4.909663562515846,2.308952733302629
2.560837165873764,-2.465943366016038,2.44597881098656,4.892693597284804,2.317784300469004
2.5291520897013484,-2.40411148402411,2.494633121492143,4.875436695483131,2.3266639233324753
2.4974605927594595,-2.3415626020861495,2.540735654311277,4.857900016418512,2.3355895709739727
2.4657672584987154,-2.2782938078741424,2.5843226059209883,4.8400907193985745,2.3445592124744685
2.4340766703696985,-2.2143021890600636,2.6254301727989855,4.822015963731076,2.353570816914903
2.4023934118230343,-2.1495848333159024,2.664094551421897,4.803682908723587,2.362622353376228
2.3707220663093125,-2.0841388283136304,2.700351938266749,4.785098713683837,2.3717117909393863
2.3390672172791938,-2.017961261725244,2.7342385298105683,4.766270537919439,2.3808370986853404
2.307433448183197,-1.9510492212227106,2.7657905225304376,4.747205540738108,2.3899962456950377
2.2758253424719825,-1.8833997944780236,2.7950441129033834,4.727910881447485,2.399187201049436
2.244247483596176,-1.8150100691631543,2.82203549740683,4.708393719355271,2.4084079338294835
2.2127044550063886,-1.7458771329500955,2.8468008725174627,4.688661213769166,2.41765641311612
2.18120084015316,-1.6759980735108186,2.8693764347121373,4.668720523996711,2.4269306079903146
2.149741222487158,-1.6053699785173166,2.8897983804681644,4.648578809345665,2.436228487532997
2.1183301854590084,-1.5339899356415607,2.908102906262741,4.6282432291237114,2.4455480208251394
2.0869723125192507,-1.4618550325555333,2.9243262085727224,4.607720942638508,2.454887176947672
2.0556721871185815,-1.3889623569312235,2.9385044838751355,4.5870191091976125,2.46424392498157
2.0244343927075477,-1.3153089964406064,2.9506739286470065,4.566144888108852,2.4736162340077605
1.9932635127367107,-1.2408920387556677,2.960870739365646,4.545105438679798,2.483002073107226
1.9621641306568023,-1.165708571548393,2.9691311125076254,4.523907920218164,2.4923994113608856
1.9311408299183412,-1.089755682490754,2.975491244550483,4.502559492031594,2.501806217849694
1.9001981939719812,-1.0130304592547361,2.9799873319709036,4.481067313427786,2.511220461654627
1.8693408062683474,-0.9355299895123288,2.982655571246198,4.459438543714327,2.5206401118566077
1.838573250257923,-0.8572513609354999,2.9835321588531087,4.4376803421989734,2.5300631375365974
1.8079001093914613,-0.7781916611962458,2.9826532912695143,4.415799868189339,2.539487507775565
1.777325967119495,-0.6983479779665416,2.980055164971361,4.3938042809931375,2.5489111916544367
1.7468554068926707,-0.6177173989183657,2.97577397643596,4.371700739918012,2.5583321582541814
1.7164930121616209,-0.536297011723704,2.9698459221409053,4.349496404271619,2.567748376655736
1.68624336637685,-0.45408390405454213,2.9623071985628258,4.327198433361659,2.5771578159400477
1.656111052989047,-0.3710751635828373,2.9531940021788046,4.304813986495745,2.5865584451880856
1.626100655448795,-0.2872678779806108,2.942542529465868,4.28235022298162,2.595948233480808
1.5962167572067258,-0.2026591349198199,2.9303889769013836,4.2598143021268555,2.6053251498991123
1.566463941713458,-0.11724602207245738,2.916769540962264,4.237213383239251,2.614687163524021
1.5368467924195244,-0.03102562711048762,2.90172041812491,4.214554625626292,2.6240322434364423
1.5073698927756283,0.056004962294089466,2.885277804867428,4.191845188595821,2.6333583587173415
1.4780378262323168,0.14168449866099309,2.867477897665708,4.169092231455437,2.642663478447659
1.4488551762402082,0.22337239609237258,2.8483568929977423,4.146302913512812,2.65194557170836
1.4198265262498921,0.3011394137276966,2.8279509873405573,4.123484394075575,2.661202607580371
1.390956459712065,0.375056310703485,2.806296377170952,4.100643832451453,2.670432555144675
1.3622495600772524,0.4451938461577356,2.783429258965441,4.077788387948161,2.679633383482212
1.33371041079603,0.5116227792296968,2.759385829201676,4.054925219873198,2.6888030616739194
1.3053435953191084,0.5744138690558884,2.7342022843570817,4.0320614875343495,2.697939558800776
1.27715369709707,0.633637874774422,2.7079148209077744,4.009204350239244,2.7070408439436875
1.2491452995804835,0.6893655555239775,2.6805596353315764,3.986360967295596,2.7161048861836683
1.2213229862199597,0.7416676704417569,2.652172924104775,3.9635384980110615,2.7251296546016093
1.1936913404661098,0.7906149786657579,2.622790883705136,3.9407441016932125,2.7341131182784935
1.1662549457695732,0.8362782393344332,2.5924497106095146,3.917984937649905,2.7430532462952577
1.1390183855809681,0.8787282115854396,2.56118560129471,3.895268165188625,2.751948007732871
1.1119862433508274,0.9180356545565473,2.529034752238033,3.8726009436171864,2.760795371672252
1.0851631025298403,0.9542713273863228,2.4960333599162254,3.849990432243146,2.7695933071944054
1.0585535465685467,0.9875059892120817,2.4622176208068822,3.8274437903742182,2.7783397833802432
1.0321621589176786,1.0178103991714806,2.427623731386518,3.804968177318031,2.7870327693107093
1.0059935230276835,1.045255316403086,2.3922878881322163,3.7825707523822985,2.795670234066783
0.9800522223492791,1.0699115000438724,2.356246287521344,3.7602586748747058,2.804250146729398
0.9543428403329912,1.0918497092325197,2.319535126030928,3.7380391041028957,2.812770476379516
0.9288699604295019,1.111140703106571,2.282190600137824,3.7159191993745253,2.8212291920980697
0.9036381660893795,1.127855240805161,2.244248906318944,3.6939061199971803,2.8296242629660107
0.878652040763285,1.1420640814645822,2.2057462410518838,3.672007025278731,2.8379536580643325
0.853916167901744,1.1538379842239692,2.1667188008128733,3.6502290745266492,2.8462153464739366
0.8294351309554457,1.1632477082206378,2.1272027820797916,3.6285794270487486,2.8544072972758165
0.8052135133749374,1.1703640125922448,2.0872343813290968,3.607065242152615,2.8625274795508844
0.7812558986108797,1.17525765647747,2.0468497950383835,3.585693679145905,2.870573862380102
0.7575668701138198,1.1779993990135154,2.0060852196838823,3.5644718973363325,2.878544414844402
0.7341510113344043,1.1786599993389473,1.9649768517434723,3.543407056031583,2.8864371060248075
0.7110129057232228,1.1773102165910814,1.9235608876936112,3.5225063145392284,2.894249905002198
0.688157136730922,1.1740208099093934,1.881873524011894,3.501776832167039,2.9019807808575315
0.6655882878081059,1.1688625384299485,1.839950957175347,3.4812257682225862,2.9096277026717985
0.6433109424053924,1.161906161290517,1.7978293836599732,3.4608602820136696,2.917188639525939
0.6213296839733005,1.1532224376305749,1.7555449999440498,3.440687532847889,2.9246615605008763
0.5996490959624765,1.142882126586528,1.7131340025042618,3.4207146800327735,2.9320444346775645
0.578273761823624,1.130955987297284,1.6706325878174084,3.40094888287625,2.939335231136969
0.5572082650072332,1.117514778901068,1.6280769523606295,3.381397300685805,2.946531918960069
0.5364571889639791,1.1026292605347408,1.5855032926112926,3.362067092769138,2.9536324672277665
0.516025117144423,1.0863701913372097,1.5429478050463104,3.3429654184339626,2.9606348450210263
0.49591663299925415,1.0688083304453357,1.5004466861422543,3.32409943698795,2.9675370214208137
0.4761363199790054,1.050014436998481,1.4580361323764919,3.3054763077386866,2.9743369655080727
0.45668876153429494,1.0300592701330515,1.4157523402265042,3.2871031899939425,2.9810326463637367
0.4375785411157693,1.0090135889875,1.3736315061685218,3.268987243061389,2.9876220330687957
0.41881024217396146,0.9869481527007338,1.3317098266804805,3.2511356262485833,2.9941030947041867
0.40038844815957475,0.9639337204096137,1.2900234982384973,3.2335554988631543,3.000473800350832
0.3823177425231421,0.9400410512519102,1.2486087173202804,3.2162540202130003,3.0067321190896976
0.36460270871528166,0.9153409043676675,1.207501680402629,3.1992383496056362,3.0128760200017624
0.34724793018669686,0.8899040388912454,1.1667385839629105,3.182515646348733,3.018903472167942
0.33025799038789216,0.8638012139633702,1.1263556244776964,3.1660930697499765,3.0248124446692017
0.31363747276951415,0.8371031887199933,1.0863889984243542,3.149977779117023,3.0306009065865
0.29739096078215255,0.809880722301159,1.0468749022797965,3.134176933757587,3.0362668270007873
0.2815230378763829,0.7822045738430461,1.007849532521277,3.118697692979296,3.041808174993008
0.26603828750288017,0.7541455024847892,0.9693490856257085,3.1035472160897655,3.047222919644085
0.25094129311229096,0.7257742673627945,0.9314097580696625,3.0887326623967652,3.052509030035033
0.23623663815510554,0.6971616276171062,0.8940677463307338,3.0742611912078814,3.057664475246753
0.2219289060820273,0.6683783423834484,0.8573592468862898,3.060139961830899,3.0626872243601895
0.2080226803436176,0.6394951708018652,0.8213204562125611,3.046376133573318,3.067575246456336
0.19452254439049455,0.6105828720083082,0.7859875707872561,3.0329768657429383,3.0723265106161435
0.18143308167321948,0.5817122051421393,0.7513967870870601,3.019949317647388,3.0769389859205205
0.16875887564251002,0.5529539293409016,0.7175843015891132,3.0073006485943097,3.081410641450425
0.15650450974887065,0.5243788037419108,0.684586310770328,2.995038017891403,3.085739446286844
0.14467456744297635,0.49605758748498374,0.6524390111081857,2.9831685848463394,3.0899233695107
0.13327363217540267,0.4680610397047076,0.6211785990793715,2.9716995087667186,3.093960380202944
0.12230628739678195,0.440459919542036,0.590841271160798,2.9606379489603114,3.097848447444555
0.11177711655770395,0.41332498613382995,0.5614632238298327,2.9499910647347463,3.1015855403164565
0.1016907031087868,0.38672699861717774,0.5330806535637294,2.9397660153976233,3.1051696278996204
0.09205163050060605,0.3607367161314414,0.5057297568390595,2.929969960256699,3.108598679274955
0.08286448218380826,0.3354248978132546,0.47944673013296324,2.920610058619644,3.1118706635234616
0.07413384160899739,0.31086230280175187,0.45426776992258056,2.911693469794102,3.1149835497260696
0.06586429222679158,0.287119690234249,0.4302290726851652,2.9032273530876864,3.117935306963723
0.05806041748778057,0.264267819248289,0.40736683489660663,2.8952188678080972,3.120723904317394
0.05072680084253989,0.24237744898277924,0.3857172530359776,2.887675173263034,3.123347310868013
0.04386802574173032,0.221519338574808,0.3653165235789402,2.880603428760196,3.1258034956965517
0.03748867563598424,0.20176424716260044,0.3462008430027481,2.8740107936071126,3.128090427883926
0.031593333975806104,0.18318293388438178,0.32840640778442776,2.867904427111597,3.130206076511115
0.026186584211885133,0.16584615787724033,0.3119694144012328,2.8622914885812634,3.1321484106590916
0.02127300979482527,0.1498246782800834,0.29692605933030336,2.8571791373238113,3.133915399408764
0.01685719417523046,0.13518925423113615,0.28331253904832465,2.8525745326467984,3.135505011841083
0.012943720803718861,0.12201064486544055,0.27116505003232305,2.8484848338579525,3.1369152170370214
0.009537173130865995,0.11035960932576927,0.26051978875989334,2.8449172002650585,3.1381439840775442
0.006642134607304229,0.1003069067458,0.2514129517079482,2.8418787911755885,3.139189282043567
0.004263188683609087,0.09192329626489482,0.2438807353530592,2.839376765897356,3.1400490800160767
0.002404918810427148,0.08527953702127888,0.23795933617225273,2.837418283737975,3.1407213470759885
0.001071908438333935,0.08044638815295002,0.23368495064335093,2.8360105040051167,3.141204052304289
0.00026874101797602634,0.07749460879699654,0.23109377524247066,2.8351605860064524,3.1414951647818796
-1.4210854715202004e-14,0.07649495809209839,0.23022200644743407,2.8348756890496247,3.141592653589761
