oscarkremer/mentor-optimization/notebooks/traject_1/non_adaptive/angles_18.csv
theta1,theta2,theta3,theta4,theta5
3.1415926535,-0.9030865823619687,2.1246196420553805,1.9200595938963783,8.979318433952318e-11
3.1411304924632866,-0.9031161335757226,2.123754847371397,1.9200537490147565,-0.0001233299942624513
3.139755069608066,-0.9032043706175437,2.121211219773096,1.9200363614525693,-0.00049178921207684
3.1374829753167157,-0.9033506685882708,2.11706489394095,1.9200076518338332,-0.0011030810121212262
3.134330799971614,-0.9035544025887432,2.111392004555435,1.9199678407825649,-0.0019549088428668536
3.13031513395514,-0.9038149477197994,2.104268686297024,1.919917148922781,-0.0030449761527849674
3.125452567649671,-0.9041316790822789,2.0957710738461905,1.9198557968784988,-0.004370986390346811
3.119759691437586,-0.9045039717770202,2.0859753018834093,1.9197840052737343,-0.005930643004023627
3.1132530957012627,-0.9049312009048627,2.074957505089153,1.9197019947325045,-0.007721649442286663
3.1059493708230796,-0.905412741566645,2.0627938181438967,1.9196099858788258,-0.009741709153607165
3.0978651071854153,-0.9059479688632063,2.0495603757281144,1.9195081993367156,-0.01198852558645637
3.0890168951706474,-0.9065362578953856,2.0353333125222797,1.91939685573019,-0.014459802189305523
3.0794213251611544,-0.9071769837640218,2.0201887632068662,1.9192761756832657,-0.017153242410625876
3.069094987539315,-0.9078695215699537,2.004202862462348,1.9191463798199595,-0.020066549698888672
3.0580544726875067,-0.9086132464140206,1.9874517449691993,1.9190076887642884,-0.02319742750256514
3.0463163709881083,-0.9094075333970613,1.9700115454078937,1.9188603231402688,-0.026543579270126544
3.0338972728234985,-0.9102517576199147,1.9519583984589053,1.9187045035719177,-0.03010270845004412
3.0208137685760543,-0.91114529418342,1.9333684388027081,1.9185404506832513,-0.033872518490789115
3.007082448628155,-0.912087518188416,1.9143178011197761,1.9183683850982869,-0.037850712840832766
2.9927199033621785,-0.9130778047357418,1.8948826200905826,1.9181885274410406,-0.04203499494864632
2.977742723160503,-0.9141155289262362,1.8751390303956024,1.9180010983355296,-0.04642306826270103
2.962167498405507,-0.9152000658607383,1.8551631667153088,1.9178063184057703,-0.05101263623146813
2.946010819479569,-0.9163307906400872,1.835031163730176,1.9176044082757795,-0.05580140230341885
2.9292892767650667,-0.9175070783651215,1.8148191561206777,1.9173955885695741,-0.06078706992702447
2.912019460644378,-0.9187283041366805,1.794603278567288,1.9171800799111702,-0.06596734255075623
2.894217961499882,-0.9199938430556031,1.7744596657504812,1.9169581029245852,-0.07133992362308533
2.875901369713957,-0.9213030702227282,1.7544644523507307,1.9167298782338358,-0.07690251659248308
2.8570862756689808,-0.9226553607388949,1.7346937730485104,1.916495626462938,-0.08265282490742065
2.8377892697473324,-0.924050089704942,1.7152237625242943,1.916255568235909,-0.08858855201636932
2.8180269423313886,-0.9254866322217086,1.6961305554585568,1.9160099241767656,-0.09470740136780037
2.797815883803529,-0.9269643633900337,1.6774902865317711,1.9157589149095242,-0.101007076410185
2.7771726845461315,-0.9284826583107563,1.6593790904244117,1.9155027610582016,-0.10748528059199447
2.756113934941574,-0.9300408920847151,1.6418731018169526,1.9152416832468147,-0.11413971736169999
2.7346562253722353,-0.9316384398127494,1.625048455389867,1.91497590209938,-0.12096809016777287
2.712816146220493,-0.9332746765956981,1.6089812858236294,1.9147056382399141,-0.12796810245868429
2.690610287868726,-0.9349489775344001,1.5937477277987135,1.914431112292434,-0.13513745768290555
2.6680552406993128,-0.9366607177296943,1.5794239159955938,1.9141525448809562,-0.14247385928890788
2.6451675950946307,-0.93840927228242,1.5660859850947433,1.9138701566294976,-0.14997501072516248
2.621963941437059,-0.9401940162934158,1.5538100697766364,1.9135841681620749,-0.1576386154401406
2.598460870108975,-0.9420143248635208,1.542672304721747,1.9132948001027044,-0.16546237688231358
2.5746749714927573,-0.9438695730935741,1.5327488246105492,1.9130022730754028,-0.17344399850015252
2.5506228359707848,-0.9457591360844145,1.524115764123517,1.9127068077041876,-0.18158118374212873
2.526321053925435,-0.9476823889368812,1.5168492579411237,1.9124086246130747,-0.18987163605671353
2.5017862157390858,-0.9496387067518128,1.5110254407438437,1.9121079444260813,-0.19831305889237807
2.4770349117941164,-0.9516274646300487,1.506720447212151,1.9118049877672236,-0.2069031556975936
2.452083732472905,-0.9536480376724277,1.504010412026519,1.9114999752605188,-0.21563962992083144
2.4269492681578293,-0.9556998009797887,1.5029714698674224,1.9111931275299834,-0.22452018501056267
2.4016481092312683,-0.9577821296529707,1.5036797554153345,1.9108846651996338,-0.23354252441525877
2.3761968460755996,-0.9598943987928127,1.5062114033507297,1.9105748088934873,-0.2427043515833908
2.3506120690732017,-0.9620359835001537,1.5106425483540815,1.9102637792355603,-0.25200336996343004
2.3249103686064525,-0.9642062588758328,1.5170493251058639,1.9099517968498696,-0.2614372830038477
2.2991083350577313,-0.9664046000206887,1.5255078682865515,1.9096390823604317,-0.27100379415311526
2.2732225588094153,-0.9686303820355605,1.5360943125766169,1.9093258563912634,-0.28070060685970366
2.247269630243883,-0.9708829800212873,1.5488847926565357,1.9090123395663814,-0.2905254245720843
2.221266139743513,-0.9731617690787079,1.5639554432067801,1.9086987525098025,-0.3004759507387284
2.1952286776906833,-0.9754661243086613,1.5813823989078255,1.9083853158455433,-0.3105498888081071
2.169173834467772,-0.9777954208119866,1.599924883856566,1.9080722501976204,-0.32074494222869177
2.143118200457158,-0.9801490336895226,1.618259007640248,1.9077597761900509,-0.33105881444895374
2.117078366041219,-0.9825263380421084,1.6363855230353674,1.907448114446851,-0.34148920891736406
2.0910709216023333,-0.9849267089705829,1.6543051828184203,1.9071374855920378,-0.35203382908239406
2.065112457522879,-0.987349521575785,1.6720187397659014,1.9068281102496278,-0.36269037839251494
2.0392195641852355,-0.9897941509585539,1.6895269466543066,1.9065202090436377,-0.373456560296198
2.0134088319717804,-0.9922599722197286,1.7068305562601305,1.9062140025980843,-0.3843300782419146
1.9876968512648912,-0.9947463604601479,1.7239303213598693,1.905909711536984,-0.3953086356781357
1.9621002124469467,-0.9972526907806508,1.7408269947300172,1.905607556484354,-0.4063899360533327
1.9366355059003255,-0.9997783382820762,1.7575213291470713,1.905307758064211,-0.4175716828159769
1.911319322007405,-1.0023226780652634,1.774014077387525,1.9050105369005712,-0.4288515794145394
1.8861682511505646,-1.004885085231051,1.7903059922278755,1.9047161136174517,-0.44022732929749164
1.8611988837121825,-1.007464934880278,1.806397826444616,1.904424708838869,-0.45169663591330467
1.8364278100746354,-1.0100616021137836,1.8222903328142435,1.90413654318884,-0.4632572027104498
1.811871620620303,-1.0126744620324066,1.8379842641132527,1.9038518372913809,-0.4749067331373983
1.7875469057315634,-1.015302889736986,1.8534803731181393,1.903570811770509,-0.4866429306426214
1.7634702557907944,-1.0179462603283609,1.8687794126053985,1.903293687250241,-0.4984634986745906
1.7396582611803744,-1.0206039489073702,1.8838821353515252,1.9030206843545932,-0.5103661406817768
1.7161275122826822,-1.0232753305748528,1.8987892941330156,1.9027520237075826,-0.5223485601126511
1.6928945994800961,-1.025959780431648,1.9135016417263637,1.9024879259332257,-0.5344084604156849
1.6699761131549935,-1.0286566735785942,1.9280199309080668,1.9022286116555394,-0.5465435450393498
1.6473886436897527,-1.031365385116531,1.9423449144546183,1.9019743014985402,-0.5587515174321166
1.6251487814667531,-1.034085290146297,1.956477345142515,1.901725216086245,-0.571030081042457
1.6032731168683718,-1.036815763768731,1.970417975748251,1.9014815760426702,-0.5833769393188416
1.5817782402769869,-1.0395561810846723,1.9841675590483225,1.901243601991833,-0.5957897957097422
1.560680742074978,-1.04230591719496,1.9977268478192245,1.9010115145577495,-0.6082663536636297
1.5399972126447228,-1.0450643472004328,2.011096594837453,1.9007855343644373,-0.6208043166289756
1.5197442423685992,-1.0478308462019297,2.0242775528795023,1.9005658820359121,-0.6334013880542512
1.4999384216289857,-1.0506047893002894,2.037270474721868,1.900352778196191,-0.6460552713879273
1.4805963408082605,-1.0533855515963517,2.0500761131410457,1.900146443469291,-0.6587636700784755
1.4617345902888006,-1.0561725081909548,2.0626952209135307,1.8999470984792284,-0.671524287574367
1.4433697604529876,-1.0589650341849381,2.075128550815819,1.8997549638500202,-0.6843348273240731
1.4255184416831963,-1.0617625046791406,2.0873768556244046,1.8995702602056828,-0.6971929927760647
1.4081972243618073,-1.0645642947744007,2.099440888115784,1.8993932081702327,-0.7100964873788136
1.3914226988711973,-1.067369779571558,2.111321401066452,1.8992240283676876,-0.7230430145807905
1.3752114555937447,-1.070178334171451,2.1230191472529034,1.8990629414220632,-0.7360302778304668
1.3595800849118298,-1.0729893336749192,2.134534879451634,1.8989101679573765,-0.749055980576314
1.3445451772078276,-1.0758021531828013,2.14586935043914,1.8987659285976444,-0.7621178262668031
1.3301233228641194,-1.0786161677959363,2.157023312991916,1.8986304439668835,-0.7752135183504059
1.3163311122630827,-1.081430752615163,2.1679975198864567,1.8985039346891106,-0.788340760275593
1.303185135787094,-1.0842452827413207,2.178792723899259,1.898386621388342,-0.8014972554908355
1.2907019838185327,-1.087059133275248,2.1894096778068164,1.8982787246885948,-0.814680707444605
1.2788982467397774,-1.089871679317784,2.199849134385626,1.8981804652138856,-0.8278888195853729
1.2677905149332065,-1.092682295969768,2.210111846412182,1.898092063588231,-0.84111929536161
1.2573953787811973,-1.0954903583320386,2.2201985666629804,1.8980137404356479,-0.8543698382217878
1.2477294286661293,-1.098295241505435,2.2301100479145157,1.897945716380153,-0.8676381516143776
1.2388092549703793,-1.101096320590796,2.2398470429432837,1.8978882120457627,-0.8809219389878507
1.230651448076327,-1.1038929706889609,2.2494103045257803,1.897841448056494,-0.894218903790678
1.22327259836635,-1.106684566900768,2.2588005854384994,1.8978056450363636,-0.907526749471331
1.216689296222826,-1.109470484327057,2.268018638457938,1.897781023609388,-0.920843179478281
1.210918132028135,-1.1122500980686665,2.2770652163605907,1.897767804399584,-0.9341658972599992
1.205975696164653,-1.1150227832264357,2.2859410719229527,1.8977662080309683,-0.9474926062649565
1.2018785790147608,-1.117787914901203,2.29464695792152,1.8977764551275578,-0.960821009941625
1.1986433709608337,-1.1205448681938084,2.3031836271327863,1.8977987663133689,-0.9741488117384749
1.1962866623852535,-1.12329301820509,2.311551832333249,1.8978333622124184,-0.9874737151039779
1.1948250436703947,-1.126031740035887,2.319752326299403,1.897880463448723,-1.0007934234866054
1.1942751051986367,-1.1287604087870384,2.3277858618077416,1.8979402906462994,-1.0141056403348285
1.1946534373523598,-1.1314783995593831,2.335653191634763,1.8980130644291646,-1.027408069097119
1.1959766305139414,-1.1341850874537605,2.34335506855696,1.898099005421335,-1.0406984132219468
1.1982612750657582,-1.1368798475710091,2.35089224535083,1.898198334246827,-1.0539743761577842
1.2015239613901896,-1.139562055011968,2.358265474792868,1.898311271529658,-1.0672336613531024
1.2052287918781845,-1.1422310848774762,2.3654755096595683,1.8984380378938441,-1.0804739722563723
1.208845733450048,-1.144886312268373,2.3725231027274267,1.8985788539634025,-1.093693012316065
1.2123751960828675,-1.1475271122854966,2.3794090067729385,1.8987339403623495,-1.1068884849806524
1.215817589753731,-1.1501528600296869,2.386133974572599,1.898903517714702,-1.120058093698605
1.219173324439726,-1.1527629306017821,2.3926987589029043,1.8990878066444767,-1.133199541918395
1.2224428101179405,-1.1553566991026214,2.399104112540349,1.8992870277756904,-1.1463105330884926
1.2256264567654618,-1.1579335406330442,2.4053507882614285,1.8995014017323595,-1.1593887706573702
1.228724674359377,-1.160492830293889,2.411439538842638,1.899731149138501,-1.1724319580734974
1.2317378728767743,-1.1630339431859948,2.4173711170604735,1.8999764906181313,-1.185437798785347
1.2346664622947405,-1.165556254410201,2.42314627569143,1.9002376467952675,-1.1984039962413895
1.2375108525903642,-1.168059139067346,2.4287657675120022,1.900514838293926,-1.2113282538900965
1.2402714537407322,-1.1705419722582688,2.4342303452986864,1.9008082857381237,-1.2242082751799384
1.2429486757229322,-1.1730041290838091,2.4395407618279776,1.901118209751877,-1.2370417635593873
1.2455429285140516,-1.1754449846448052,2.4446977698763717,1.901444830959203,-1.2498264224769147
1.2480546220911783,-1.1778639140420961,2.449702122220362,1.901788369984118,-1.2625599553809903
1.2504841664313995,-1.180260292376521,2.4545545716364456,1.902149047450639,-1.2752400657200873
1.2528319715118033,-1.1826334947489188,2.4592558709011185,1.9025270839827826,-1.2878644569426756
1.255098447309476,-1.184982896260129,2.463806772790874,1.9029227002045654,-1.3004308324972276
1.2572840038015067,-1.1873078720109895,2.4682080300822093,1.9033361167400045,-1.3129368958322134
1.2593890509649823,-1.1896077971023402,2.472460395551618,1.9037675542131163,-1.3253803503961044
1.26141399877699,-1.1918820466350193,2.476564621975597,1.9042172332479175,-1.3377588996373726
1.2633592572146177,-1.1941299957098666,2.480521462130641,1.9046853744684247,-1.3500702470044883
1.265225236254953,-1.1963510194277203,2.484331668793245,1.9051721984986547,-1.3623120959459234
1.267012345875083,-1.1985444928894198,2.4879959947399053,1.9056779259626244,-1.374482149910149
1.268720996052096,-1.2007097911958045,2.4915151927471157,1.9062027774843502,-1.386578112345636
1.2703515967630785,-1.2028462894477123,2.4948900155913725,1.906746973687849,-1.3985976867008563
1.2719045579851196,-1.204953362745983,2.498121216049172,1.9073107351971375,-1.410538576424281
1.2733802896953055,-1.2070303861914553,2.501209546897008,1.9078942826362324,-1.4223984849643807
1.2747792018707238,-1.2090767348849683,2.504155760911377,1.9084978366291503,-1.4341751157696279
1.2761017044884626,-1.2110917839273607,2.5069606108687723,1.9091216177999077,-1.445866172288492
1.2773482075256095,-1.2130749084194719,2.5096248495456916,1.909765846772522,-1.4574693579694458
1.2785191209592515,-1.2150254834621408,2.51214922971863,1.9104307441710093,-1.4689823762609595
1.2796148547664767,-1.216942884156206,2.514534504164082,1.9111165306193865,-1.4804029306115047
1.2806358189243727,-1.2188264856025068,2.5167814256585417,1.91182342674167,-1.4917287244695534
1.2815824234100262,-1.2206756629018818,2.5188907469785065,1.9125516531618771,-1.5029574612835759
1.2824550782005255,-1.2224897911551704,2.520863220900471,1.9133014305040241,-1.5140868445020443
1.283254193272958,-1.2242682454632114,2.5226996002009305,1.9140729793921278,-1.525114577573429
1.2839801786044112,-1.226010400926844,2.524400637656381,1.914866520450205,-1.5360383639462014
1.2846334441719724,-1.227715632646907,2.5259670860433174,1.9156822743022721,-1.5468559070688335
1.2852143999527297,-1.229383315724239,2.5273996981382343,1.9165204615723461,-1.5575649103897955
1.28572345592377,-1.2310128252596793,2.528699226717628,1.9173813028844435,-1.5681630773575588
1.2861610220621815,-1.2326035363540673,2.5298664245579934,1.9182650188625812,-1.5786481114205955
1.286527508345051,-1.2341548241082412,2.530902044435827,1.9191718301307759,-1.5890177160273764
1.2868233247494671,-1.2356660636230408,2.531806839127621,1.9201019573130438,-1.5992695946263722
1.2870488812525167,-1.2371366299993043,2.532581561409874,1.9210556210334024,-1.6094014506660546
1.2872045878312868,-1.2385658983378711,2.5332269640590805,1.922033041915868,-1.6194109875948948
1.287290854462866,-1.23995324373958,2.5337437998517354,1.9230344405844573,-1.6292959088613639
1.2873080911243409,-1.24129804130527,2.534132821564333,1.9240600376631871,-1.6390539179139338
1.2872567077927999,-1.2425996661357803,2.534394781973371,1.925110053776074,-1.6486827182010753
1.2871371144453303,-1.2438574933319497,2.534530433855344,1.9261847095471345,-1.6581800131712596
1.2869497210590193,-1.245070897994617,2.5345405299867463,1.9272842256003857,-1.667543506272958
1.2866949376109547,-1.2462392552246215,2.5344258231440735,1.9284088225598441,-1.6767709009546412
1.2863731740782243,-1.247361940122802,2.5341870661038213,1.9295587210495264,-1.6858599006647812
1.2859848404379146,-1.248438327789997,2.5338250116424854,1.9307341416934496,-1.6948082088518488
1.2855303466671146,-1.249467793327047,2.5333404125365604,1.9319353051156298,-1.7036135289643155
1.2850101027429104,-1.2504497118347893,2.532734021562542,1.9331624319400842,-1.7122735644506526
1.2844245186423908,-1.2513834584140637,2.532006591496925,1.9344157427908295,-1.7207860187593318
1.283774004342643,-1.252268408165709,2.5311588751162066,1.9356954582918822,-1.7291485953388235
1.2830589698207544,-1.253103936190564,2.5301916251968803,1.937001799067259,-1.7373589976375983
1.282279825053812,-1.2538894175894681,2.529105594515441,1.9383349857409768,-1.745414929104129
1.2814369800189043,-1.25462422746326,2.5279015358483865,1.9396952389370519,-1.7533140931868862
1.280530844693118,-1.2553077409127784,2.5265802019722097,1.9410827792795016,-1.761054193334341
1.279561829053542,-1.2559393330388633,2.525142345663406,1.9424978273923421,-1.7686329329949646
1.278530343077262,-1.2565183789423522,2.523588719698473,1.9439406038995903,-1.7760480156172282
1.277436796741367,-1.2570442537240853,2.5219200768539047,1.945411329425263,-1.783297144649604
1.276281600022944,-1.2575163324849008,2.520137169906195,1.9469102245933767,-1.7903780235405615
1.27506516289908,-1.257933990325638,2.5182407516318417,1.9484375100279483,-1.7972883557385742
1.273787895346864,-1.2582966023471363,2.5162315748073403,1.9499934063529942,-1.8040258446921107
1.2724502073433823,-1.2586035436502336,2.514110392209184,1.9515781341925316,-1.8105881938496449
1.271052508865722,-1.2588541893357699,2.5118779566138683,1.9531919141705765,-1.816973106659646
1.2695952098909724,-1.2590479145045836,2.509535020797889,1.9548349669111464,-1.8231782865705877
1.2680787203962203,-1.259184094257514,2.5070823375377422,1.9565075130382572,-1.8292014370309375
1.2665034503585524,-1.2592621036954,2.5045206596099234,1.9582097731759263,-1.83504026148917
1.2648698097550573,-1.2592813179190803,2.5018507397909273,1.9599419679481702,-1.8406924633937547
1.263178208562822,-1.2592411120293943,2.4990733308572484,1.9617043179790052,-1.8461557461931637
1.2614290567589341,-1.2591408611271806,2.4961891855853837,1.9634970438924486,-1.8514278133358668
1.2596227643204814,-1.2589799403132782,2.4931990567518265,1.965320366312517,-1.8565063682703373
1.2577597412245511,-1.258757724688527,2.490103697133074,1.9671745058632266,-1.861389114445044
1.2558403974482308,-1.2584735893537644,2.486903859505621,1.9690596831685945,-1.8660737553084612
1.2538651429686092,-1.2581269094098304,2.4836002966459643,1.9709761188526373,-1.8705579943090584
1.2518343877627718,-1.2577170599575633,2.480193761330595,1.972924033539372,-1.8748395348953055
1.2497485418078078,-1.2572434160978032,2.4766850063360124,1.9749036478528148,-1.878916080515677
1.2476080150808033,-1.2567053529313883,2.4730747844387113,1.9769151824169828,-1.8827853346186414
1.2454132175588473,-1.256102245559157,2.4693638484151856,1.9789588578558925,-1.8864450006526718
1.2431645592190268,-1.2554334690819493,2.465552951041931,1.9810348947935608,-1.8898927820662368
1.240862450038429,-1.254698398600604,2.4616428450954437,1.9831435138540041,-1.8931263823078113
1.2385072999941418,-1.2538964092159604,2.4576342833522196,1.9852849356612392,-1.8961435048258646
1.2360995190632522,-1.2530268760288559,2.4535280185887514,1.987459380839283,-1.8989418530688673
1.2336395172228487,-1.2520891741401312,2.4493248035815363,1.9896670700121522,-1.9015191304852914
1.2311277044500182,-1.2510826786506248,2.4450253911070696,1.9919082238038632,-1.9038730405236075
1.2285644907218485,-1.250006764661175,2.4406305339418464,1.994183062838433,-1.9060012866322884
1.2259502860154274,-1.248860807272621,2.4361409848623623,1.996491807739878,-1.9079015722598034
1.2232855003078418,-1.2476441815858028,2.431557496645112,1.9988346791322154,-1.9095716008546249
1.2205705435761796,-1.2463562627015585,2.4268808220665905,2.0012118976394615,-1.9110090758652243
1.217805825797528,-1.2449964257207267,2.422111713903295,2.0036236838856327,-1.9122117007400732
1.214991756948975,-1.2435640457441473,2.41725092493172,2.0060702584947467,-1.9131771789276408
1.212128747007608,-1.242058497872659,2.4122992079283594,2.008551842090819,-1.9139032138764
1.2092172059505146,-1.2404791572071001,2.4072573156697095,2.0110686552978674,-1.9143875090348215
1.2062575437547827,-1.2388253988483102,2.4021260009322676,2.0136209187399077,-1.914627767851378
1.203250170397499,-1.2370965978971282,2.396906016492525,2.0162088530409576,-1.914621693774539
1.200195495855751,-1.2352921294543928,2.391598115126982,2.018832678825033,-1.9143669902527756
1.197093930106628,-1.233411368620944,2.386203049612129,2.0214926167161504,-1.9138613607345598
1.1939458831272152,-1.2314536904976192,2.380721572724465,2.0241888873383274,-1.9131025086683628
1.1907517648946009,-1.229418470185259,2.3751544372404823,2.02692171131558,-1.9120881375026562
1.1875119853858735,-1.227305082784701,2.3695023959366797,2.029691309271925,-1.91081595068591
1.18422695457812,-1.2251129033967847,2.3637662015895495,2.0324979018313796,-1.9092836516665974
1.1808970824484288,-1.222841307122349,2.357946606975588,2.03534170961796,-1.9074889438931883
1.1775227789738851,-1.220489669062233,2.3520443648712925,2.038222953255683,-1.9054295308141533
1.1741044541315793,-1.2180573643172763,2.3460602280531555,2.0411418533685652,-1.9031031158779657
1.1706425178985969,-1.2155437679883165,2.339994949297674,2.0440986305806237,-1.900507402533096
1.1671373802520266,-1.2129482551761934,2.333849281381342,2.0470935055158748,-1.897640094228012
1.163589451168955,-1.210270200981746,2.327623977080656,2.0501266987983358,-1.89449889441119
1.1599991406264707,-1.2075089805058135,2.3213197891721107,2.053198431052022,-1.8910815065311004
1.1563668586016596,-1.2046639688492338,2.314937470432202,2.056308922900952,-1.8873856340362112
1.1526930150716117,-1.201734541112847,2.308477773637425,2.059458394969141,-1.8834089803749956
1.1489780200134128,-1.198720072397492,2.301941451564275,2.062647067880607,-1.879149248995927
1.1452222834041503,-1.195619937804007,2.295329256989248,2.065875162259365,-1.874604143347474
1.1414262152209127,-1.192433512433232,2.2886419426888374,2.069142898729434,-1.8697713668781066
1.1375902254407868,-1.189160171386005,2.2818802614395413,2.072450497914828,-1.8646486230362997
1.1337147240408605,-1.1857992897631653,2.2750449660178527,2.075798180439566,-1.8592336152705213
1.129800120998222,-1.1823502426655517,2.2681368092002683,2.0791861669276632,-1.8535240470292447
1.1258468262899575,-1.1788124051940037,2.261156543763282,2.0826146780031376,-1.8475176217609404
1.121855249893155,-1.17518515244936,2.2541049224833904,2.0860839342900044,-1.8412120429140808
1.1178258017849023,-1.17146785953246,2.2469826981370904,2.0895941564122817,-1.834605013937134
1.1137588919422878,-1.1676599015441418,2.239790623500873,2.093145564993985,-1.8276942382785748
1.1096549303423981,-1.1637606535852447,2.2325294513512377,2.0967383806591324,-1.8204774193868731
1.1055143269623193,-1.159769490756608,2.2251999344646767,2.1003728240317394,-1.8129522607104986
1.1013374917791425,-1.1556857881590705,2.2178028256176874,2.104049115735823,-1.8051164656979246
1.0971248347699523,-1.151508920893471,2.210338877586765,2.1077674763954,-1.7969677377976225
1.092876765911837,-1.1472382640606484,2.2028088431484036,2.1115281266344876,-1.788503780458063
1.088593695181884,-1.1428731927614426,2.1952134750791004,2.1153312870771015,-1.7797222971277158
1.084276032557182,-1.1384130820966918,2.1875535261553507,2.119177178347259,-1.7706209912550532
1.0799241880148174,-1.133857307167235,2.179829749153647,2.1230660210689773,-1.7611975662885477
1.0755385715318788,-1.1292052430739108,2.1720428968504866,2.126998035866272,-1.751449725676669
1.071119593085451,-1.1244562649175591,2.164193722022363,2.1309734433631604,-1.7413751728678895
1.066667662652625,-1.1196097477990183,2.156282977445777,2.134992464183659,-1.7309716113106788
1.0621831902104866,-1.114665066819127,2.1483114158972167,2.139055318951785,-1.7202367444535112
1.0576665857361234,-1.109621597078725,2.140279790153182,2.143162228291555,-1.7091682757448536
1.0531182592066235,-1.1044787136786507,2.1321888529901685,2.1473134128269846,-1.6977639086331804
1.0485386205990732,-1.0992357917197437,2.1240393571846687,2.151509093182092,-1.6860213465669611
1.0439280798905624,-1.0938922063028422,2.11583205551318,2.1557494899808933,-1.6739382929946691
1.039287047058176,-1.0884473325287858,2.1075677007521967,2.160034823847405,-1.661512451364774
1.0346159320790034,-1.0829005454984126,2.0992470456782155,2.1643653154056435,-1.6487415251257467
1.029915144930132,-1.0772512203125626,2.0908708430677314,2.1687411852796266,-1.635623217726062
1.0251850955886488,-1.0714987320720744,2.0824398456972375,2.1731626540933706,-1.622155232614185
1.02042619403164,-1.0656424558777873,2.0739548063432296,2.177629942470891,-1.6083352732385903
1.0156388502361962,-1.0596817668305398,2.065416477782208,2.1821432710362063,-1.5941610430477509
1.0108234741794024,-1.053616040031171,2.056825612790663,2.1867028604133325,-1.5796302454901356
1.0059804758383466,-1.0474446505805188,2.048182964145092,2.1913089312262857,-1.5647405840142161
1.0011102651901187,-1.0411669735794244,2.039489284621988,2.1959617040990835,-1.5494897620684638
0.9962132522118028,-1.034782384128725,2.0307453269978484,2.200661399655742,-1.5338754831013492
0.9912898468804883,-1.0282902573292607,2.0219518440491684,2.205408238520278,-1.5178954505613458
0.9863404591732616,-1.0216899682818692,2.0131095885524424,2.2102024413167083,-1.5015473678969231
0.9813654990672132,-1.0149808920873915,2.004219313284166,2.2150442286690497,-1.4848289385565527
0.9763653765394267,-1.0081624038466641,1.9952817710208373,2.219933821201319,-1.4677378659887053
0.9713405015669916,-1.0012338786605284,1.9862977145389458,2.224871439537533,-1.4502718536418513
0.9662912841269962,-0.9941946916298212,1.9772678966149928,2.2298573043017074,-1.4324286049644668
0.9612181341965271,-0.9870442178553822,1.9681930700254702,2.23489163611786,-1.414205823405016
0.9561214617526717,-0.9797818324380518,1.9590739875468737,2.2399746556100064,-1.3956012124119752
0.9510016767725173,-0.972406910478667,1.949911401955701,2.245106583402165,-1.376612475433813
0.9458591892331529,-0.9649188270780673,1.9407060660284436,2.2502876401183514,-1.3572373159190008
0.9406944091116638,-0.9573169573370923,1.9314587325415986,2.255518046382582,-1.3374734373160138
0.9355077463851398,-0.9496006763565803,1.9221701542716643,2.260798022818874,-1.3173185430733199
0.9302996110306672,-0.9417693592373708,1.9128410839951315,2.266127790051245,-1.2967703366393888
0.925070413025334,-0.9338223810803035,1.903472274488498,2.2715075687037096,-1.2758265214626956
0.9198205623462279,-0.925759116986216,1.894064478528259,2.276937579400286,-1.2544848009917065
0.9145504689704347,-0.9175789420559473,1.8846184488909072,2.282418042764991,-1.2327428786748982
0.9092605428750442,-0.9092812313903358,1.875134938352942,2.2879491794218403,-1.2105984579607387
0.9039511940371439,-0.9008653600902226,1.865614699690858,2.2935312099948515,-1.1880492422977014
0.898622832433819,-0.8923307032564454,1.856058485681146,2.299164355108041,-1.1650929351342558
0.8932758680421597,-0.8836766359898438,1.8464670491003092,2.3048488353854255,-1.1417272399188718
0.887910710839251,-0.8749025333912561,1.8368411427248352,2.310584871451021,-1.1179498601000208
0.8825277708021839,-0.8660077705615215,1.827181519331222,2.3163726839288454,-1.0937584991261797
0.8771274579080435,-0.857037225188045,1.8174889316959688,2.3222124934429154,-1.0691508604458164
0.8717101821339166,-0.8481097234784135,1.8077641325955658,2.3281045206172464,-1.0441246475073989
0.8662763534568936,-0.8392252632759677,1.7980078748065091,2.334048986075856,-1.0186775637594003
0.8608263818540594,-0.8303838424240491,1.7882209111052978,2.3400461104427612,-0.9928073126502923
0.8553606773025022,-0.8215854587659933,1.7784039942684218,2.346096114341978,-0.9665115976285499
0.8498796497793104,-0.8128301101451422,1.7685578770723827,2.3521992183975233,-0.9397881221426374
0.84438370926157,-0.8041177944048314,1.75868331229367,2.3583556432334145,-0.91263458964103
0.8388732657263713,-0.7954485093884021,1.7487810527087815,2.364565609473667,-0.885048703572199
0.8333487291507988,-0.7868222529391907,1.7388518510942141,2.3708293377422986,-0.8570281673846143
0.8278105095119415,-0.7782390229005383,1.728896460226459,2.3771470486633257,-0.8285706845267491
0.8222590167868873,-0.7696988171157804,1.718915632882016,2.383518962860765,-0.7996739584470731
0.816694660952723,-0.7612016334282583,1.7089101218373792,2.3899453009586322,-0.7703356925940561
0.8111178519865372,-0.7527474696813106,1.6988806798690397,2.3964262835809462,-0.7405535904161731
0.8055289998654154,-0.744336323718274,1.6888280597534986,2.4029621313517215,-0.7103253553618938
0.799928514566447,-0.7359681933824889,1.6787530142672495,2.409553064894976,-0.6796486908796897
0.794316806066719,-0.7276430765172929,1.6686562961867857,2.4161993048347266,-0.6485213004180288
0.7886942843433187,-0.7193609709660259,1.6585386582886086,2.422901071794989,-0.6169408874253861
0.7830613593733344,-0.7111218745720248,1.6484008533492056,2.4296585863997806,-0.5849051553502296
0.7774184411338529,-0.7029257851786299,1.6382436341450735,2.436472069273118,-0.552411807641036
0.7717659396019618,-0.6947727006291786,1.6280677534527124,2.443341741039018,-0.5194585477462716
0.7661042647547478,-0.6866626187670114,1.617873964048615,2.450267822321497,-0.4860430791144079
0.7604338265693005,-0.6785955374354637,1.607663018709276,2.457250533744572,-0.4521631051939181
0.7547550350227059,-0.6705714544778774,1.5974356702111931,2.4642900959322596,-0.41781632943327374
0.7490683000920533,-0.6625903677375892,1.587192671330857,2.4713867295085756,-0.3830004552809445
0.7433740317544277,-0.6546522750579392,1.5769347748447657,2.4785406550975386,-0.3477131861854019
0.7376726399869189,-0.6467571742822643,1.5666627335294168,2.485752093323164,-0.31195222559511926
0.7319645347666124,-0.638905063253905,1.5563773001613024,2.4930212648094687,-0.27571527695856446
0.7262501260705974,-0.6310959398161978,1.5460792275169193,2.50034839018047,-0.23900004372421257
0.7205298238759603,-0.6233298018124841,1.5357692683727615,2.507733690060183,-0.20180422934052977
0.7148040381597891,-0.6156066470860999,1.5254481755053257,2.5151773850726262,-0.16412553725598933
0.7090731788991729,-0.6079264734803862,1.5151167016911096,2.5226284965097543,-0.1259616709190663
0.7033376560711959,-0.6002892788386787,1.5047755997066012,2.529972770535662,-0.08731033377822683
0.6975978796529487,-0.5926950610043193,1.494425622328305,2.537210939107875,-0.048169229281946
0.6918542596215187,-0.5851438178206448,1.484067522332709,2.544343734183939,-0.008536060878691742
0.686107205953991,-0.577635547130994,1.4737020524963116,2.5513718877214018,0.03159146798306267
0.6803571286274535,-0.5701702467787056,1.4633299655956096,2.5582961316778032,0.07221565385484574
0.6746044376189961,-0.5627479146071188,1.452952014407093,2.5651171980107,0.11333879328818952
0.668849542905706,-0.5553685484595714,1.4425689517072628,2.5718358186776324,0.15496318283461719
0.6630928544646686,-0.5480321461794032,1.432181530272616,2.5784527256361507,0.1970911190456608
0.6573347822729736,-0.5407387056099506,1.421790502879639,2.584968650843795,0.23972489847284706
0.651575736307707,-0.5334882245945548,1.4113966223048333,2.5913843262581198,0.2828668176677098
0.6458161265459577,-0.5262807009765541,1.4010006413246971,2.59770048383666,0.32651917318177404
0.6400563629648102,-0.5191161325992856,1.3906033127157187,2.603917855536979,0.37068426156657
0.6342968555413577,-0.5119945173060895,1.380205389254395,2.6100371733166083,0.4153643793736208
0.6285380142526829,-0.5049158529403028,1.369807623717227,2.6160591691331048,0.4605618231544639
0.6227802490758756,-0.49788013734526654,1.3594107688807036,2.621984574944009,0.5062788894606243
0.6170239699880211,-0.49088736836431696,1.3490155775213228,2.627814122706865,0.5525178748436286
0.6112695869662095,-0.483937543840794,1.3386228024155802,2.6335485443792273,0.5992810758550071
0.6055175099875267,-0.477030661618036,1.328233196339971,2.6391885719186394,0.6465707890462884
0.5997681490290621,-0.4701667195393824,1.3178475120709896,2.6447349372826405,0.6943893109690062
0.5940219140678997,-0.46334571544816966,1.3074665023851333,2.6501883724287874,0.7427389381746785
0.588279215081132,-0.4565676471877391,1.2970909200588947,2.6555496093146234,0.7916219672148443
0.5825404620458423,-0.4498325126014272,1.2867215178687754,2.660819379897691,0.8410406946410252
0.5768060649391202,-0.4431403095325747,1.2763590485912593,2.6659984161355412,0.890997417004753
0.5710764337380532,-0.43649103582451776,1.2660042650028513,2.67108744998572,0.9414944308575599
0.5653519784197272,-0.429884689320598,1.2556579198800426,2.676087213405771,0.9925340327509691
0.5596331089612314,-0.4233212678641506,1.245320765999331,2.6809984383532397,1.0441185192365108
0.5539202353396546,-0.4168007692985172,1.2349935561372094,2.6858218567856795,1.0962501868657188
0.5482137675320806,-0.4103231914670353,1.2246770430701748,2.690558200660634,1.1489313321901093
0.5425141155156004,-0.40388853221304294,1.2143719795747225,2.695208201935647,1.2021642517612268
0.536821689267299,-0.3974967893798793,1.204079118427348,2.6997725925682667,1.2559512421305907
0.5311368987642644,-0.3911479608108843,1.1937992124045467,2.704252104516039,1.3102945998497333
0.5254601539835875,-0.38484204434939406,1.183533014282811,2.708647469736511,1.3651966214701758
0.5197918649023516,-0.37857903783874974,1.1732812768386394,2.712959420187228,1.420659603543461
0.5141324414976474,-0.37235893912228785,1.163044752848526,2.717188687825735,1.4766858426211034
0.5084822937465594,-0.3661817460433488,1.1528241950889653,2.7213360046095856,1.53327763525464
0.5028418316261751,-0.3600474564452699,1.1426203563364572,2.7254021024963215,1.590437277995596
0.4972114651135864,-0.35395606817138936,1.1324339893674917,2.729387713443489,1.6474738655483918
0.4915916041858779,-0.347907579065049,1.122265846958567,2.7332935694086364,1.7033645673757718
0.4859826588201366,-0.34190198696958335,1.1121166818861772,2.737120402349306,1.758119922446724
0.48038503899344986,-0.3359392897283347,1.101987246926817,2.740868944223049,1.8117504697301712
0.47479915468290823,-0.33001948518463897,1.091878294856981,2.74453992698741,1.8642667481950923
0.4692254158655955,-0.32414257118183626,1.081790578453174,2.7481340825999325,1.915679296810282
0.4636642325186018,-0.3183085455632642,1.0717248504918748,2.7516521430181715,1.9659986545447765
0.45811601461901397,-0.3125174061722633,1.0616818637495946,2.7550948401996678,2.015235360367555
0.4525811721439177,-0.30676915085216905,1.0516623710028146,2.758462906101962,2.0633999532474263
0.44706011507040255,-0.30106377744632373,1.0416671250280425,2.7617570726826104,2.1105029721534834
0.44155325337555507,-0.2954012837980637,1.0316968786017684,2.764978071899159,2.1565549560545065
0.4360609970364666,-0.28978166775072806,1.0217523845004868,2.768126635709149,2.2015664439194893
0.4305837560302188,-0.2842049271476555,1.011834395500693,2.771203496070126,2.2455479747174962
0.42512194033390216,-0.27867105983218504,1.0019436643788833,2.7742093849396445,2.2885100874172366
0.41967595992460627,-0.2731800636476545,0.9920809439115512,2.7771450342752395,2.330463320987789
0.4142462247794132,-0.2677319364374039,0.9822469868751966,2.7800111760344706,2.371418214398062
0.40883314487541567,-0.26232667604477,0.9724425460463113,2.7828085421748705,2.4113853066169924
0.40343713018969796,-0.25696428031309243,0.9626683742013906,2.7855378646540014,2.450375136613445
0.3980585906993497,-0.25164474708571205,0.9529252241169335,2.788199875429397,2.488398243356471
0.39269793638145734,-0.2463680742059635,0.9432138485694281,2.7907953064586053,2.5254651658149783
0.3873555772131101,-0.24113425951718717,0.9335350003353753,2.7933248896991785,2.561586442957875
0.3820319231713931,-0.23594330086272178,0.923889432191273,2.79578935710866,2.596772613754055
0.37672738423339336,-0.23079519608590723,0.9142778969136076,2.7981894406445997,2.6310342171725267
0.3714423703762022,-0.22568994303008005,0.9047011472788835,2.8005258722645365,2.6643817921821977
0.3661772915769044,-0.22062753953858147,0.8951599360635898,2.8027993839260255,2.696825877751934
0.36093255781258726,-0.21560798345474574,0.885655016044228,2.8050107075866046,2.7283770128507854
0.3557085790603409,-0.21063127262191725,0.8761871399972856,2.80716057520383,2.759045736447675
0.3505057652972505,-0.20569740488342939,0.8667570606992623,2.8092497187352405,2.788842587511496
0.34532452650040346,-0.2008063780826234,0.8573655309266508,2.8112788701383815,2.8177781050112287
0.34016527264688934,-0.19595819006283796,0.8480133034559554,2.813248761370809,2.8458628279156954
0.3350284137137933,-0.1911528386674117,0.8387011310636607,2.8151601243900624,2.8731072951939183
0.3299143596782055,-0.18639032173968198,0.829429766526264,2.8170136911536865,2.8995220458148907
0.324823520517211,-0.18167063712298875,0.8201999626202703,2.818810193619232,2.9251176187474215
0.3197563062078963,-0.1769937826606716,0.8110124721221625,2.8205503637442426,2.9499045529605468
0.3147131267273542,-0.17235975619606642,0.8018680478084397,2.8222349334862695,2.973893387423132
0.309694392052668,-0.1677685555725155,0.7927674424556015,2.8238646348028533,2.9970946611041995
0.30470051216092653,-0.16322017863335342,0.7837114088401353,2.825440199651542,3.0195189129726003
0.29973189702921754,-0.15871462322192023,0.7747006997385455,2.8269623599898877,3.041176681997243
0.29478895663462623,-0.15425188718155544,0.7657360679273228,2.828431847775427,3.0620785071472483
0.289872100954244,-0.1498319683555986,0.7568182661829637,2.829849394965719,3.0822349273912977
0.28498173996515597,-0.14545486458738566,0.7479480472819642,2.831215733518296,3.1016564816985266
0.28011828364444824,-0.14112057372025796,0.7391261640008127,2.8325315953907113,3.120353709037744
0.27528214196921486,-0.13682909359755238,0.7303533691160116,2.833797712540515,3.138337148377971
0.27047372491653476,-0.1325804220626089,0.7216304154040589,2.8350148169252503,3.1556173386880886
0.26569344246350024,-0.12837455695876482,0.7129580556414385,2.836183640502461,3.1722048189370895
0.26094170458719823,-0.12421149612935836,0.7043370426046618,2.837304915229703,3.188110128093882
0.25621892126471835,-0.12009123741772952,0.6957681290702098,2.8383793730645133,3.2033438051273606
0.2515255024731422,-0.11601377866721825,0.6872520678145833,2.839407745964439,3.217916389006561
0.24686185818956652,-0.1119791177211601,0.6787896116142811,2.8403907658870278,3.231838418700235
0.24222839839107024,-0.10798725242289506,0.6703815132457933,2.8413291647898298,3.2451204331774903
0.23762553305474388,-0.10403818061576178,0.6620285254856153,2.8422236746303877,3.257772971407192
0.23305367215767436,-0.10013190014310068,0.653731401110246,2.8430750273662486,3.2698065723583483
0.2285132256769531,-0.0962684088482473,0.6454908928961771,2.8438839549549577,3.281231774999867
0.22400460358966345,-0.09244770457454166,0.6373077536199094,2.8446511893540656,3.2920591183005286
0.2195282158728915,-0.08866978516532191,0.629182736057933,2.8453774625211246,3.302299141229412
0.21508447250373042,-0.08493464846392759,0.6211165929867448,2.8460635064136603,3.311962382755553
0.2106737834592627,-0.08124229231369917,0.6131100771828404,2.8467100529892413,3.3210593818476895
0.2062965587165797,-0.07759271455797084,0.605163941422715,2.8473178342053984,3.329600677474872
0.2019532082527684,-0.07398591304008392,0.5972789384828641,2.847887582019686,3.3375968086059657
0.1976441420449131,-0.0704218856033766,0.5894558211397829,2.848420028389649,3.3450583142099504
0.19336977007010425,-0.06690063009118888,0.5816953421699687,2.848915905272836,3.3519957332557055
0.18913050230542705,-0.06342214434685717,0.5739982543499096,2.8493759446267894,3.3584196047122816
0.18492674872797377,-0.059986426213721016,0.5663653104561099,2.8498008784090594,3.364340467548601
0.1807589193148269,-0.05659347353511908,0.5587972632650633,2.850191438577193,3.369768860733444
0.1766274240430743,-0.053243284154392216,0.5512948655532561,2.8505483570887336,3.374715323235904
0.17253267288980734,-0.04993585591487465,0.5438588700971962,2.850872365901223,3.379190394024903
0.16847507583211208,-0.04667118665990767,0.5364900296733719,2.8511641969722223,3.3832046120691928
0.16445504284707102,-0.043449274232829065,0.529189097058282,2.8514245822592628,3.386768516337952
0.16047298391178177,-0.040270116476980145,0.5219568250284166,2.8516542537198983,3.389892645799989
0.1565293090033224,-0.037133711235696,0.5147939663602781,2.8518539433116796,3.392587539424312
0.1526244280987843,-0.03404005635231616,0.5077012738303548,2.8520243829921395,3.3948637361797864
0.14875875117525705,-0.03098914967017975,0.5006795002151456,2.852166304718839,3.396731775035306
0.1449326882098232,-0.027980989032627593,0.4937293982911459,2.8522804404493183,3.398202194960021
0.14114664917957498,-0.02501557228299483,0.4868517208348493,2.8523675221411207,3.399285534922541
0.1374010440615967,-0.022092897264620544,0.4800472206227582,2.8524282817517967,3.3999923338921008
0.13369628283297885,-0.019212961820845153,0.47331665043135374,2.85246345123889,3.400333130837481
0.13003277547080483,-0.0163757637950082,0.46666076303715087,2.852473762559951,3.4003184647276044
0.12641093195217046,-0.013581301030444783,0.4600803112166254,2.852459947672525,3.3999588745315634
0.12283116225415203,-0.01082957137049621,0.4535760477462798,2.852422738534159,3.3992648992181387
0.11929387635384447,-0.008120572658499362,0.44714872540261297,2.8523628671024,3.398247077756281
0.11579948422833297,-0.0054543027377955515,0.4407990969621185,2.8522810653347914,3.396915949114998
0.11234839585470446,-0.0028307594517207636,0.4345279152012935,2.8521780651888857,3.395282052263127
0.10894102121005211,-0.00024994064361362825,0.4283359328966281,2.852054598622221,3.3933559261696473
0.10557777027145576,0.002288155843185386,0.4222239028246264,2.8519113975923496,3.3911481098036234
0.10225905301600591,0.004783532165336758,0.41619257776176966,2.851749194056813,3.3886691421337787
0.09898527942079216,0.007236190479506289,0.41024271048456384,2.851568719973164,3.385929562129121
0.09575685946289969,0.00964613294235088,0.40437505376950256,2.851370707298944,3.3829399087587433
0.09257420311941544,0.012013361710534548,0.39859036039308293,2.851155887991702,3.379710720991284
0.08943772036742725,0.01433787894071778,0.39288938313179145,2.85092499400899,3.3762525377959207
0.08634782118402651,0.016619686789559204,0.3872728747621359,2.850678757308337,3.372575898141463
0.08330491554630015,0.018858787413725535,0.38174158806060277,2.850417909847309,3.3686913409969463
0.08030941343132714,0.021055182969874575,0.37629627580369274,2.8501431835834428,3.364609405331322
0.07736172481620329,0.02320887561466943,0.3709376907678994,2.8498553104742896,3.360340630113285
0.07446225967801645,0.025319867504767023,0.36566658572971455,2.8495550224773893,3.355895554312127
0.07161142799384912,0.027388160796835807,0.36048371346563535,2.849243051550289,3.3512847168964583
0.06880963974079446,0.029413757647532686,0.3553898267521607,2.8489201296505478,3.3465186568355136
0.06605730489593409,0.03139666021351902,0.3503856783657806,2.84858698873569,3.341607913097903
0.06335483343636028,0.03333687065145615,0.34547202108299224,2.84824436076328,3.3365630246527758
0.060702635339159094,0.03523439111800809,0.34064960768029806,2.8478929776908615,3.33139453046914
0.05810112058141925,0.03708922376983355,0.33591919093418454,2.8475335714759833,3.326112969515691
0.055550699140225035,0.038901370763594734,0.33128152362114704,2.8471668740761817,3.3207288807614646
0.05305178099266428,0.04067083425595211,0.32673735851768626,2.8467936174490056,3.315252803175497
0.05060477611583014,0.04239761640356792,0.3222874484002958,2.8464145335520072,3.309695275726682
0.048210094486804245,0.0440817193631053,0.31793254604546917,2.8460303543427337,3.3040668373837434
0.04586814608267353,0.04572314529122203,0.3136734042296947,2.8456418117787248,3.2983780271160015
0.04357934088053206,0.04732189634458039,0.3095107757294837,2.845249637817526,3.292639383892123
0.041344088857461436,0.04887797467984433,0.3054454133213209,2.8448545644167,3.2868614466811437
0.039162799990552166,0.05039138245367258,0.3014780697817052,2.844457323533767,3.281054754451816
0.03703588425688853,0.051862121822728244,0.2976094978871302,2.8440586471263014,3.275229846173289
0.03496375163356458,0.053290194943669135,0.293840450414093,2.8436592671518266,3.269397260814543
0.03294681209766104,0.05467560397316104,0.29017168013909256,2.8432599155679075,3.26356753734413
0.030985475626267522,0.05601835106786441,0.28660393983861354,2.8428613243320786,3.2577512147315133
0.029080152196472753,0.057318438384437946,0.2831379822891549,2.8424642254018835,3.251958831945302
0.027231251785362787,0.058575868079543875,0.27977456026721725,2.8420693507348815,3.246200927954419
0.02543918437002901,0.059790642309846216,0.2765144265492978,2.8416774322886074,3.2404880417279287
0.02370435992755393,0.060962763232004565,0.27335833391187947,2.841289202020622,3.234830712234725
0.022027188435027156,0.06209223300267934,0.2703070351314718,2.8409053918884553,3.2292394784438443
0.02040807986953741,0.06317905377853279,0.26736128298455775,2.8405267338496607,3.2237248793239814
0.018847444208168085,0.0642232277162254,0.26452183024764153,2.840153959861789,3.2182974538441727
0.017345691428013232,0.06522475697242028,0.26178942969720964,2.8397878018823803,3.2129677409736246
0.015903231506152693,0.06618364370377788,0.25916483410976987,2.8394289918689797,3.2077462796806344
0.014520474419681406,0.0670998900669596,0.25664879626181225,2.8390782617791395,3.2026436089348636
0.013197830145683653,0.06797349821862497,0.25424206892982326,2.8387363435704085,3.1976702677048365
0.011935708661249045,0.06880447031543799,0.2519454048903125,2.8384039692003267,3.1928367949596463
0.010734519943459198,0.06959280851406004,0.24975955691976637,2.8380818706264446,3.1881537296680165
0.009594673969407275,0.07033851497115157,0.24768527779468563,2.837770779806309,3.1836316107991536
0.008516580716177558,0.07104159184337128,0.24572332029155675,2.837471428697457,3.1792809773218096
0.007500650160860545,0.07170204128738582,0.24387443718688395,2.837184549257449,3.17511236820485
0.00654729228054407,0.07231986545985301,0.24213938125715728,2.8369108734438306,3.1711363224175386
0.005656917052308863,0.07289506651743509,0.24051890527887387,2.836651133214131,3.167363378928485
0.004829934453254303,0.07342764661679074,0.23901376202853797,2.8364060605259116,3.1638040767068674
0.0040667544604566785,0.07391760791458662,0.23762470428262716,2.836176387336721,3.1604689547213525
0.0033677870510100405,0.07436495256748146,0.23635248481764393,2.8359628456040955,3.1573685519411185
0.0027334422019986704,0.0747696827321357,0.2351978564100925,2.8357661672855876,3.154513407335088
0.0021641298905112905,0.07513180056521067,0.23416157183645936,2.8355870843387407,3.151914059871899
0.0016602600936401757,0.0754513082233704,0.2332443838732381,2.8354263287211054,3.1495810485209006
0.0012222427884633902,0.07572820786327356,0.23244704529693294,2.835284632390225,3.147524912250674
0.0008504879520749853,0.07596250164158244,0.23177030888403216,2.835162727303649,3.1457561900303403
0.0005454055615619069,0.07615419171495566,0.2312149274110311,2.835061345418925,3.1442854208288793
0.00030740559400577183,0.07630328024005992,0.2307816536544287,2.834981218693592,3.14312314361527
0.0001368980265024078,0.07640976937355393,0.2304712403907203,2.834923079085197,3.142279897358179
3.429283614053702e-05,0.07647366127209901,0.23028444039639595,2.8348876585513043,3.141766221026586
-5.329070518200751e-15,0.07649495809235651,0.23022200644795632,2.834875689049433,3.1415926535897256
