oscarkremer/mentor-optimization/notebooks/traject_1/non_adaptive/angles_0.csv
theta1,theta2,theta3,theta4,theta5
3.1415926535,-0.9030865823619687,2.1246196420553805,1.9200595938963783,8.979318433952318e-11
3.1375527186872456,-0.903285889188259,2.124439626516425,1.9200976979239712,-0.0002486940028392306
3.125809384233827,-0.9038815595552591,2.1239014318693172,1.920234231791576,-0.0009899234952230418
3.1069273551170085,-0.9048702182951632,2.123007836068694,1.9205025281764316,-0.002216409209088135
3.081471336314057,-0.9062484902401653,2.121761617069192,1.9209359197557778,-0.003920871966164397
3.0500060328022376,-0.9080130002224593,2.120165552825448,1.9215677392068533,-0.006096032588181713
3.0130961495588156,-0.9101603730742395,2.1182224212921,1.9224313192068976,-0.008734611896869972
2.971306391561057,-0.9126872336276995,2.115935000423784,1.9235599924331492,-0.011829330713959056
2.9252014637862276,-0.9155902067150338,2.113306068175138,1.9249870915628482,-0.015372909861178854
2.875346071211592,-0.9188659171684361,2.1103384025007976,1.926745949273233,-0.019358070160259252
2.8223049188144174,-0.9225109898201008,2.1070347813554005,1.9288698982415433,-0.023777532432930133
2.766642711571968,-0.9265220495022216,2.103397982693584,1.931392271145018,-0.028624017500921382
2.7089241544615104,-0.9308957210469926,2.0994307844699844,1.9343464006608964,-0.033890246185962904
2.6497139524603095,-0.935628629286608,2.095135964639239,1.9377656194664175,-0.03956893930978456
2.589576810545631,-0.9407173990532615,2.090516301155985,1.9416832602388205,-0.04565281769411625
2.529077433694741,-0.9461586551791474,2.085574571974859,1.9461326556553449,-0.05213460216068784
2.468780526884905,-0.9519490224964597,2.0803135550504983,1.9511471383932295,-0.05900701353122926
2.409250795093388,-0.9580851258373925,2.0747360283375396,1.9567600411297137,-0.06626277262747036
2.3510529432974563,-0.9645635900341396,2.0688447697906196,1.9630046965420365,-0.07389460027114103
2.294751676474375,-0.9713810399188952,2.0626425573643763,1.969914437307437,-0.08189521728397117
2.2409116996014102,-0.9785341003238532,2.0561321690134458,1.9775225961031548,-0.09025734448769063
2.1900977176558274,-0.9860193960812079,2.0493163826924654,1.9858625056064287,-0.09897370270402935
2.1428744356148917,-0.9938335520231532,2.042197976356072,1.9949674984944983,-0.10803701275471718
2.099806558455869,-1.001973192981883,2.0347797279589024,2.004870907444602,-0.11743999546148404
2.061458791156025,-1.0104349437895916,2.0270644154555937,2.0156060651339796,-0.12717537164605977
2.028395838692626,-1.0192154292784728,2.0190548168007836,2.0272063042398702,-0.13723586213017427
2.0011824060429366,-1.0283112742807208,2.0107537099491073,2.039704957439513,-0.14761418773555746
1.9803831981842228,-1.0377191036285294,2.002163872855204,2.053135357410147,-0.15830306928393917
1.9665629200937493,-1.0474355421540928,1.9932880834737092,2.067530836829011,-0.16929522759704932
1.9602862767487834,-1.057457214689605,1.98412911975926,2.082924728373345,-0.1805833834966178
1.96211797312659,-1.0677807460672604,1.9746897596664938,2.0993503647203875,-0.19216025780437448
1.9726227142044341,-1.0784027611192524,1.9649727811500475,2.1168410785473784,-0.2040185713420493
1.9875012565093444,-1.089319884677775,1.9549809621645575,2.135430202531556,-0.2161510449313721
2.0021984574711236,-1.1005287415750231,1.9447170806646616,2.1551510693501603,-0.22855039939407268
2.0167149581000223,-1.1120259566431898,1.9341839146049966,2.1760370116804295,-0.2412093555518811
2.0310513994062935,-1.1238081547144696,1.923384241940199,2.198121362199604,-0.2541206342265271
2.04520842240019,-1.1358719606210566,1.9123208406249061,2.220556291396921,-0.26727695623974074
2.0591866680919626,-1.1482139991951446,1.900996488613755,2.2428153530527193,-0.2806710424132517
2.072986777491865,-1.1608308952689277,1.8894139638613825,2.2648990983639363,-0.29429561356878997
2.0866093916101485,-1.1737192736746,1.8775760443224254,2.2868080785275087,-0.30814339052808537
2.1000551514570653,-1.1868757592443555,1.8654855079515211,2.308542844740375,-0.3222070941128679
2.1133246980428675,-1.2002969768103882,1.8531451327033064,2.3301039481994734,-0.3364794451448675
2.126418672377808,-1.213979551204892,1.8405576965324182,2.3514919401017402,-0.3509531644458137
2.139337715472138,-1.2279201072600614,1.8277259773934935,2.372707371644113,-0.36562097283743683
2.15208246833611,-1.24211526980809,1.8146527532411691,2.3937507940235307,-0.3804755911414664
2.164653571979977,-1.256561663681172,1.8013408020300827,2.4146227584369298,-0.39550974017963275
2.17705166741399,-1.2712559137115014,1.7877929017148704,2.4353238160812487,-0.41071614077366525
2.1892773956484017,-1.2861946447312718,1.7740118302501695,2.4558545181534246,-0.4260875137452941
2.201331397693465,-1.3013744815726782,1.7600003655906171,2.4762154158503953,-0.44161657991624914
2.2132143145594303,-1.3167920490679137,1.74576128569085,2.496407060369099,-0.4572960601082601
2.2249267872565515,-1.332443972049173,1.7312973685055055,2.5164300029064717,-0.47311867514305705
2.23646945679508,-1.34832687534865,1.71661139198922,2.536284794659453,-0.48907714584237
2.2478429641852684,-1.3644373837985384,1.701706134096631,2.55597198682498,-0.5051641930279285
2.259047950437368,-1.3807721222310323,1.6865843727823753,2.5754921305999896,-0.5213725375214625
2.270085056561632,-1.3973277154783261,1.67124888600109,2.5948457771814195,-0.5376949001447022
2.280954923568313,-1.4141007883726133,1.6557024517074117,2.6140334777662084,-0.554124001719377
2.291658192467661,-1.4310879657460884,1.6399478478559777,2.6330557835512924,-0.5706525630672172
2.3021955042699305,-1.4482858724309455,1.6239878524014248,2.6519132457336103,-0.5872733050099526
2.3125674999853727,-1.4656911332593783,1.6078252432983906,2.6706064155100995,-0.6039789483693128
2.3227748206242387,-1.4833003730635808,1.5914627985015108,2.689135844077698,-0.6207622139670281
2.3328181071967826,-1.501110216675747,1.5749032959654237,2.707502082633343,-0.6376158226248281
2.3426980007132565,-1.5191172889280713,1.5581495136447656,2.7257056823739716,-0.6545324951644429
2.3524151421839106,-1.5373182146527478,1.5412042294941735,2.743747194496523,-0.6715049524076022
2.361970172618999,-1.5557096186819699,1.5240702214682846,2.7616271701979334,-0.6885259151760359
2.3713637330287733,-1.5742881258479322,1.5067502675217357,2.7793461606751406,-0.7055881042914742
2.380596464423485,-1.5930503609828284,1.4892471456091636,2.796904717125083,-0.7226842405756464
2.3896690078133878,-1.6119929489188525,1.4715636336852056,2.8143033907446977,-0.7398070448502827
2.3985820042087322,-1.6311125144881993,1.4537025097044989,2.831542732730922,-0.7569492379371131
2.4073360946197715,-1.650405682523062,1.4356665516216798,2.848623294280695,-0.7741035406578676
2.4159319200567575,-1.6698690778556344,1.4174585373913857,2.8655456265909525,-0.7912626738342756
2.424370121529943,-1.6894993253181114,1.3990812449682535,2.8823102808586336,-0.8084193582880672
2.4326513400495786,-1.7092930497426868,1.3805374523069203,2.8989178082806744,-0.8255663148409726
2.4407762166259186,-1.7292468759615545,1.361829937362023,2.915368760054014,-0.8426962643147216
2.4487453922692133,-1.749357428806908,1.3429614780881982,2.9316636873755897,-0.8598019275310432
2.456559507989716,-1.769621333110942,1.3239348524400836,2.947803141442339,-0.8768760253116687
2.4642192047976783,-1.7900352137058508,1.3047528383723155,2.9637876734511996,-0.8939112784783271
2.471725123703353,-1.8105956954238276,1.2854182138395314,2.9796178345991087,-0.9109004078527485
2.479077905716992,-1.8312994030970673,1.2659337567963682,2.9952941760830045,-0.9278361342566624
2.4862781918488466,-1.8521429615577634,1.2463022451974621,3.0108172490998246,-0.9447111785117992
2.49332662310917,-1.8731229956381092,1.2265264569974514,3.026187604846507,-0.9615182614398888
2.500223840508215,-1.8942361301703001,1.206609170150972,3.041405794519988,-0.9782501038626609
2.5069704850562324,-1.9154789899865299,1.186553162612662,3.0564723693172065,-0.9948994266018455
2.5135671977634755,-1.936848199918992,1.166361212337157,3.0713878804350996,-1.0114589504791724
2.5200146196401954,-1.958340384799881,1.1460360972790944,3.086152879070605,-1.027921396316371
2.5263133916966454,-1.9799521694613904,1.1255805953931115,3.1007679164206605,-1.044279484935172
2.5324641549430766,-2.001680178735714,1.1049974846338455,3.1152335436822036,-1.0605259371573048
2.538467550389741,-2.023521037455047,1.0842895429559327,3.129550312052172,-1.0766534738045
2.5443242190468927,-2.0454713704515832,1.0634595483140106,3.143718772727503,-1.092654815698486
2.5500348019247823,-2.0675278025575157,1.0425102786627158,3.1577394769051357,-1.1085226836609943
2.5555999400336615,-2.089686958605039,1.0214445119566857,3.171612975782006,-1.1242497985137536
2.5610202743837847,-2.1119454634263475,1.0002650261505572,3.1853398205550523,-1.1398288810784951
2.5662964459854023,-2.1342999418536346,0.9789745991989668,3.1989205624212125,-1.1552526521769466
2.5714290958487656,-2.1567470187190945,0.9575760090565518,3.2123557525774236,-1.1705138326308406
2.5764188649841295,-2.179283318854922,0.9360720336779493,3.2256459422206234,-1.1856051432619052
2.581266394401745,-2.20190546709331,0.9144654510177963,3.2387916825477494,-1.2005193048918703
2.585972325111863,-2.2246100882664535,0.8927590390307294,3.25179352475574,-1.2152490383424661
2.590537298124737,-2.247393807206546,0.8709555756713858,3.2646520200415323,-1.2297870644354234
2.5949619544506186,-2.270253248745781,0.8490578388944028,3.277367719602064,-1.244126103992471
2.5992469350997616,-2.293185037716354,0.8270686066544168,3.289941174634272,-1.2582588778353387
2.6033928810824154,-2.3161857989504577,0.8049906569060652,3.302372936335096,-1.272178106785757
2.6074004334088348,-2.3392521572802867,0.7828267676039848,3.3146635559014714,-1.2858765116654554
2.61127023308927,-2.362380737538036,0.7605797167028125,3.3268135845303375,-1.2993468132961645
2.615002921133975,-2.385568164555896,0.7382522821571853,3.338823573418631,-1.3125817324996132
2.6185991385532,-2.4088110631660657,0.7158472419217405,3.35069407376329,-1.3255739900975316
2.622059526357198,-2.4321060582007368,0.6933673739511147,3.3624256367612517,-1.3383163069116504
2.6253847255562226,-2.4554497744921018,0.6708154561999449,3.374018813609454,-1.3508014037636984
2.6285753771605243,-2.4788388368723564,0.6481942666228687,3.385474155504834,-1.3630220014754053
2.631632122180355,-2.5022698701736954,0.6255065831745222,3.3967922136443307,-1.3749708208685025
2.6345556016259684,-2.5257394992283118,0.602755183809543,3.407973539224881,-1.3866405827647192
2.6373464565076152,-2.549244348868399,0.5799428464825674,3.4190186834434213,-1.3980240079857842
2.6400053278355498,-2.572781043926152,0.5570723491482331,3.429928197496892,-1.4091138173534294
2.6425328566200217,-2.596346209233765,0.5341464697611763,3.440702632582228,-1.4199027316893829
2.6449296838712844,-2.6199364696234317,0.5111679862760352,3.4513425398963684,-1.4303834718153754
2.6471964505995897,-2.643548449927346,0.4881396766474455,3.4618484706362507,-1.4405487585531367
2.6493337978151907,-2.6671787749777014,0.4650643188300443,3.4722209759988116,-1.4503913127243964
2.6513423665283384,-2.690824069606694,0.44194469077847065,3.4824606071809905,-1.4599038551508852
2.6532227977492857,-2.714480958646515,0.41878357044735837,3.4925679153797238,-1.4690791066543318
2.654975732488285,-2.7381460669293594,0.3955837357913464,3.5025434517919494,-1.4779097880564676
2.6566018117555874,-2.7618160192874233,0.37234796476507115,3.5123877676146047,-1.4863886201790206
2.6581016765614462,-2.785487440552898,0.34907903532316953,3.522101414044627,-1.4945083238437227
2.6594759679161126,-2.8091569555579787,0.325779725420279,3.531684942278956,-1.5022616198723018
2.66072532682984,-2.83282118913486,0.3024528130110359,3.5411389035145273,-1.5096412290864887
2.6618503943128795,-2.856476766115734,0.2791010760500777,3.5504638489482794,-1.516639872308014
2.662851811375484,-2.8801203113327967,0.2557272924920412,3.559660329777149,-1.5232502703586066
2.6637302190279044,-2.9037484496182424,0.2323342402915638,3.568728897198076,-1.5294651440599965
2.664486258280395,-2.927357805804263,0.20892469740328146,3.577670102407995,-1.5352772142339148
2.665120570143206,-2.9509450047230534,0.18550144178183203,3.586484496603846,-1.5406792017020892
2.665633795626592,-2.9745066712068087,0.1620672513818523,3.5951726309825647,-1.5456638272862513
2.666026575740803,-2.9980394300877213,0.13862490415797857,3.6037350567410904,-1.5502238118081313
2.6662995514960905,-3.0215399061979875,0.11517717806484928,3.6121723250763598,-1.5543518760894575
2.6664533639027086,-3.0450047243697993,0.09172685105709988,3.6204849871853115,-1.5580407409519599
2.666488653970909,-3.068430509435351,0.06827670108936812,3.6286735942648822,-1.56128312721737
2.6664060627109447,-3.091813886226838,0.04482950611629111,3.63673869751201,-1.5640717557074155
2.666206231133066,-3.1151514795764523,0.021388044092505387,3.644680848123633,-1.5663993472438285
2.665889800247527,-3.1384399143163892,-0.0020449070273513836,3.6525005972966875,-1.5682586226483366
2.6654574110645766,-3.1616758152788433,-0.025466569288642882,3.6601984962281118,-1.5696423027426727
2.6649097045944714,-3.184855807296008,-0.048874164736731895,3.6677750961148448,-1.5705431083485641
2.66424732184746,-3.207976515200076,-0.0722649154169821,3.6752309481538217,-1.570953760287742
2.6634709038337974,-3.2310345638232416,-0.09563604337475606,3.682566603541983,-1.5708669793819352
2.662581091563734,-3.254026577997702,-0.11898477065541635,3.6897826134762637,-1.5702754864528736
2.6615785260475224,-3.2769491825556476,-0.1423083193043264,3.6968795291536027,-1.5691720023222882
2.6604638482954144,-3.2997990023292747,-0.16560391136684927,3.703857901770937,-1.5675492478119093
2.659237699317663,-3.322572662150777,-0.18886876888834747,3.7107182825252063,-1.5653999437434658
2.6579007201245193,-3.3452667868523465,-0.21210011391418448,3.717461222613345,-1.5627168109386873
2.6564535517262367,-3.3678780012661793,-0.23529516848972287,3.7240872732322936,-1.5594925702193039
2.6548968351330675,-3.390402930224469,-0.25845115466032675,3.7305969855789884,-1.5557199424070443
2.6532312113552634,-3.4128381985594096,-0.2815652944713585,3.736990910850367,-1.5513916483236407
2.651457321403074,-3.435180431103195,-0.3046348099681808,3.743269600243367,-1.546500408790823
2.649575806286756,-3.4574262526880184,-0.32765692319615725,3.749433604954926,-1.5410389446303197
2.6475873070165585,-3.479572288146076,-0.3506288562006499,3.755483476181983,-1.53499997666386
2.645492464602736,-3.5016151623095593,-0.3735478310270237,3.761419765121474,-1.5283762257131759
2.6432919200555385,-3.5235515000106643,-0.39641106972063844,3.767243022970338,-1.5211604125999951
2.640986314385219,-3.545377926081584,-0.4192157943268615,3.772953800925511,-1.5133452581460505
2.6385762886020294,-3.5670910653545125,-0.4419592268910517,3.778552650183932,-1.5049234831730685
2.636062483716223,-3.5886875426616456,-0.4646385894585747,3.7840401219425384,-1.495887808502781
2.63344554073805,-3.6101639828351737,-0.4872511040747931,3.7894167673982664,-1.486230954956918
2.630726100677765,-3.6315170107072947,-0.5097939927850696,3.7946831377480565,-1.475945643357207
2.6279048045456186,-3.6527432511101994,-0.532264477634766,3.799839784188844,-1.4650245945253824
2.6249822933518634,-3.673839328876084,-0.5546597806692468,3.8048872579175677,-1.453460529283169
2.6219592081067513,-3.6948018688371422,-0.5769771239338748,3.8098261101311643,-1.4412461684523024
2.6188361898205343,-3.715627495825567,-0.5992137294740141,3.8146568920265715,-1.4283742328545062
2.6156138795034645,-3.736312834673554,-0.6213668193350252,3.819380154800729,-1.414837443311514
2.612292918165796,-3.7568545102132953,-0.6434336155622724,3.823996449650571,-1.4006285206450562
2.6088739468177793,-3.777249147276986,-0.6654113402011195,3.8285063277730385,-1.3857401856768599
2.605357606469667,-3.7974933706968206,-0.6872972152969288,3.8329103403650664,-1.370165159228657
2.6017445381317112,-3.817583805304993,-0.7090884628950636,3.8372090386235946,-1.3538961621221777
2.5980353828141625,-3.837517075933696,-0.7307823050408864,3.8414029737455597,-1.3369259151791502
2.5942307815272745,-3.8572898074151247,-0.7523759637797598,3.845492696927899,-1.3192471392213063
2.5903313752813015,-3.876898624581473,-0.7738666611570486,3.8494787593675506,-1.3008525550703727
2.5863378050864925,-3.896340152264935,-0.7952516192181136,3.8533617122614525,-1.2817348835480846
2.582250711953102,-3.915611015297705,-0.8165280600083196,3.857142106806541,-1.261886845476167
2.57807073689138,-3.9347078385119767,-0.8376932055730286,3.8608204941997553,-1.2413011616763523
2.5737985209115792,-3.9536272467399436,-0.8587442779576051,3.8643974256380322,-1.219970552970369
2.569434705023952,-3.9723658648138,-0.8796784992074094,3.8678734523183094,-1.1978877401799473
2.564979930238752,-3.99092031756574,-0.9004930913678075,3.8712491254375254,-1.1750454441268179
2.5604348375662305,-4.009287229827958,-0.9211852764841608,3.874524996192616,-1.1514363856327101
2.555800068016639,-4.027463226432649,-0.9417522766018327,3.877701615780521,-1.127053285519354
2.5510762626002306,-4.045444932212005,-0.9621913137661862,3.880779535398177,-1.1018888646084788
2.546264062327256,-4.06322897199822,-0.9824996100225833,3.8837593062425206,-1.0759358437218154
2.5413641082079694,-4.08081197062349,-1.0026743874163886,3.8866414795104918,-1.0491869436810948
2.536377041252621,-4.098190552920007,-1.022712867992964,3.889426606399026,-1.0216348853080444
2.5313035024714643,-4.115361343719965,-1.042612273797674,3.892115238105063,-0.9932723894243924
2.5261441328747516,-4.132320967855563,-1.0623698268758797,3.8947079258255375,-0.9640921768518735
2.5208995734727346,-4.1490660501589876,-1.0819827492729455,3.8972052207573897,-0.9340869684122177
2.515570465275665,-4.1655932154624375,-1.1014482630342344,3.899607674097557,-0.9032494849271497
2.5101574492937964,-4.181899088598104,-1.1207635902051085,3.901915837042976,-0.8715724472184005
2.5046611665373786,-4.197980294398187,-1.139925952830931,3.9041302607905854,-0.8390485761077064
2.4990822580166663,-4.213833457694871,-1.1589325729570659,3.9062514965373216,-0.8056705924167895
2.493421364741911,-4.229455203320358,-1.1777806726288755,3.9082800954801242,-0.7714312169673843
2.4876791277233643,-4.244842156106838,-1.1964674738917225,3.910216608815928,-0.736323170581219
2.4818561879712773,-4.259990940886507,-1.2149901987909701,3.912061587741673,-0.7003391740800211
2.4759531864959055,-4.274898182491559,-1.2333460693719815,3.913815583454296,-0.663471948285526
2.469970764307498,-4.289560505754186,-1.251532307680121,3.915479147150734,-0.6257142140194603
2.4639095624163074,-4.303974535506583,-1.2695461357607494,3.917052830027927,-0.5870586921035539
2.457770221832588,-4.318136896580946,-1.2873847756592305,3.918537183282809,-0.5474981033595387
2.4515533835665906,-4.332044213809468,-1.3050454494209287,3.9199327581123207,-0.5070251686091414
2.4452596886285662,-4.345693112024342,-1.3225253790912048,3.9212401057133985,-0.46563260867409184
2.438889778028768,-4.3590802160577615,-1.3398217867154232,3.92245977728298,-0.423313144376122
2.4324442927774497,-4.37220215074192,-1.3569318943389468,3.9235923240180037,-0.3800594965369637
2.4259238738848605,-4.385055540909015,-1.3738529240071378,3.9246382971154063,-0.3358643859783417
2.4193291623612545,-4.39763701139124,-1.39058209776536,3.9255982477721267,-0.29072053352198957
2.412660799216885,-4.4099431870207875,-1.4071166376589765,3.9264727271851005,-0.2446206599896339
2.4059194254620015,-4.42197069262985,-1.4234537657333504,3.9272622865512665,-0.19755748620301183
2.3991056821068573,-4.433716153050622,-1.4395907040338445,3.9279674770675626,-0.1495237329838428
2.392220210161705,-4.445176193115301,-1.455524674605822,3.9285888499309265,-0.10051212115386754
2.3852636506367966,-4.4563474376560785,-1.4712528994946439,3.929126956338295,-0.05051537153480723
2.3782366445423837,-4.467226511505149,-1.4867726007456765,3.929582347486605,0.0004737950516009448
2.3711398328887205,-4.477810039494705,-1.5020810004042806,3.929955574572798,0.052462657783634015
2.3639738566860564,-4.488094646456945,-1.517175320515821,3.930247188793807,0.10545849583955835
2.3567393569446438,-4.4980769572240575,-1.5320527831256587,3.930457741346573,0.15946858839764744
2.349436974674737,-4.5077535966282385,-1.546710610279158,3.930587783428032,0.21450021463616586
2.3420673508865866,-4.517121189501684,-1.5611460240216797,3.9306378662351213,0.27056065373339067
2.3346311265904465,-4.526176360676585,-1.5753562463985924,3.9306085409647795,0.32765718486758644
2.327128942796567,-4.534915734985138,-1.589338499455252,3.930500358813944,0.38579708721702133
2.3195614405152014,-4.5433359372595365,-1.6030900052370276,3.9303138709795533,0.44498763995997237
2.3119292607566004,-4.551433592331975,-1.616607985789278,3.9300496286585425,0.5052361222747042
2.304233044531017,-4.559205325034644,-1.6298896631573685,3.929708183047853,0.5665498133394902
2.2964734328487038,-4.566647760199742,-1.6429322593866615,3.9292900853444177,0.6289359923325986
2.2886510667199143,-4.57375752265946,-1.6557329965225192,3.9287958867451795,0.692401938432301
2.2807665871548988,-4.580531237245995,-1.6682890966103079,3.928226138447071,0.7569549308168639
2.2728206351639084,-4.586965528791537,-1.6805977816953837,3.9275813916470343,0.8226022486645626
2.2648138517571974,-4.593057022128286,-1.6926562738231175,3.926862197542004,0.8893511711536668
2.256746877945017,-4.59880234208843,-1.7044617950388679,3.926069107328919,0.957208977462443
2.2486203547376196,-4.6041981135041645,-1.7160115673879979,3.925202672204717,1.026182946769163
2.24043492314526,-4.609240961207687,-1.7273028129158714,3.9242634433663346,1.0962803582520966
2.2321912241781856,-4.613927510031185,-1.7383327536678532,3.923251972010711,1.1675084910895137
2.2238898988466502,-4.6182543848068605,-1.7490986116893037,3.9221688093347824,1.239874624459686
2.215531588160907,-4.622218210366901,-1.7595976090255867,3.921014506535488,1.3133860375408837
2.207116933131208,-4.625815611543504,-1.769826967722068,3.919789614809764,1.3880500095113746
2.198646574767805,-4.629043213168864,-1.7797839098241042,3.918494685354548,1.4638738195494216
2.190121154080952,-4.631897640075172,-1.789465657377062,3.917130269366779,1.5408647468333108
2.1815413120808986,-4.634375517094625,-1.798869432426308,3.915696918043392,1.6190300705413065
2.1729076897778974,-4.636473469059414,-1.8079924570171997,3.914195182581329,1.6983770698516754
2.164220928182201,-4.638188120801738,-1.816831953195103,3.912625614177525,1.778913023942689
2.1554816683040623,-4.639516097153781,-1.825385143005378,3.9109887640289163,1.8606452119926153
2.1466905511537346,-4.640454022947751,-1.8336492484933924,3.909285183332443,1.9435809131797317
2.1378482177414657,-4.640998523015831,-1.8416214917045046,3.907515423285042,2.027727406682301
2.128955309077512,-4.641146222190219,-1.8492990946840822,3.9056800350836505,2.1130919716785943
2.120012466172123,-4.64089374530311,-1.8566792794774836,3.9037795699252067,2.199681887346882
2.1110203300355526,-4.6402377171866975,-1.8637592681300736,3.901814579006648,2.2875044328654397
2.1019795416780513,-4.639174762673175,-1.8705362826872172,3.8997856135249105,2.376566887412526
2.0928907421098755,-4.637701506594734,-1.8770075451942754,3.8976932246769342,2.466876530166422
2.083754572341271,-4.635814573783574,-1.8831702776966113,3.895537963659656,2.558440640305399
2.0745716733824944,-4.633510589071886,-1.8890217022395879,3.8933203816700135,2.651266497007718
2.065342686243797,-4.630786177291862,-1.894559040868569,3.891041029904943,2.745361379451653
2.0560682519354314,-4.627637963275697,-1.899779515628917,3.8887004595613863,2.8407325668154737
2.0467490114676483,-4.624062571855591,-1.9046803485659956,3.886299221836275,2.9373873382774516
2.0373856058507007,-4.620056627863731,-1.909258761725166,3.8838378679265526,3.035332973015855
2.0279786760948406,-4.615616756132313,-1.9135119771517939,3.881316949029153,3.134576750208959
2.018528863210321,-4.610739581493531,-1.9174372168912406,3.878737016341014,3.2333176151544194
2.0090368082073935,-4.605421728779579,-1.92103170298887,3.8760986210590755,3.3304824541355345
1.999503152096309,-4.59965982282265,-1.9242926574900414,3.8734023143802734,3.426080740919275
1.989928535887323,-4.593450488454943,-1.927217302440126,3.8706486475015436,3.5201219492726104
1.9803136005906847,-4.586790350508647,-1.9298028598844787,3.8678381716198285,3.6126155529625628
1.9706589872166462,-4.5796760338159554,-1.9320465518684662,3.864971437932062,3.703571025756087
1.9609653367754618,-4.572104163209067,-1.9339456004374513,3.862048997635183,3.792997841420121
1.951233290277382,-4.564071363520171,-1.935497227636798,3.85907140192613,3.880905473721743
1.9414634887326596,-4.555574259581466,-1.936698655511865,3.856039202001839,3.9673033964278446
1.9316565731515474,-4.546609476225143,-1.9375471061080196,3.8529529490592482,4.052201083305402
1.921813184544296,-4.537173638283397,-1.9380398014706248,3.8498131942952947,4.135608008121462
1.911933963921158,-4.52726337058842,-1.938173963645042,3.846620488906918,4.217533644642966
1.9020195522923886,-4.516875297972408,-1.9379468146766339,3.843375384091053,4.297987466636862
1.8920705906682347,-4.506006045267554,-1.9373555766107646,3.84007843104464,4.376978947870164
1.8820877200589528,-4.494652237306054,-1.9363974714927963,3.836730180964615,4.454517562109878
1.872071581474793,-4.482810498920102,-1.9350697213680927,3.8333311850479177,4.530612783122901
1.862022815926009,-4.4704774549418875,-1.9333695482820197,3.8298819944914815,4.605274084676303
1.8519420644228508,-4.457649730203611,-1.9312941742799339,3.826383160492249,4.678510940537002
1.8418299679755723,-4.444323949537463,-1.928840821407201,3.8228352342471545,4.750332824471997
1.8316871675944242,-4.430496737775638,-1.926006711709185,3.819238766953137,4.820749210248266
1.8215143042896615,-4.416164719750327,-1.9227890672312498,3.8155943098071345,4.8897695716327725
1.8113120190715342,-4.401324520293731,-1.9191851100187574,3.811902414006083,4.95740338239251
1.8010809529502931,-4.385972764238037,-1.91519206211707,3.808163630746923,5.023660116294494
1.7908217469361936,-4.370106076415446,-1.9108071455715496,3.804378511226587,5.088549247105632
1.780535042039487,-4.3537210816581435,-1.9060275824275639,3.8005476066420174,5.15208024859291
1.7702214792704227,-4.33681440479833,-1.9008505947304712,3.7966714681901514,5.214262594523397
1.7598816996392568,-4.3193826706681975,-1.8952734045256374,3.792750647067925,5.275105758663976
1.749516344156239,-4.301422504099941,-1.8892932338584245,3.7887856944722778,5.33461921478164
1.7391260538316229,-4.282930529925753,-1.8829073047741947,3.784777161600144,5.3928124366434105
1.728711469675659,-4.263903372977827,-1.8761128393183117,3.780725599648466,5.449694898016212
1.7182732326986012,-4.2443376580883605,-1.8689070595361397,3.776631559814176,5.505276072667051
1.7078119839107,-4.224230010089546,-1.8612871874730388,3.772495593294216,5.559565434362952
1.6973283643222108,-4.203577053813575,-1.8532504451743765,3.768318251285522,5.612572456870808
1.6868230149433825,-4.182375414092643,-1.8447940546855097,3.7641000849850323,5.664306613957649
1.6762965767844653,-4.160621715758948,-1.8359152380518076,3.759841645589683,5.714777379390441
1.665749690855718,-4.138312583644677,-1.8266112173186286,3.755543484296413,5.76399422693617
1.6551829981673905,-4.115444642582027,-1.816879214531335,3.7512061523021587,5.811966630361809
1.6445971397297297,-4.092014517403193,-1.8067164517352978,3.7468302008038603,5.858704063434338
1.6339927565529946,-4.068018832940368,-1.7961201509758702,3.742416180998455,5.904215999920716
1.6233704896474346,-4.043454214025749,-1.7850875342984214,3.7379646440828784,5.948511913587936
1.6127309800232998,-4.018317285491529,-1.7736158237483135,3.7334761412540693,5.991601278203021
1.602074868690845,-3.9926046721698967,-1.7617022413709087,3.728951223708963,6.033493567532872
1.5914027966603226,-3.966312998893052,-1.749344009211569,3.7243904426445007,6.074198255344513
1.5807154049419831,-3.939438890493191,-1.7365383493156585,3.7197943492576173,6.11372481540495
1.5700133345460796,-3.9119789718024958,-1.723282483728541,3.715163494745256,6.152082721481072
1.5592972264828662,-3.8839298676531726,-1.7095736344955785,3.7104984303043453,6.189281447339958
1.5485677217625895,-3.8552882028774125,-1.695409023662135,3.7057997071318307,6.2253304667485025
1.5378254613955096,-3.8260506023074043,-1.6807858732735692,3.7010678764246454,6.260239253473777
1.5270710863918713,-3.7962136907753496,-1.665701405375252,3.69630348937973,6.294017281282649
1.516305237761931,-3.765774093113441,-1.6501528420125382,3.6915070971940183,6.326674023942161
1.50552855651594,-3.7347284341538654,-1.634137405230799,3.686679251064454,6.3582189552192645
1.494741683664151,-3.703073338728821,-1.6176523170753914,3.6818205021879677,6.388661548880997
1.4839452602168142,-3.6708054316705088,-1.6006947995916772,3.676931401761503,6.418011278694323
1.4731399271841825,-3.637921337811113,-1.583262074825024,3.6720125009819933,6.4462776184261585
1.462326325576507,-3.604417681982829,-1.5653513648207955,3.6670643510463776,6.47347004184352
1.4515050964040461,-3.570291089017859,-1.546959891624354,3.662087503151594,6.499598022713407
1.440676880677044,-3.535538183748388,-1.5280848772810565,3.6570825084945833,6.524671034802715
1.4298423194057595,-3.5001555910066067,-1.50872354383627,3.652049918272276,6.548698551878587
1.4190020536004377,-3.464139935624729,-1.4888731133353605,3.646990283681615,6.57169004770784
1.4081567242713366,-3.427487842434928,-1.4685308078236865,3.6419041559195358,6.593654996057531
1.3973069724287055,-3.3901959362694036,-1.4476938493466154,3.636792086182978,6.6146028706945685
1.3864534390828003,-3.352260841960355,-1.4263594599495075,3.6316546256688786,6.634543145386047
1.3755967652438672,-3.3136791843399713,-1.4045248616777268,3.626492325574173,6.653485293898825
1.364737591922164,-3.2744475882404487,-1.3821872765766354,3.6213057370958017,6.671438790000018
1.3538765601279374,-3.234562678493983,-1.3593439266915937,3.6160954114306993,6.688413107456455
1.3430143108714456,-3.19402107993276,-1.3359920340679672,3.6108618997758075,6.704417720035181
1.3321514851629348,-3.152819417388983,-1.3121288207511235,3.6056057533280597,6.719462101503254
1.3212887240126636,-3.110954315694844,-1.2877515087864158,3.600327523284398,6.733555725627518
1.3104266684308805,-3.068422399682536,-1.2628573202192204,3.595027760841755,6.746708066174996
1.2995659594278335,-3.0252202941842476,-1.2374434770948834,3.589707017197074,6.758928596912703
1.2887072380137847,-2.981344624032186,-1.2115072014587849,3.5843658435472876,6.770226791607612
1.2778511451989787,-2.9367920140585255,-1.1850457153562832,3.5790047910893352,6.780612124026632
1.2669983219936674,-2.8915590890954803,-1.1580562408327282,3.5736244110201545,6.79009406793687
1.2561494094081094,-2.8456424739752393,-1.1305359999334996,3.5682252545366846,6.798682097105207
1.24530504845255,-2.799038793529977,-1.102482214703949,3.5628078728358625,6.806385685298594
1.2344658801372472,-2.7517446725919186,-1.0738921071894492,3.557372817114626,6.813214306284067
1.2236325454724466,-2.703756735993238,-1.044762899435355,3.551920638569907,6.819177433828635
1.2128056854684064,-2.6550716085661357,-1.015091813487036,3.5464518883986553,6.824284541699271
1.2019859411353764,-2.605685915142807,-0.9848760713898521,3.5409671177977953,6.828545103662819
1.191173953483608,-2.555596280555438,-0.9541128951891622,3.5354668779642746,6.831968593486472
1.180370363523358,-2.5047993296362314,-0.9227995069303354,3.5299517200950246,6.83456448493699
1.1695758122648674,-2.453291687217373,-0.8909331286587339,3.524422195386987,6.836342251781545
1.1587909407184012,-2.4010699781310656,-0.8585109824197126,3.518878855037098,6.837311367786974
1.148016389894206,-2.3481308272094985,-0.8255302902586514,3.5133222502422923,6.837481306720363
1.137252800802531,-2.2944708592848677,-0.7919882742209019,3.5077529321995145,6.836861542348565
1.1265008144536353,-2.2400866991893658,-0.757882156351819,3.5021714521056952,6.8354615484387224
1.1157610718577633,-2.184974971755185,-0.7232091586967826,3.496578361157777,6.833290798757616
1.1050342140251725,-2.129132301814522,-0.6879665033011477,3.4909742105526913,6.830358767072454
1.0943208819661159,-2.0725553141995725,-0.6521514122102801,3.485359551487383,6.826674927150009
1.0836217166908426,-2.0152406337425255,-0.615761107469531,3.479734935158785,6.8222487527573605
1.072937359209603,-1.957184885275577,-0.5787928111242806,3.47410091276384,6.817089717661453
1.0622684505326552,-1.8983846936309305,-0.5412437452198873,3.4684580354994785,6.8112072956293375
1.0516156316702512,-1.8388366836407641,-0.5031111318017061,3.462806854562643,6.804610960427901
1.0409795436326341,-1.778537480137281,-0.46439219291510625,3.45714792115027,6.797310185824216
1.0303608274300649,-1.7174837079526704,-0.4250841506054499,3.4514817864592984,6.789314445585077
1.0197601240727918,-1.6556719919191352,-0.3851842269181027,3.4458090016866616,6.780633213477728
1.0091780745710697,-1.593098956868861,-0.3446896438984197,3.4401301180293027,6.771275963268948
0.9986153199351486,-1.5297612276340438,-0.3035976235917701,3.434445686684155,6.761252168725775
0.9880725011752798,-1.4656554290468726,-0.2619053880435196,3.4287562588481597,6.750571303615175
0.9775502593017205,-1.4007781859395507,-0.21961015929902672,3.423062385718251,6.739242841704225
0.9670492353247173,-1.3351261231442777,-0.17670915940365362,3.4173646184913715,6.727276256759737
0.9565700702545277,-1.2686958654932283,-0.13319961040276596,3.411663508364454,6.714681022548817
0.9461134051013929,-1.2014840378186058,-0.08907873434172586,3.4059596065344384,6.701466612838317
0.93567988087558,-1.1334872649526133,-0.04434375326589546,3.4002534641982587,6.6876425013953735
0.9252701385873321,-1.0647021717274292,0.0010081107793560307,3.394545632552859,6.673218161986867
0.9148848192469039,-0.9951253829752567,0.04697963574868069,3.388836662795173,6.658203068379876
0.9045245638645474,-0.9247535235282882,0.09357359959669864,3.383127106122137,6.642606694341183
0.8941900134505127,-0.85358321821872,0.14079278027806197,3.377417513730694,6.62643851363795
0.8838818090150564,-0.7816110918787373,0.18863995574739434,3.371708436817774,6.609708000037017
0.8736005915684251,-0.7088337693405471,0.23711790395933363,3.366000426580322,6.59242462730559
0.863347002120876,-0.6352478754363347,0.28622940286853193,3.3602940342152676,6.574597869210393
0.8531216816826603,-0.5608500349982997,0.3359772304296058,3.354589810919559,6.5562371995185345
0.8429252712640247,-0.4868887613689594,0.38636416459720735,3.3488883078901246,6.537352091996908
0.83275841187523,-0.4148656058441418,0.43739298332596377,3.343190076323908,6.51795202041265
0.8226217445265211,-0.34476014503661645,0.48906646457052005,3.337495667417844,6.498046458532514
0.8125159102281536,-0.27655195556030776,0.5413873862855105,3.331805632368871,6.477644880123776
0.8024415499903821,-0.2102206140281737,0.594358526425566,3.326120522373926,6.456756758953091
0.7923993048234523,-0.14574569705388285,0.6479826629453349,3.3204408886299435,6.435391568787665
0.7823898157376226,-0.08310678125042159,0.702262573799441,3.314767282333867,6.41355878339435
0.7724137237431439,-0.02228344323165743,0.7572010369425328,3.309100254682634,6.391267876540269
0.7624716698502665,0.03674474038970743,0.8128008303292411,3.3034403568731783,6.368528321992187
0.7525642950692406,0.09399819299983392,0.8690647319142109,3.2977881401024396,6.345349593517312
0.7426922404103218,0.14949733798562193,0.9259955196520622,3.292144155567354,6.321741164882425
0.7328561468837638,0.20326259873357344,0.9835959714974507,3.2865089544648614,6.2977125098546765
0.723056655499815,0.2553143986305031,1.040353789748167,3.2808830879918958,6.273273102200832
0.7132944072687293,0.3056731610627992,1.0950366728484937,3.2752671073454005,6.248432415688086
0.7035700432007559,0.3543593094174753,1.1476705373764844,3.2696615637223108,6.223199924083318
0.693884204306153,0.40139326708086287,1.1982812999105477,3.264067008319559,6.19758510115355
0.684237531595171,0.4467954574398618,1.2468948770287227,3.2584839923340905,6.171597420665691
0.6746306660780554,0.4905863038809173,1.2935371853093045,3.2529130669628383,6.145246356386835
0.6650642487650673,0.5327862297908723,1.3382341413305028,3.247354783402743,6.1185413820838335
0.6555389206664559,0.573415658556371,1.3810116616704988,3.2418096928507385,6.091491971523666
0.6460553227924706,0.6124950135637164,1.4218956629073887,3.2362783465037674,6.064107598473427
0.6366140961533668,0.6500447182000926,1.4609120616195241,3.23076129555876,6.036397736700039
0.6272158817593967,0.6860851958517742,1.4980867743848592,3.2252590912126653,6.0083718599704525
0.6178613206208077,0.7206368699055758,1.5334457177818877,3.219772284662408,5.980039442051648
0.6085510537478562,0.7537201637479143,1.567014808388592,3.214301427104936,5.95140995671062
0.599285722150797,0.785355500766002,1.598819962783324,3.208847069737181,5.92249287771439
0.5900659668398749,0.815563304345801,1.6288870975441228,3.203409763756082,5.893297678829839
0.5808924288253499,0.8443639978744386,1.6572421292491128,3.1979900603585785,5.863833833824032
0.5717657491174704,0.8717780047384736,1.6839109744767597,3.192588510741607,5.834110816463934
0.5626865687264848,0.8978257483243794,1.7089195498051595,3.1872056661021047,5.8041381005164965
0.5536555286626523,0.9225276520189993,1.7322937718122944,3.1818420776370084,5.7739251597487
0.544673269936224,0.9459041392088352,1.7540595570767437,3.1764982965432553,5.743481467927538
0.5357404335574483,0.9679756332807301,1.774242822176177,3.1711748740177885,5.712816498819976
0.5268576605365771,0.9887625576211008,1.7928694836893442,3.1658723612575397,5.681939726193008
0.5180255918838679,1.0082853356169323,1.809965458194199,3.1605913094594493,5.6508606238135854
0.5092448686095672,1.0265643906546131,1.8255566622686956,3.1553322698204536,5.619588665448802
0.5005161317239297,1.0436201461208157,1.8396690124914699,3.150095793537491,5.588133324865382
0.49184002223720835,1.0594730254022409,1.8523284254405326,3.1448824318075017,5.556504075830603
0.4832171811596506,1.074143451885675,1.8635608176937808,3.139692735827418,5.524710392111189
0.4746482495015192,1.087651848957421,1.8733921058299075,3.134527256794181,5.492761747474333
0.46613386827305714,1.100018640004464,1.8818482064270938,3.129386545904727,5.460667615686873
0.45767467848451293,1.1112642484134199,1.8889550360630665,3.1242711543559913,5.428437470515831
0.44927132114615365,1.1214090975707904,1.8947385113160635,3.119181633344918,5.396080785728273
0.4409244372682224,1.1304736108632767,1.899224548764721,3.1141185340684414,5.363607035090922
0.4326346678609694,1.138478211677608,1.9024390649871066,3.1090824077234993,5.331025692370972
0.4244026539346475,1.145443323400258,1.9044079765609467,3.104073805507026,5.298346231335415
0.4162290364995096,1.151389369418382,1.9051572000651618,3.099093278615964,5.265578125751105
0.4081144565658157,1.1563367731179426,1.9047126520773645,3.094141378247248,5.232730849385149
0.40005955514380354,1.1603059578858392,1.9031002491762479,3.0892186555978194,5.199813876004455
0.3920649732437367,1.1633173471090288,1.9003459079394247,3.08432566186461,5.166836679375933
0.3841313518758591,1.1653913641738711,1.8964755449453605,3.0794629482445623,5.133808733266662
0.3762593320504344,1.166548432467124,1.8915150767725208,3.0746310659346126,5.1007395114436065
0.3684495547777047,1.1668089753753463,1.885490419998689,3.0698305661316967,5.067638487673705
0.36070266106792115,1.1661934162851821,1.8784274912022738,3.0650620000327535,5.034515135724035
0.3530192919313482,1.1647221785833324,1.8703522069613996,3.0603259188347254,5.001378929361451
0.34540008837822533,1.1624156856565833,1.8612904838540771,3.0556228737345377,4.968239342353002
0.33784569141880816,1.1592943608914368,1.8512682384589993,3.050953415929138,4.935105848465625
0.3303567420633531,1.1553786276746507,1.8403113873540633,3.0463180966154697,4.901987921466372
0.322933881322105,1.150688909392784,1.8284458471175071,3.0417174669904554,4.868895035122122
0.31557775020532386,1.1452456294325373,1.8156975343270574,3.037152078251042,4.835836663199942
0.3082889897232546,1.1390692111804128,1.8020923655616912,3.0326224815941663,4.802822279466753
0.30106824088615625,1.1321800780234241,1.7876562573990213,3.0281292282167573,4.769861357689493
0.2939161447042764,1.1245986533476753,1.772415126417627,3.023672869315771,4.736963371635284
0.2868333421878688,1.1163453605402651,1.7563948891955192,3.0192539560881295,4.704137795071048
0.2798204743471864,1.1074406229878946,1.7396214623109927,3.0148730397307704,4.671394101763667
0.2728781821924766,1.097904864076952,1.7221207623420014,3.010530671440642,4.638741765480191
0.26600710673399597,1.0877585071941667,1.703918705866954,3.006227402414674,4.606190259987656
0.25920788898200264,1.0770219757260406,1.685041209464032,3.0019637838498046,4.573749059052972
0.25248116994674064,1.0657156930595875,1.6655141897114731,2.9977403669429767,4.541427636443018
0.24582759063845927,1.0538600825811386,1.6453635631870043,2.9935577028911187,4.509235465925045
0.23924779206742208,1.0414755676775371,1.6246152464697161,2.989416342891176,4.477182021265747
0.23274241524386774,1.0285825717355692,1.6032951561369373,2.9853168381400854,4.445276776232305
0.22631210117805445,1.0152015181415663,1.5814292087671902,2.9812597398347807,4.413529204591583
0.21995749088023864,1.0013528302820873,1.5590433209387697,2.9772455991722033,4.381948780110633
0.21367922536066963,0.9870569315442594,1.5361634092301415,2.9732749673492878,4.350544976556307
0.20747794562959854,0.972334245314471,1.5128153902185204,2.969348395562977,4.319327267695741
0.20135429269727823,0.957205194979224,1.4890251804831678,2.9654664350102022,4.288305127295843
0.1953089075739598,0.9416902039255319,1.4648186966016965,2.9616296368879036,4.257488029123579
0.18934243126989614,0.9258096955396695,1.440221855152572,2.9578385523930173,4.226885446945971
0.18345550479533657,0.9095840932085366,1.4152605727134073,2.954093732722483,4.196506854529929
0.1776487691605393,0.8930338203189194,1.38996076586335,2.950395729073242,4.166361725642389
0.17192286537575185,0.8761793002571494,1.364348351179956,2.946745092642228,4.136459534050601
0.16627843445122892,0.8590409564100128,1.3384492452414065,2.943142374626378,4.1068097535211905
0.16071611739722513,0.8416392121640115,1.3122893646260536,2.9395881262226258,4.077421857821378
0.15523655522397917,0.8239944909061592,1.285894625912249,2.9360828986279177,4.048305320718157
0.1498403889417652,0.8061272160226736,1.259290945678174,2.9326272430391853,4.019469615978267
0.14452825956082016,0.7880578109005683,1.2325042405013846,2.929221710653369,3.990924217368871
0.13930080809139156,0.7698066989264021,1.2055604269608011,2.9258668526674096,3.962678598656936
0.13415867554375183,0.751394303486677,1.1784854216343774,2.922563220278237,3.93474223360937
0.12910250292812897,0.7328410479680656,1.151305141100238,2.919311364682793,3.9071245959932526
0.12413293125480074,0.7141673557574677,1.124045501936564,2.9161118370780112,3.8798351595754923
0.11925060153399158,0.6953936502414422,1.0967324207219917,2.912965188660836,3.8528833981231116
0.11445615477597926,0.6765403548065478,1.0693918140340202,2.909871970628199,3.826278785402991
0.1097502319909971,0.6576278928392867,1.0420495984512286,2.906832734177046,3.800030795182238
0.10513347418930685,0.6386766877265586,1.0147316905519688,2.9038480305043084,3.7741489012277043
0.10060652238116141,0.619707162855093,0.9874640069141378,2.9009184108069235,3.748642577306498
0.09617001757680477,0.6007397416113349,0.9602724641157465,2.89804442628183,3.723521297185499
0.09182460078650045,0.5817948473820707,0.9331829787354309,2.8952266281259664,3.698794534631759
0.08757091302049069,0.5628929035536885,0.9062214673512585,2.89246556753627,3.6744717634121287
0.08340959528903369,0.544054333513202,0.8794138465411834,2.889761795709674,3.650562457293887
0.07934128860237699,0.5252995606470563,0.8527860328838983,2.8871158638431282,3.6270760900436017
0.0753666339707788,0.5066490083421513,0.8263639429573004,2.8845283231335586,3.6040221354284654
0.07148627240448668,0.48812309998447745,0.8001734933392868,2.881999724777902,3.581410067215529
0.06770084491375172,0.4697422589616167,0.7742406006083229,2.8795306199731083,3.559249359171588
0.06401099250883391,0.45152690865938894,0.7485911813428743,2.8771215599161053,3.5375494850638347
0.06041735619997368,0.4334974724651488,0.723251152120838,2.8747730958038282,3.5163199186590646
0.056920576997432804,0.4156743737650004,0.698246429520168,2.8724857788332194,3.4955701337243568
0.053521295911457045,0.3980780359459004,0.6736029301197277,2.8702601602012194,3.47530960402662
0.05022015395230284,0.3807288823945214,0.64934657049713,2.8680967911047652,3.4555478033329052
0.04701779213022306,0.36364733649725167,0.6255032672307266,2.8659962227407902,3.436294205410178
0.043914851455465254,0.34685382164093426,0.6020989368989831,2.8639590063062297,3.417558284025347
0.04091197293828941,0.33036876121218484,0.5791594960795692,2.861985692998033,3.39934951294552
0.03800979758893597,0.3142125785977896,0.5567108613508367,2.8600768340131246,3.381677365937435
0.03520896641767024,0.2984056971841369,0.5347789492914217,2.8582329805484523,3.3645513167683987
0.03251012043473622,0.2829685403581266,0.513389676479278,2.856454683800946,3.347980839205121
0.029913900650385017,0.2679215315059764,0.49256895949230284,2.854742494967546,3.3319754070146814
0.027420948074873053,0.2532850940149842,0.4723427149087911,2.853096965245191,3.316544493964102
0.025031903718453208,0.2390796512715383,0.45273685930737884,2.8515186458308204,3.30169757382032
0.022747408591369478,0.22532562666219746,0.43377730926596314,2.850008087921367,3.2874441203502727
0.02056810370388895,0.21204344357352056,0.4154899813623274,2.848565842713773,3.273793607321039
0.018494630066246742,0.19925352539240748,0.39790079217539187,2.8471924614049726,3.2607555084995
0.016527628688706386,0.18697629550530337,0.3810356582829968,2.8458884951919075,3.2483392976526773
0.014667740581518984,0.1752321772993355,0.364920496263494,2.844654495271511,3.2365544485475937
0.012915606754928532,0.1640415941603237,0.34958122269426894,2.8434910128407225,3.2254104349510726
0.011271868219200343,0.153424969475509,0.33504375415492404,2.842398599096482,3.2149167306302786
0.009737165984578411,0.14340272663156384,0.32133400722256056,2.841377805235723,3.205082809352035
0.008312141061319167,0.13399528901487656,0.3084778984755303,2.8404291824553862,3.195918144883507
0.006997434459664831,0.1252230800122902,0.29650134449275356,2.839553281952405,3.18743221099146
0.005793687189877161,0.11710652301019309,0.28543026185155895,2.8387506549237234,3.179634481443003
0.004701540262205484,0.1096660413957693,0.27529056713046884,2.838021852566273,3.1725344300051006
0.0037216346868991224,0.10292205855506609,0.2661081769077782,2.8373674260769963,3.1661415304447473
0.002854611474219837,0.09689499787498335,0.25790900776166836,2.83678792665283,3.160465256528852
0.002101111634406294,0.09160528274225044,0.25071897627003636,2.836283905490708,3.155515082024465
0.0014617761777238059,0.08707333654365357,0.24456399901134773,2.8358559137875723,3.151300480698495
0.0009372461144199207,0.08331958266563788,0.23946999256361323,2.8355045027403545,3.147830926318022
0.0005281624547350816,0.08036444449464852,0.23546287350541206,2.8352302235460023,3.1451158926498692
0.00023516620894525886,0.07822834541758539,0.23256855841452762,2.835033627401449,3.143164853461201
5.889838728201369e-05,0.07693170882129152,0.23081296386931172,2.834915265503623,3.141987282518784
3.552713678800501e-15,0.07649495809221207,0.2302220064481162,2.8348756890494737,3.141592653589811
