oscarkremer/mentor-optimization/notebooks/traject_2/non_adaptive/angles_5.csv
theta1,theta2,theta3,theta4,theta5
3.7295952571373574,-0.7943678438589166,1.973043134264813,1.9629173631838936,3.2059965904706873
3.729572296892299,-0.7943945779497745,1.9729341521742239,1.9628898464393287,3.2053230692517074
3.729503818815365,-0.7944744670844434,1.9726095657234448,1.9628076088116024,3.2033232372799265
3.729390426893916,-0.7946070415560664,1.9720729146439582,1.9626711192096686,3.2000281920830833
3.7292327251153146,-0.7947918316577867,1.971327738667246,1.96248084654248,3.1954690311889173
3.7290313174669216,-0.7950283676827472,1.970377577524791,1.9622372597189897,3.189676852125168
3.7287868079360975,-0.7953161799240906,1.969225970948075,1.9619408276481516,3.182682752419574
3.728499800510205,-0.7956547986749606,1.9678764586685802,1.961592019238918,3.1745178295998744
3.7281708991766047,-0.7960437542284995,1.9663325804177894,1.961191303400243,3.165213181193808
3.727800707922658,-0.7964825768778507,1.9645978759271843,1.9607391490410793,3.1547999047291144
3.727389830735726,-0.7969707969161574,1.9626758849282477,1.9602360250703803,3.143309097733532
3.7269388716031715,-0.7975079446365622,1.9605701471524613,1.9596824003970992,3.1307718577348007
3.726448434512354,-0.7980935503322082,1.9582842023313074,1.9590787439301893,3.117219282260659
3.725919123450636,-0.7987271442962387,1.955821590196269,1.9584255245786035,3.1026824688388457
3.7253515424053787,-0.7994082568217965,1.9531858504788275,1.9577232112512957,3.0871925149971005
3.724746295363943,-0.8001364182020247,1.9503805229104656,1.956972272857218,3.0707805182631622
3.724103986313691,-0.8009111587300662,1.9474091472226656,1.9561731783053251,3.05347757616477
3.7234252192419834,-0.8017320086990642,1.9442752631469093,1.955326396504569,3.0353147862296623
3.7227105981361817,-0.8025984984021617,1.9409824104146798,1.9544323963639036,3.0163232459855784
3.721960726983647,-0.8035101581325015,1.9375341287574586,1.9534916467922818,2.996534052960258
3.721176209771742,-0.8044665181832269,1.9339339579067283,1.952504616698657,2.97597830468144
3.7203576504878266,-0.8054671088474809,1.930185437593971,1.9514717749919823,2.9546870986768634
3.7195056531192625,-0.8065114604184062,1.9262921075506694,1.9503935905812109,2.932691532474266
3.7186208216534116,-0.8075991031891462,1.9222575075083053,1.9492705323752961,2.910022703601389
3.717703760077635,-0.8087295674528436,1.918085177198361,1.9481030692831913,2.88671170958597
3.716755072379293,-0.8099023835026419,1.913778656352319,1.9468916702138495,2.8627896479557484
3.715775362545749,-0.8111170816316835,1.9093414847016612,1.945636804076224,2.8382876162384636
3.714765234564363,-0.8123731921331119,1.9047772019778704,1.9443389397792679,2.813236711961854
3.713725292422496,-0.8136702453000698,1.9000893479124283,1.9429985462319346,2.787668032653659
3.7126561401075104,-0.8150077714257005,1.8952814622368175,1.9416160923431773,2.761612675841618
3.711558381606767,-0.8163853008031469,1.8903570846825204,1.9401920470219491,2.7351017390534698
3.710432620907628,-0.8178023637255519,1.885319754981019,1.9387268791772032,2.708166319816953
3.7092794619974536,-0.8192584904860587,1.8801730128637957,1.937221057717893,2.6808375156598077
3.7080995088636057,-0.8207532113778103,1.8749203980623326,1.9356750515529717,2.653146424109772
3.7068933654934453,-0.8222860566939497,1.8695654503081118,1.9340893295913926,2.625124142694585
3.7056616358743346,-0.8238565567276198,1.864111709332616,1.9324643607421088,2.5968017689419867
3.7044049239936343,-0.8254642417719638,1.8585627148673274,1.9308006139140732,2.568210400379715
3.703123833838706,-0.8271086421201246,1.8529220066437282,1.9290985580162396,2.5393811345355095
3.701818969396911,-0.8287892880652453,1.8471931243933006,1.927358661957561,2.5103450689371094
3.70049093465561,-0.8305057099004689,1.8413796078475269,1.9255813946469906,2.481133301112254
3.6991403336021658,-0.8322574379189384,1.8354849967378892,1.9237672249934816,2.451776928588681
3.6977677702239387,-0.8340440024137968,1.82951283079587,1.9219166219059873,2.422307048894131
3.69637384850829,-0.8358649336781871,1.8234666497529515,1.9200300542934607,2.3927547595563423
3.694959172442582,-0.8377197620052524,1.8173499933406159,1.9181079910648555,2.3631511581030544
3.693524346014175,-0.8396080176881358,1.8111664012903457,1.9161509011291245,2.3335273420620055
3.692069973210431,-0.8415292310199801,1.8049194133336228,1.9141592533952212,2.303914408960936
3.690596658018711,-0.8434829322939285,1.7986125692019295,1.9121335167720983,2.274343456327584
3.6891050044263767,-0.8454686518031239,1.7922494086267486,1.9100741601687097,2.2448455816896886
3.687595616420789,-0.8474859198407094,1.7858334713395616,1.9079816524940083,2.2154518825749894
3.6860690979893103,-0.849534266699828,1.7793682970718514,1.9058564626569474,2.1861934565112247
3.6845260531193005,-0.8516132226736227,1.7728574255550997,1.9036990595664802,2.157101401026134
3.682967085798122,-0.8537223180552366,1.7663043965207894,1.9015099121315597,2.1282068136474557
3.6813928000131355,-0.8558610831378127,1.7597127497004024,1.8992894892611394,2.0995407919029305
3.6798037997517032,-0.8580290482144939,1.753086024825421,1.8970382598641726,2.0711344333202963
3.6782006890011862,-0.8602257435784233,1.7464277616273274,1.8947566928496125,2.043018835427292
3.676584071748945,-0.8624506995227439,1.7397414998376037,1.8924452571264119,2.0152250957516564
3.6749545519823417,-0.8647034463405989,1.7330307791877329,1.8901044216035245,1.9877843118211296
3.673312733688738,-0.866983514325131,1.7262991394091964,1.8877346551899035,1.9607275811634506
3.6716592208554943,-0.8692904337694835,1.7195501202334769,1.8853364267945014,1.9340860013063577
3.669994617469973,-0.8716237349667991,1.7127872613920567,1.8829102053262727,1.90789066977759
3.6683195275195346,-0.8739829482102213,1.7060141026164177,1.8804564596941695,1.882172684104887
3.666634554991541,-0.8763676037928928,1.6992341836380427,1.877975658807146,1.8569631418159875
3.6649403038733532,-0.8787772320079567,1.6924510441884137,1.8754682715741544,1.832293140438631
3.663237378152333,-0.8812113631485559,1.6856682239990128,1.8729347669041483,1.8081937775005557
3.6615263818158414,-0.8836695275078335,1.6788892628013223,1.8703756137060814,1.7846961505295018
3.6598079188512402,-0.8861512553789326,1.672117700326825,1.8677912808889066,1.7618313570532076
3.6580825932458896,-0.888656077054996,1.6653570763070025,1.8651822373615767,1.7396304945994119
3.6563510089871527,-0.8911835228291671,1.6586109304733372,1.8625489520330458,1.7181246606958547
3.6546137700623897,-0.8937331229945886,1.6518828025573118,1.8598918938122662,1.6973449528702738
3.652871480458962,-0.8963044078444037,1.645176232290408,1.8572115316081919,1.6773224686504096
3.6511247441642314,-0.8988969076717553,1.6384947594041082,1.8545083343297755,1.658088305564
3.6493741651655593,-0.9015101527697864,1.631841923629895,1.8517827708859707,1.6396735611387854
3.647620347450306,-0.9041436734316403,1.6252212646992505,1.8490353101857304,1.6221093329025031
3.6458638950058346,-0.9067969999504597,1.6186363223436566,1.8462664211380082,1.605426718382894
3.644105411819505,-0.9094696626193877,1.6120906362945961,1.843476572651757,1.5896568151076953
3.6423455018786792,-0.9121611917315673,1.605587746283551,1.84066623363593,1.574830720604648
3.6405847691707187,-0.9148711175801416,1.5991311920420037,1.8378358729994808,1.5609795324014901
3.6388238176829844,-0.9175989704582537,1.592724513301436,1.834985959651362,1.548134348025961
3.637063251402838,-0.9203442806590463,1.586371249793331,1.8321169625005271,1.536326265005799
3.6353036743176403,-0.9231065784756628,1.5800749412491704,1.8292293504559298,1.5255863808687433
3.633545690414754,-0.9258853942012462,1.5738391274004364,1.8263235924265229,1.5159457931425333
3.6317899036815393,-0.9286802581289392,1.5676673479786116,1.8234001573212595,1.5074355993549085
3.6300369181053576,-0.9314907005518849,1.561563142715178,1.8204595140490931,1.5000868970336074
3.6282873376735707,-0.9343162517632266,1.555530051341618,1.817502131518977,1.4939307837063698
3.6265417663735398,-0.9371564420561072,1.5495716135894138,1.814528478639864,1.4889983569009333
3.6248008081926257,-0.9400108017236696,1.5436913691900476,1.8115390243207077,1.4853207141450384
3.623065067118191,-0.9428788610590567,1.537892857875002,1.808534237470461,1.482928952966423
3.621335147137596,-0.9457601503554119,1.5321796193757586,1.8055145869980775,1.4818541708928272
3.6196116522382025,-0.948654199905878,1.5265551934238004,1.80248054181251,1.4821274654519896
3.617895186407372,-0.951560540003598,1.5210231197506092,1.7994325708227124,1.483779934171649
3.6161863536324654,-0.9544787009417149,1.5155869380876674,1.7963711429376372,1.4868426745795449
3.6144857579008445,-0.957408213013372,1.5102501881664578,1.7932967270662379,1.491346784203417
3.6127940031998707,-0.960348606511712,1.5050164097184617,1.7902097921174678,1.4973233605710026
3.611111693516905,-0.9632994117298781,1.4998891424751617,1.7871108070002804,1.5048035012100418
3.6094394328393085,-0.9662601589610132,1.4948719261680405,1.784000240623628,1.5138183036482729
3.6077778251544435,-0.9692303784982604,1.48996830052858,1.7808785618964649,1.524398865413437
3.60612747444967,-0.9722096006347627,1.4851818052882622,1.7777462397277437,1.5365762840332713
3.604488984712351,-0.9751973556636631,1.48051598017857,1.7746037430264177,1.5503816570355151
3.602862959929847,-0.9781931738781048,1.4759743649309853,1.7714515407014402,1.5658460819479072
3.6012500040895192,-0.9811965855712304,1.4715604992769902,1.7682901016617645,1.5830006562981889
3.599650721178729,-0.9842071210361835,1.4672779229480675,1.7651198948163438,1.6018764776140961
3.598065715184839,-0.9872243105661064,1.4631301756756985,1.7619413890741311,1.6225046434233703
3.5964955900952083,-0.9902476844541428,1.4591207971913667,1.7587550533440799,1.6449162512537474
3.5949409498972,-0.9932767729934353,1.4552533272265533,1.7555613565351433,1.6691423986329705
3.5934023985781747,-0.9963111064771272,1.4515313055127415,1.7523607675562745,1.695214183088777
3.5918805401254943,-0.9993502151983613,1.4479582717814128,1.749153755316427,1.7231627021489055
3.5903759785265197,-1.0023936294502809,1.4445377657640501,1.7459407887245535,1.7530190533410943
3.5888893177686123,-1.0054408795260286,1.441273327192135,1.7427223366896076,1.7848143341930829
3.587421161839134,-1.0084914957187479,1.4381684957971503,1.7394988681205428,1.8185796422326126
3.5859721147254455,-1.0115450083215813,1.435226811310578,1.7362708519263115,1.8543460749874203
3.5845427804149086,-1.0146009476276723,1.4324518134639002,1.7330387570158676,1.8921447299852439
3.5831337628948843,-1.0176588439301635,1.4298470419885998,1.7298030522981642,1.932006704753828
3.5817456661527345,-1.0207182275221984,1.4274160366161583,1.7265642066821543,1.9739630968209037
3.58037909417582,-1.0237786286969195,1.4251623370780584,1.7233226890767912,2.0180450037142155
3.579034650951502,-1.0268395777474704,1.423089483105782,1.7200789683910285,2.0642835229615013
3.5777129404671424,-1.0299006049669936,1.4212010144308125,1.716833513533819,2.1127097520905
3.5764145667101026,-1.0329612406486326,1.4195004707846306,1.713586793414116,2.1633547886289497
3.5751401336677437,-1.0360210150855298,1.4179913918987195,1.7103392769408727,2.2162497301045905
3.5738902453274273,-1.0390794585708287,1.416677317504561,1.7070914330230424,2.2714256740451626
3.572665505676514,-1.0421361013976722,1.4155617873336381,1.7038437305695786,2.328913717978401
3.5714665187023664,-1.0451904738592033,1.4146483411174322,1.700596638489434,2.3887449594320502
3.570293888392345,-1.048242106248565,1.4139405185874263,1.6973506256915623,2.4509504959338466
3.5691482187338113,-1.0512905288589005,1.4134418594751021,1.6941061610849162,2.515561425011529
3.568030113714127,-1.0543352719833525,1.4131559035119419,1.6908637135784494,2.5826088441928343
3.5669401773206526,-1.057375865915064,1.4130861904294283,1.687623752081115,2.6521238510055065
3.5658790135407505,-1.0604118409471788,1.4132362599590433,1.6843867455018664,2.7241375429772807
3.564847226361782,-1.0634427273728388,1.4136096518322694,1.681153162749656,2.798681017635899
3.5638454197711074,-1.066468055485188,1.4142099057805886,1.6779234727334382,2.875785372509097
3.562874197756089,-1.0694873555773687,1.4150405615354835,1.6746981443621654,2.955481705124618
3.561934164304088,-1.0725001579425242,1.416105158828436,1.6714776465447911,3.0378011130101967
3.561025923402466,-1.0755059928737976,1.4174072373909286,1.6682624481902686,3.1227746936935734
3.560150079038584,-1.078504390664332,1.4189503369544436,1.665053018207551,3.2083666585912196
3.5593072351998027,-1.08149488160727,1.4207379972504628,1.6618498255055913,3.2929957604320643
3.5584979958734846,-1.084476995995755,1.4227737580104691,1.658653338993343,3.3766659752282684
3.557722965046991,-1.0874502641229298,1.425061158965944,1.6554640275797596,3.4593812789919536
3.5569827467076824,-1.0904142162819377,1.4276037398483712,1.652282360173794,3.5411456477352807
3.5562779448429205,-1.0933683827659215,1.4304050403892317,1.6491088056843994,3.621963057470377
3.5556091634400677,-1.096312293868024,1.433468600320008,1.6459438330205292,3.7018374842094053
3.5549770064864834,-1.0992454798813889,1.4367979593721825,1.6427879110911363,3.780772903964486
3.5543820779695308,-1.1021674710991587,1.440396657277237,1.6396415088051741,3.8587732927477782
3.55382498187657,-1.1050777978144763,1.4442682337666544,1.636505095071596,3.935842626571411
3.5533063221949632,-1.1079759903204853,1.4484162285719162,1.633379138799355,4.011984881447544
3.552826702912072,-1.1108615789103284,1.4528441814245063,1.6302641088974044,4.087204033388299
3.5523867280152563,-1.1137340938771483,1.4575556320559055,1.6271604742746977,4.1615040584058365
3.5519870014918786,-1.1165930655140888,1.4625541201975962,1.6240687038401878,4.234888932512284
3.5516281273293004,-1.119438024114292,1.4678431855810612,1.6209892665028278,4.3073626317198075
3.5513107095148824,-1.1222684999709014,1.4734263679377821,1.617922631171571,4.37892913204052
3.5510353520359867,-1.12508402337706,1.479307206999242,1.6148692667553708,4.449592409486584
3.5508026588799737,-1.1278841246259108,1.4854892424969224,1.6118296421631806,4.519356440070133
3.5506132340342056,-1.1306683340105972,1.4919760141623062,1.6088042263039533,4.588225199803315
3.550467681486043,-1.1334361818242613,1.4987710617268746,1.605793488086642,4.656202664698273
3.550366605222848,-1.1361871983600471,1.5058779249221108,1.6027978964202,4.7232928107671395
3.5503106092319814,-1.138920913911097,1.5133001434794973,1.5998179202135812,4.789499614022073
3.5503002975008053,-1.141636858770554,1.5208161553965722,1.596854028375738,4.8548270504752065
3.5503362740166806,-1.144334563231562,1.5282382088618687,1.593906689815624,4.919279096138686
3.5504191427669687,-1.1470135575872626,1.5355667222098006,1.5909763734421922,4.982859727024644
3.5505495077390306,-1.1496733721308,1.5428021137747812,1.588063548164396,5.045572919145238
3.550727972920228,-1.1523135371553168,1.5499448018912256,1.5851686828911884,5.107422648512599
3.5509551422979224,-1.1549335829539558,1.556995204893547,1.5822922465315234,5.168412891138883
3.5512316198594753,-1.1575330398198602,1.563953741116159,1.5794347079943531,5.228547623036213
3.551558009592247,-1.1601114380461732,1.5708208288934755,1.5765965361886316,5.287830820216753
3.5519349154836,-1.162668307926038,1.5775968865599113,1.5737782000233116,5.346266458692626
3.5523629415208955,-1.165203179752597,1.5842823324498798,1.5709801684073466,5.403858514475994
3.5527390174965667,-1.1677155838189937,1.5908775848977936,1.5682029102496895,5.460610963578976
3.5529644410740353,-1.1702050504183705,1.5973830622380685,1.5654468944592939,5.516527782013737
3.5530401036684935,-1.1726711098438711,1.603799182805118,1.562712589945113,5.571612945792406
3.5529668966951276,-1.1751132923886387,1.6101263649333548,1.5600004656161,5.6258704309271375
3.5527457115691274,-1.1775311283458156,1.6163650269571945,1.5573109903812077,5.679304213430056
3.5523774397056824,-1.179924148008545,1.62251558721105,1.55464463314939,5.731918269313326
3.551862972519981,-1.1822918816699701,1.6285784640293353,1.5520018628295995,5.7837165745890715
3.5512032014272137,-1.1846338596232342,1.6345540757464634,1.5493831483307898,5.83470310526944
3.550399017842567,-1.1869496121614795,1.6404428406968496,1.5467889585619143,5.884881837366583
3.5494513131812315,-1.1892386695778498,1.646245177214908,1.5442197624319258,5.934256746892638
3.548360978858396,-1.1915005621654877,1.6519615036350506,1.5416760288497777,5.982831809859739
3.5471289062892497,-1.1937348202175366,1.6575922382916932,1.5391582267244233,6.030611002280034
3.5457559868889823,-1.1959409740271392,1.663137799519249,1.5366668249648154,6.077598300165677
3.5442431120727798,-1.1981185538874384,1.6685986056521311,1.5342022924799077,6.123797679528796
3.5425911732558344,-1.2002670900915775,1.6739750750247548,1.5317650981786535,6.169213116381545
3.5408010618533328,-1.2023861129326998,1.6792676259715333,1.5293557109700058,6.21384858673605
3.5388736692804663,-1.2044751527039474,1.6844766768268804,1.5269745997629178,6.25770806660447
3.536809886952421,-1.2065337396984646,1.6896026459252096,1.5246222334663426,6.300795531998936
3.5346106062843896,-1.208561404209393,1.6946459516009358,1.5222990809892338,6.3431149589316025
3.532276718691558,-1.2105576765298767,1.6996070121884723,1.5200056112405442,6.3846703234146
3.529809115589117,-1.2125220869530582,1.7044862460222325,1.5177422931292273,6.425465601460085
3.5272086883922533,-1.2144541657720809,1.7092840714366315,1.5155095955642366,6.465504769080184
3.5244763285161578,-1.2163534432800873,1.714000906766083,1.5133079874545246,6.504791802287053
3.5216129273760197,-1.218219449770221,1.7186371703449987,1.5111379377090448,6.543330677092824
3.518619376387027,-1.2200517155356247,1.7231932805077956,1.508999915236751,6.581125369509648
3.515496566964369,-1.2218497708694414,1.7276696555888864,1.5068943889465958,6.618179855549657
3.512245390523235,-1.2236131460648139,1.7320667139226846,1.504821827747533,6.65449811122501
3.5088667384788144,-1.2253413714148862,1.7363848738436034,1.5027827005485146,6.690084112547832
3.505361502246295,-1.2270339772127998,1.7406245536860585,1.5007774762584951,6.7249418355302835
3.501730573240866,-1.228690493751699,1.7447861717844622,1.498806623786427,6.759075256184493
3.4979748428777175,-1.2303104513247263,1.748870146473229,1.4968706120412643,6.7924883505226035
3.494095202572037,-1.2318933802250247,1.7528768960867736,1.4949699099319593,6.82518509455677
3.490092543739014,-1.2334388107457375,1.7568068389595086,1.4931049863674657,6.85716946429912
3.485967757793838,-1.2349462731800076,1.760660393425848,1.4912763102567368,6.8884454357618035
3.4817217361516986,-1.2364152978209777,1.7644379778202075,1.4894843505087256,6.919016984956963
3.477355370227782,-1.2378454149617912,1.7681400104769986,1.4877295760323856,6.948888087896744
3.4728695514372827,-1.239236154895591,1.771766909730636,1.4860124557366698,6.978062720593287
3.468265171195382,-1.2405870479155199,1.775319093915534,1.4843334585305314,7.006544859058726
3.463543120917276,-1.2418976243147215,1.7787969813661066,1.4826930533229237,7.034338479305218
3.458704292018147,-1.2431674143863383,1.7822009904167668,1.4810917090228002,7.0614475573449
3.4537495759131915,-1.244395948423513,1.785531539401929,1.4795298945391133,7.087876069189901
3.4486798640175933,-1.2455827567193896,1.7887890466560084,1.478008078780817,7.113627990852385
3.4434960477465406,-1.2467273695671106,1.791973930513417,1.4765267306568646,7.138707298344477
3.4381990185152267,-1.2478293172598192,1.795086609308568,1.4750863190762087,7.163117967678341
3.432789667738839,-1.2488881300906578,1.7981275013758777,1.4736873129478028,7.186863974866092
3.4272688868325645,-1.2499033383527707,1.8010970250497595,1.4723301811806002,7.2099492959199
3.4216375672115946,-1.2508744723392993,1.803995598664626,1.4710153926835545,7.232377906851885
3.4158966002911155,-1.2518010623433873,1.8068236405548914,1.469743416365618,7.2541537836742
3.4100468774863204,-1.2526826386581786,1.8095815690549706,1.4685147211357448,7.275280902398991
3.4040892902123945,-1.253518731576815,1.8122698024992765,1.4673297759028876,7.295763239038403
3.398024729884527,-1.25430887139244,1.8148887592222231,1.4661890495759997,7.315604769604559
3.39185408791791,-1.2550525883981967,1.8174388575582245,1.4650930110640346,7.334809470109622
3.3855782557277307,-1.2557494128872282,1.8199205158416953,1.4640421292759456,7.35338131656572
3.3791981247291765,-1.2563988751526773,1.822334152407048,1.4630368731206853,7.37132428498501
3.3727145863374393,-1.257000505487687,1.824680185588698,1.4620777115072072,7.388642351379626
3.3661285319677043,-1.2575538341854005,1.8269590337210575,1.461165113344465,7.4053394917617155
3.3594408530351645,-1.2580583915389605,1.8291711151385415,1.4602995475414118,7.421419682143417
3.3526524409550067,-1.2585137078415105,1.8313168481755637,1.459481483007,7.436886898536859
3.345764187142421,-1.2589193133861927,1.833396651166539,1.4587113886501837,7.451745116954214
3.338776983012594,-1.2592747384661511,1.8354109424458787,1.4579897333799157,7.465998313407604
3.331691719980719,-1.2595795133745287,1.8373601403479989,1.4573169861051491,7.4796504639091825
3.3245092894619823,-1.2598331684044677,1.839244663207313,1.4566936157348378,7.492705544471078
3.317230582871572,-1.2600352338491114,1.841064929358235,1.4561200911779344,7.505167531105448
3.309856491624676,-1.2601852400016034,1.8428213571351784,1.4555968813433924,7.517040399824423
3.302387907136489,-1.2602827171550857,1.8445143648725566,1.4551244551401652,7.528328126640161
3.294825720822196,-1.2603271956027025,1.846144370904784,1.4547032814772054,7.539034687564782
3.2871708240969846,-1.2603182056375957,1.8477117935662752,1.4543338292634664,7.549164058610456
3.2794241083760456,-1.2602552775529092,1.8492170511914416,1.4540165674079022,7.558720215789297
3.27158646507457,-1.2601379416417857,1.8506605621147012,1.4537519648194652,7.567707135113476
3.2636587856077446,-1.2599657281973682,1.8520427446704648,1.453540490407109,7.576128792595108
3.255641961390757,-1.2597381675127994,1.853364017193147,1.4533826130797864,7.583989164246347
3.247536883838796,-1.2594547898812232,1.8546247980171624,1.453278801746451,7.591292226079348
3.239344444367057,-1.2591151255957815,1.8558255054769242,1.453229525316056,7.598041954106241
3.231065534390723,-1.2587187049496182,1.8569665579068455,1.453235252697555,7.604242324339172
3.222701045324983,-1.2582650582358763,1.8580483736413411,1.4532964527999004,7.609897312790283
3.2142518685850265,-1.257753715747698,1.8590713710148261,1.4534135945320459,7.615010895471702
3.205718895586043,-1.2571842077782267,1.860035968361712,1.4535871468029447,7.619587048395601
3.1971030177432262,-1.2565560646206062,1.8609425840164147,1.4538175785215497,7.623629747574105
3.188405126471756,-1.2558688165679783,1.8617916363133473,1.454105358596815,7.627142969019355
3.179626113186829,-1.255121993913487,1.862583543586923,1.4544509559376926,7.630130688743501
3.170766869303631,-1.2543151269502746,1.8633187241715563,1.4548548394531369,7.632596882758673
3.1618282862373497,-1.253447745971485,1.8639975964016617,1.4553174780521003,7.634545527077023
3.1528112554031775,-1.2525193812702604,1.8646205786116523,1.4558393406435366,7.635980597710699
3.143716668216299,-1.251529563139744,1.8651880891359423,1.4564208961363982,7.636906070671836
3.1345454160919086,-1.2504778218730788,1.8657005463089453,1.4570626134396392,7.637325921972579
3.125298390445191,-1.2493636877634082,1.8661583684650744,1.4577649614622126,7.637244127625069
3.115976482691337,-1.2481866911038748,1.866561973938745,1.4585284091130715,7.636664663641451
3.1065805842455347,-1.246946362187622,1.8669117810643712,1.4593534253011688,7.635591506033867
3.0971115865229737,-1.2456422313077924,1.8672082081763657,1.4602404789354584,7.634028630814457
3.087570380938843,-1.2442738287575292,1.8674516736091433,1.4611900389248929,7.631980013995367
3.0779578589083303,-1.2428406848299751,1.867642595697116,1.4622025741784261,7.629449631588731
3.068274911846628,-1.2413423298182742,1.867781392774701,1.4632785536050108,7.6264414596067045
3.0585224311689228,-1.2397782940155684,1.8678684831763086,1.4644184461136005,7.622959474061419
3.0487013082904033,-1.2381481077150014,1.8679042852363554,1.465622720613148,7.61900765096502
3.0388124346262577,-1.2364513012097156,1.8678892172892538,1.466891846012607,7.614589966329662
3.0288567015916774,-1.2346874047928544,1.8678236976694178,1.4682262912209305,7.60971039616747
3.018835000601851,-1.232855948757561,1.867708144711263,1.4696265251470717,7.604372916490597
3.0087482230719655,-1.2309564633969774,1.8675429767492013,1.4710930166999838,7.598581503311193
2.9985972604172106,-1.2289884790042485,1.8673286121176473,1.4726262347886203,7.5923401326413735
2.9883830040527766,-1.2269515258725157,1.8670654691510133,1.4742266483219346,7.585652780493303
2.9781063453938543,-1.2248451342949227,1.8667539661837158,1.475894726208879,7.578523422879114
2.9677681758556265,-1.222668834564612,1.8663945215501692,1.4776309373584073,7.570956035810974
2.957369386853285,-1.2204221569747276,1.8659875535847834,1.479435750679473,7.562954595300994
2.9469108698020214,-1.2181046318184114,1.8655334806219757,1.4813096350810289,7.554523077361322
2.9363935161170236,-1.2157672514037456,1.865032720996159,1.4832530594720286,7.545665458004114
2.925818217213479,-1.2134706994851236,1.8644856930417475,1.4852664927614248,7.536385713241508
2.9151858645065776,-1.2112147101852644,1.8638928150931535,1.487350403858171,7.526687819085641
2.904497349411507,-1.2089990176268959,1.8632545054847935,1.4895052616712203,7.516575751548652
2.893753563343462,-1.20682335593274,1.862571182551079,1.4917315351095266,7.506053486642694
2.882955397717621,-1.2046874592255248,1.8618432646264251,1.494029693082042,7.495125000379918
2.872103743949182,-1.2025910616279722,1.8610711700452465,1.496400204497721,7.483794268772444
2.8611994934533294,-1.2005338972628095,1.8602553171419547,1.4988435382655156,7.4720652678324235
2.8502435376452584,-1.1985157002527589,1.8593961242509665,1.5013601632943798,7.4599419735720005
2.8392367679401485,-1.1965362047205481,1.8584940097066929,1.5039505484932663,7.447428362003333
2.8281800757531936,-1.1945951447889005,1.8575493918435504,1.5066151627711293,7.43452840913854
2.817074352499586,-1.192692254580542,1.856562688995949,1.5093544750369208,7.421246090989763
2.8059204895945093,-1.1908272682181962,1.8555343194983074,1.5121689541995944,7.407585383569151
2.7947193784531548,-1.1889999198245884,1.854464701685037,1.5150590691681038,7.3935502628888745
2.783471910490711,-1.1872099435224444,1.8533542538905534,1.518025288851402,7.3791447049610355
2.7721789771223664,-1.1854570734344874,1.8522033944492673,1.5210680821584417,7.364372685797788
2.760841469763314,-1.1837410436834457,1.8510125416955947,1.5241879179981768,7.349238181411284
2.7494602798287358,-1.1820615883920385,1.8497821139639496,1.527385265279561,7.33374516781366
2.7380362987338254,-1.1804184416829968,1.8485125295887455,1.5306605929115458,7.317897621017071
2.7265704178937713,-1.1788113376790408,1.8472042069043957,1.5340143698030857,7.30169951703364
2.7150635287237646,-1.1772400105028995,1.845857564245314,1.5374470648631338,7.285154831875509
2.7035165226389903,-1.1757041942772948,1.844473019945915,1.5409591470006436,7.268267541554833
2.691930291054636,-1.174203623124953,1.8430509923406142,1.5445510851245672,7.251041622083765
2.6803057253858955,-1.172738031168597,1.8415918997638232,1.5482233481438594,7.233481049474413
2.668643717047957,-1.1713071525309542,1.8400961605499562,1.5519764049674722,7.215589799738954
2.6569451574560063,-1.169910721334748,1.8385641930334278,1.555810724504359,7.197371848889514
2.6452109380252353,-1.1685484717027053,1.8369964155486505,1.5597267756634732,7.178831172938249
2.6334419501708344,-1.1672201377575468,1.8353932464300404,1.5637250273537677,7.15997174789727
2.621639085307988,-1.165925453622003,1.833755104012009,1.5678059484841969,7.140797549778764
2.6098032348518867,-1.1646641534187936,1.832082406628972,1.5719700079637127,7.1213125545948195
2.5979352902177197,-1.1634359712706472,1.8303755726153432,1.5762176747012688,7.101520738357642
2.5860361428206784,-1.1622406413002864,1.8286350203055346,1.5805494176058184,7.081426077079328
2.5741066840759528,-1.1610778976304377,1.8268611680339628,1.584965705586315,7.061032546772029
2.562147805398723,-1.1599474743838247,1.82505443413504,1.5894670075517117,7.040344123447902
2.550160398204188,-1.158849105683174,1.8232152369431793,1.5940537924109615,7.019364783119055
2.5381453539075283,-1.1577825256512095,1.8213439947927974,1.5987265290730175,6.998098501797706
2.526103563923943,-1.156747468410654,1.8194411260183057,1.603485686446834,6.976549255495907
2.5140359196686113,-1.1557436680842366,1.8175070489541187,1.608331733441362,6.954721020225854
2.5019433125567287,-1.154770858794679,1.8155421819346511,1.613265138965557,6.932617771999688
2.489826634003479,-1.153828774664708,1.8135469432943148,1.618286371928371,6.9102434868295255
2.4776867754240577,-1.152917149817047,1.8115217513675255,1.6233959012387587,6.88760214072752
2.4655246282336485,-1.1520357183744214,1.8094670244886966,1.6285941958056709,6.864697709705819
2.453341083847441,-1.151184214459557,1.8073831809922423,1.6338817245380626,6.841534169776576
2.4411370336806275,-1.1503623721951783,1.8052706392125777,1.6392589563448867,6.818115496951897
2.4289133691483915,-1.149569925704008,1.803129817484114,1.6447263601350959,6.79444566724397
2.416670981665928,-1.1488066091087743,1.8009611341412661,1.6502844048176444,6.770528656664904
2.4044107626484212,-1.1480721565322012,1.7987650075184485,1.655933559301484,6.746368441226867
2.3921336035110645,-1.147366302097012,1.7965418559500739,1.6616742924955692,6.721968996942007
2.379840395669042,-1.1466887799259324,1.7942920977705565,1.6675070733088528,6.697334299822408
2.3675320305375447,-1.1460393241416882,1.7920161513143107,1.6734323706502883,6.672468325880271
2.3552093995317653,-1.1454176688670037,1.7897144349157519,1.679450653428828,6.6473750511277245
2.342873394066885,-1.1448235482246039,1.7873873669092908,1.685562390553426,6.622058451576912
2.3305249055581037,-1.1442566963372134,1.7850353656293438,1.6917680509330348,6.596522503239953
2.318164825420598,-1.1437168473275574,1.782658849410324,1.6980681034766096,6.570771182129029
2.3057940450695646,-1.1432037353183613,1.7802582365866435,1.7044630170931008,6.544808464256228
2.2934134559201933,-1.1427170944323484,1.77783394549272,1.710953260691464,6.518638325633773
2.2810239493876656,-1.1422566587922462,1.775386394462965,1.7175393031806507,6.492264742273736
2.26862641688718,-1.1418221625207772,1.7729160018317924,1.7242216134696142,6.46569169018829
2.2562217498339177,-1.1414133397406665,1.7704231859336161,1.7310006604673092,6.4389231453895555
2.243810839643074,-1.1410299245746403,1.767908365102849,1.7378769130826872,6.411963083889706
2.2313945777298345,-1.1406716511454236,1.7653719576739069,1.7448508402247032,6.38481548170088
2.218973855509388,-1.1403382535757383,1.7628143819812054,1.751922910802309,6.357484314835194
2.20654956439692,-1.1400294659883128,1.7602360563591546,1.7590935937244585,6.3299735593048005
2.1941225958076274,-1.139745022505871,1.7576373991421677,1.7663633579001052,6.3022871911218665
2.1816938411566973,-1.1394846572511377,1.7550188286646637,1.7737326722382014,6.2744291862985015
2.1692641918593134,-1.1392481043468365,1.7523807632610509,1.781202005647701,6.246403520846858
2.156834539330668,-1.139035097915695,1.7497236212657472,1.7887718270375563,6.218214170779081
2.1444057749859544,-1.138845372080436,1.7470478210131657,1.796442605316722,6.189865112107306
2.1319787902403498,-1.138678660963784,1.7443537808377187,1.8042148093941504,6.161360320843727
2.1195544765090535,-1.1385346986884672,1.741641919073821,1.8120889081787954,6.132703773000422
2.1071337252072535,-1.1384132193772054,1.7389126540558872,1.8200653705796088,6.103899444589551
2.0947174277501377,-1.1383139571527292,1.7361664041183311,1.8281446655055453,6.074951311623263
2.082306475552892,-1.1382366461377578,1.733403587595563,1.8363272618655575,6.045863350113699
2.0699017600307092,-1.1381810204550213,1.7306246228220021,1.8446136285685988,6.016639536072983
2.057504172598775,-1.1381468142272404,1.727829928132059,1.8530042345236226,5.987283845513321
2.045114604672282,-1.1381337615771425,1.7250199218601505,1.8614995486395807,5.95780025444677
2.032733947666417,-1.1381415966274524,1.7221950223406859,1.8701000398254286,5.9281927388855316
2.0203630929963685,-1.138170053500894,1.7193556479080838,1.8788061769901185,5.898465274841712
2.008002932077325,-1.1382188663201924,1.716502216896755,1.8876184290426035,5.868621838327488
1.995654356324481,-1.1382877692080735,1.7136351476411162,1.896537264891836,5.838666405354971
1.9833182571530186,-1.1383764962872598,1.710754858475576,1.9055631534467712,5.808602951936361
1.9709955259781307,-1.1384847816804788,1.7078617677345531,1.91469656361636,5.778435454083713
1.9586870542150052,-1.138612359510455,1.7049562937524607,1.9239379643095575,5.748167887809217
1.9463937332788275,-1.138758963899912,1.7020388548637135,1.933287824435316,5.717804229125015
1.9341164545847942,-1.138924328971575,1.6991098694027231,1.9427466129025897,5.6873484540432635
1.9218561095480888,-1.1391081888481713,1.6961697557039037,1.9523147986203306,5.656804538576104
1.9096135895839002,-1.1393102776524218,1.6932189321016708,1.9619928504974928,5.626176458735639
1.8973897861074267,-1.1395303295070534,1.6902578169304348,1.971781237443028,5.595468190534046
1.8851855905338404,-1.1397680785347923,1.6872868285246136,1.981680428365892,5.5646837099834485
1.8730018942783406,-1.1400232588583625,1.6843063852186195,1.9916908921750354,5.533826993095996
1.860839588756117,-1.1402956046004862,1.6813169053468662,2.0018130977794137,5.502902015883851
1.8486995653823577,-1.1405848498838944,1.6783188072437691,2.012047514087979,5.471912754359138
1.8365827155722512,-1.1408907288313044,1.6753125092437364,2.022394610009684,5.440863184533999
1.824489930740981,-1.141212975565447,1.6722984296811902,2.032854854453483,5.409757282420571
1.8124221023037475,-1.1415513242090456,1.6692769868905422,2.043428716328328,5.378599024031004
1.8003801216757287,-1.1419055088848236,1.6662485992062015,2.0541166645431743,5.347392385377432
1.7883648802721197,-1.1422752637155074,1.663213684962586,2.0649064436058513,5.316141342472015
1.7763772695081066,-1.1426603228238221,1.66017266249411,2.0756812417750625,5.284849871326898
1.764418180798879,-1.14306042033249,1.657125950135185,2.086440113436079,5.253521947954212
1.7524885055596302,-1.1434752903642393,1.654073966220226,2.0971821129742114,5.222161548366074
1.7405891352055454,-1.143904667041793,1.651017129083645,2.107906294774758,5.190772648574658
1.7287209611518088,-1.1443482844878772,1.6479558570598605,2.1186117132230287,5.15935922459213
1.7168848748136174,-1.1448058768252136,1.6448905684832824,2.129297422704324,5.127925252430579
1.705081767606158,-1.1452771781765323,1.6418216816883269,2.1399624776039463,5.096474708102193
1.6933125309446178,-1.1457619226645543,1.6387496150094063,2.1506059323072098,5.065011567619067
1.6815780562441907,-1.1462598444120076,1.635674786780935,2.1612268411994062,5.033539806993382
1.6698792349200575,-1.1467706775416135,1.632597615337326,2.1718242586658576,5.002063402237262
1.6582169583874098,-1.1472941561760996,1.6295185190129944,2.182397239091854,4.970586329362881
1.646592118061439,-1.1478300144381888,1.6264379161423554,2.192944836862699,4.939112564382327
1.6350056053573354,-1.148377986450606,1.6233562250598204,2.2034661063637113,4.907646083307796
1.6234583116902872,-1.1489378063360807,1.6202738640998047,2.2139601019801827,4.87619086215139
1.6119511284754804,-1.1495092082173324,1.6171912515967208,2.2244258780974224,4.844750876925261
1.600484947128102,-1.1500919262170872,1.6141088058849826,2.234862489100731,4.813330103641576
1.5890606590633496,-1.15068569445807,1.6110269452990056,2.2452689893754165,4.781932518312459
1.577679155696405,-1.1512902470630086,1.6079460881732057,2.2556444333067915,4.750562096950077
1.5663413284424603,-1.1519053181546246,1.6048666528419915,2.2659878752801497,4.719222815566511
1.5550480687167028,-1.1525306418556447,1.6017890576397797,2.276298369680797,4.68791865017397
1.5438002679343228,-1.1531659522887918,1.5987137209009834,2.286574970894037,4.656653576784549
1.532598817510511,-1.153810983576793,1.5956410609600185,2.296816733305185,4.625431571410452
1.5214446088604507,-1.1544654698423722,1.5925714961512973,2.307022711299533,4.594256610063745
1.5103385333993344,-1.155129145208254,1.5895054448092312,2.3171919592623897,4.563132668756602
1.4992814825423526,-1.1558017437971637,1.5864433252682382,2.3273235315790597,4.532063723501182
1.488274347704694,-1.156482999731827,1.5833855558627308,2.337416482634854,4.501053750309609
1.4773180203015421,-1.1571726471349688,1.5803325549271232,2.347469866815066,4.470106725194029
1.4664133917480981,-1.1578704201293104,1.5772847407958297,2.357482738505011,4.439226624166615
1.4555613534595366,-1.158576052837581,1.5742425318032618,2.3674541520899854,4.408417423239477
1.4447627968510517,-1.159289279382504,1.5712063462838337,2.3773831619552954,4.3776830984247255
1.4340186133378392,-1.1600098338868055,1.5681766025719615,2.387268822486252,4.347027625734569
1.4233296943350773,-1.1607374504732073,1.5651537190020601,2.3971101880681527,4.31645498118111
1.4126969312579618,-1.161471863264436,1.5621381139085404,2.406906313086303,4.285969140776508
1.4021212155216833,-1.1622128063832187,1.5591302056258174,2.416656251926007,4.2555740805329165
1.391603438541427,-1.162960013952278,1.5561304124883026,2.4263590589725776,4.225273776462444
1.3811444917323819,-1.1637132200943379,1.553139152830413,2.4360137886113105,4.195072204577237
1.3707452665097328,-1.1644721589321247,1.5501568449865628,2.4456194952275183,4.164973340889489
1.3604066542886795,-1.1652365645883638,1.5471839072911644,2.455175233206486,4.134981161411261
1.3501295464844034,-1.1660061711857814,1.5442207580786338,2.4646800569335454,4.105099642154769
1.339914834512097,-1.1667807128470988,1.5412678156833826,2.4741330207939853,4.075332759132145
1.3297634097869437,-1.1675599236950407,1.5383254984398205,2.4835331791731097,4.045684488355477
1.319676163724143,-1.1683435378523348,1.5353942246823724,2.4928795864562296,4.016158805836973
1.3096539877388693,-1.1691312894417067,1.5324744127454428,2.5021712970286423,3.9867596875887372
1.2996977732463186,-1.169922912585879,1.5295664809634486,2.5114073652756623,3.957491109622879
1.2898084116616868,-1.1707181414075771,1.526670847670803,2.5205868455825904,3.9283570479516285
1.2799867944001555,-1.1715167100295245,1.5237879312019222,2.529708792334727,3.8993614785870605
1.2702338128769153,-1.1723183525744498,1.5209181498912194,2.5387722599173745,3.87050837754137
1.260550358507155,-1.173122803165076,1.5180619220731062,2.547776302715855,3.8418017208266733
1.2509373227060632,-1.1739297959241268,1.5152196660819985,2.5567199751154472,3.8132454844550807
1.2413955968888288,-1.174739064974328,1.512391800252308,2.565602331501479,3.78484364443878
1.2319260724706371,-1.1755503444384034,1.5095787429184506,2.574422426259238,3.7566001767899095
1.2225296408666768,-1.1763633684390808,1.5067809124148406,2.583179313774041,3.7285190575205363
1.213207193492158,-1.1771778710990843,1.503998727075892,2.591872048431183,3.700604262642962
1.203959621762241,-1.1779935865411377,1.5012326052360176,2.6004996846159756,3.672859768169161
1.1947878170921342,-1.1788102488879644,1.4984829652296296,2.609061276713719,3.6452895501113574
1.1856926708970086,-1.1796275922622939,1.495750225391145,2.6175558791097213,3.6178975844817316
1.1766750745920707,-1.1804453507868446,1.4930348040549744,2.62598254618929,3.590687847292301
1.1677359195924986,-1.1812632585843468,1.4903371195555373,2.634340332337727,3.563664314555375
1.15887609731349,-1.1820810497775227,1.4876575902272426,2.642628291940328,3.5368309622829273
1.15009649917023,-1.1828984584891002,1.4849966344045038,2.6508454793824026,3.510191766487253
1.1413980165778987,-1.1837152188418019,1.4823546704217412,2.6589909490492616,3.4837507031803767
1.1327815409517044,-1.18453106495835,1.4797321166133584,2.667063755326211,3.4575117483745075
1.1242479637068143,-1.1853457309614748,1.4771293913137793,2.6750629525985428,3.4314788780817906
1.1157981762584352,-1.1861589509738986,1.4745469128574111,2.682987595251573,3.405656068314265
1.1074330700217452,-1.186970459118347,1.4719850995786707,2.6908367376706064,3.380047295084225
1.099153536411933,-1.1877799895175447,1.4694443698119724,2.698609434240936,3.3546565344037234
1.0909604668441997,-1.1885872762942147,1.4669251418917275,2.7063047393478765,3.32948776228492
1.0828547527337165,-1.1893920535710842,1.4644278341523522,2.7139217073767323,3.304544954739974
1.0748372854956862,-1.1901940554708772,1.461952864928258,2.721459392712804,3.2798320877809957
1.0669089565453014,-1.1909930161163191,1.4595006525538645,2.7289168497413954,3.2553531374201583
1.0590706572977346,-1.191788669630133,1.4570716153635752,2.7362931328478144,3.231112079669572
1.0513232791681855,-1.1925807501350456,1.4546661716918141,2.743587296417367,3.207112890541417
1.0436677135718373,-1.1933689917537857,1.452284739872991,2.750798394835355,3.1833595460478037
1.0361048519238878,-1.1941531286090687,1.4499277382415192,2.7579254824870834,3.1598560222009056
1.028635585639515,-1.1949328948236286,1.4475955851318156,2.7649676137578574,3.1366062950128537
1.021260806133924,-1.195708024520183,1.445288698878291,2.7719238430329796,3.113614340495751
1.0139814048222853,-1.1964782518214632,1.4430074978153593,2.778793224697754,3.090884134661792
1.0067982731197986,-1.197243310850189,1.440752400277436,2.785574813137492,3.0684196535230868
0.9997123024416457,-1.1980029357290904,1.4385238245989322,2.792267662737494,3.0462248730918304
0.992724384203024,-1.1987568605808874,1.436322189114267,2.7988708278830643,3.024303769380076
0.9858354098191224,-1.1995048195283053,1.43414791215785,2.8053833629595104,3.0026603184000464
0.9790462707051226,-1.2002465466940748,1.4320014120640971,2.811804322352133,2.981298496163866
0.9723578582762222,-1.2009817762009147,1.4298831071674227,2.8181327604462307,2.9602222786836236
0.9657710639475976,-1.2017102421715489,1.4277934158022347,2.824367731627124,2.9394356419715493
0.9592867791344482,-1.2024316787287082,1.4257327563029554,2.8305082902801004,2.9189425620397316
0.9529058952519627,-1.203145819995116,1.4237015470039927,2.8365534907904806,2.8987470149003087
0.9466293037153228,-1.2038524000934938,1.4217002062397617,2.8425023875435595,2.8788529765654545
0.9404578959397227,-1.2045511531465696,1.4197291523446838,2.8483540349246432,2.8592644230472715
0.9343925633403565,-1.2052418132770644,1.417788803653159,2.854107487319034,2.839985330357969
0.9284341973324022,-1.2059241146077087,1.4158795784996094,2.8597617991120448,2.8210196745096
0.9225836893310593,-1.2065977912612258,1.4140018952184548,2.865316024688971,2.802371431514352
0.9168419307515094,-1.2072625773603347,1.412156172144094,2.870769218435127,2.7840445773843996
0.9112098130089485,-1.2079182070277676,1.410342827610954,2.8761204347358067,2.766043088131852
0.9056882275185494,-1.208564414386247,1.4085622799534452,2.8813687279763194,2.74837093976884
0.9002780656955238,-1.2092009335584981,1.4068149475059748,2.886513152541971,2.7310321083075593
0.8949802189550411,-1.2098274986672441,1.405101248602966,2.891552762818069,2.7140305697600553
0.8897955787123042,-1.2104438438352112,1.4034216015788266,2.8964866131899107,2.6973703001385445
0.8847250363824912,-1.2110497031851253,1.4017764247679771,2.9013137580427983,2.6810552754551793
0.8797694833808052,-1.2116448108397098,1.4001661365048221,2.9060332517620484,2.6650894717220694
0.8749298111224206,-1.212228900921689,1.3985911551237846,2.9106441487329597,2.649476864951353
0.8702069110225388,-1.2128017075537896,1.3970518989592726,2.9151455033408293,2.634221431155183
0.8656016744963342,-1.2133629648587352,1.3955487863457012,2.919536369970979,2.619327146345711
0.8611149929590063,-1.2139124069592526,1.3940822356174838,2.9238158030087025,2.6047979865350754
0.8567477578257421,-1.2144497679780661,1.3926526651090372,2.9279828568392983,2.590637927735372
0.8525008605117268,-1.2149747820378964,1.3912604931547703,2.93203658584809,2.5768509459588387
0.8483751924321545,-1.215487183261474,1.389906138089101,2.9359760444203538,2.5634410172175706
0.8443716450022194,-1.2159867057715221,1.388590018246446,2.939800286941427,2.550412117523692
0.8404911096371013,-1.2164730836907642,1.3873125519612115,2.9435083677965856,2.537768222889369
0.836734477751989,-1.2169460511419254,1.3860741575678146,2.947099341371157,2.5255133093266693
0.8331026407620712,-1.2174053422477336,1.384875253400672,2.9505722620504358,2.513651352847887
0.8295964900825439,-1.2178506911309102,1.3837162577941973,2.953926184219714,2.5021863294650473
0.8262169171285887,-1.218281831914183,1.3825975890828,2.9571601622643158,2.491122215190316
0.8229648133153908,-1.2186984987202711,1.381519665600898,2.960273250569543,2.4804629860358602
0.8198410700581569,-1.2191004256719067,1.3804829056829018,2.963264503520694,2.4702126180137753
0.8168465787720613,-1.2194873468918113,1.3794877276632267,2.966132975503072,2.4603750871362564
0.8139822308723019,-1.21985899650271,1.3785345498762895,2.968877720901986,2.4509543694154416
0.8112489177740585,-1.2202151086273272,1.377623790656501,2.9714977941027385,2.4419544408634266
0.8086475308925216,-1.220555417388388,1.3767558683382752,2.9739922494906352,2.4333792774924063
0.8061789616428854,-1.220879656908619,1.3759312012560283,2.9763601414509857,2.425232855314448
0.8038441014403368,-1.2211875613107432,1.3751502077441682,2.9786005243690887,2.417519150341846
0.8016438417000629,-1.2214788647174872,1.3744133061371144,2.9807124526302466,2.410242138586554
0.7995790738372612,-1.2217533012515736,1.3737209147692813,2.982694980619762,2.403405796060852
0.7976506892671082,-1.2220106050357273,1.3730734519750811,2.9845471627229507,2.3970140987768076
0.7958595794047945,-1.222250510192679,1.3724713360889265,2.9862680533251122,2.391071022746601
0.7942066356655175,-1.222472750845145,1.3719149854452333,2.9878567068115522,2.3855805439823996
0.7926927494644609,-1.2226770611158546,1.371404818378414,2.989312177567566,2.3805466384962557
0.791318812216808,-1.2228631751275314,1.370941253222881,2.9906335199784735,2.3759732823003787
0.7900857153377601,-1.223030827002904,1.370524708313054,2.9918197884295665,2.371864451406907
0.7889943502425041,-1.2231797508646949,1.3701556019833436,2.9928700373061545,2.368224121828021
0.7880456083462235,-1.2233096808356256,1.3698343525681604,2.9937833209935434,2.36505626957576
0.7872403810641018,-1.223420351038425,1.3695613784019187,2.9945586938770354,2.362364870662347
0.7865795598113401,-1.2235114955958188,1.3693370978190398,2.9951952103419472,2.3601539010998778
0.7860640360031255,-1.223582848630529,1.3691619291539308,2.99569192477356,2.358427336900519
0.7856947010546413,-1.2236341442652812,1.369036290741004,2.9960478915571933,2.357189154076451
0.7854724463810783,-1.2236651166228016,1.3689606009146829,2.99626216507815,2.3564433286397843
0.7853981633976197,-1.223675499825812,1.3689352780093724,2.9963337997217288,2.3561938366026283
