oscarkremer/mentor-optimization/notebooks/traject_2/non_adaptive/angles_19.csv
theta1,theta2,theta3,theta4,theta5
3.7295952571373574,-0.7943678438589166,1.973043134264813,1.9629173631838936,3.2059965904706873
3.729572296892299,-0.7943945779497745,1.9720928688858967,1.9628947393086684,3.2053230692517074
3.729503818815365,-0.7944744670844434,1.9699152009182415,1.9628271161104163,3.2033232372799265
3.729390426893916,-0.7946070415560664,1.9675198226154864,1.9627148662302734,3.2000281920830833
3.7292327251153146,-0.7947918316577867,1.965916426231272,1.9625583623093747,3.1954690311889173
3.7290313174669216,-0.7950283676827472,1.9661147040192382,1.9623579769888566,3.189676852125168
3.7287868079360975,-0.7953161799240906,1.969124348233024,1.9621140829098542,3.182682752419574
3.728499800510205,-0.7956547986749606,1.9736187932530656,1.9618270527135035,3.1745178295998744
3.7281708991766047,-0.7960437542284995,1.9780619187289203,1.96149725904094,3.165213181193808
3.727800707922658,-0.7964825768778507,1.9824538963545142,1.9611250745332993,3.1547999047291144
3.727389830735726,-0.7969707969161574,1.9867948978237717,1.9607108718317174,3.143309097733532
3.7269388716031715,-0.7975079446365622,1.9910850948306178,1.9602550235773297,3.1307718577348007
3.726448434512354,-0.7980935503322082,1.9953246590689775,1.959757902411272,3.117219282260659
3.725919123450636,-0.7987271442962387,1.999513762232775,1.9592198809746797,3.1026824688388457
3.7253515424053787,-0.7994082568217965,2.0036525760159356,1.9586413319086886,3.0871925149971005
3.724746295363943,-0.8001364182020247,2.0077412721123835,1.9580226278544344,3.0707805182631622
3.724103986313691,-0.8009111587300662,2.0117800222160445,1.957364141453053,3.05347757616477
3.7234252192419834,-0.8017320086990642,2.0157689980208424,1.9566662453456796,3.0353147862296623
3.7227105981361817,-0.8025984984021617,2.0197083712207027,1.95592931217345,3.0163232459855784
3.721960726983647,-0.8035101581325015,2.0235983135095497,1.9551537145775002,2.996534052960258
3.721176209771742,-0.8044665181832269,2.0274389965813087,1.9543398251989657,2.97597830468144
3.7203576504878266,-0.8054671088474809,2.031230592129905,1.9534880166789819,2.9546870986768634
3.7195056531192625,-0.8065114604184062,2.0349732718492617,1.9525986616586846,2.932691532474266
3.7186208216534116,-0.8075991031891462,2.038667207433305,1.9516721327792097,2.910022703601389
3.717703760077635,-0.8087295674528436,2.042312570575959,1.9507088026816926,2.88671170958597
3.716755072379293,-0.8099023835026419,2.045909532971149,1.949709044007269,2.8627896479557484
3.715775362545749,-0.8111170816316835,2.0494582663127994,1.9486732293970745,2.8382876162384636
3.714765234564363,-0.8123731921331119,2.0529589422948353,1.9476017314922454,2.813236711961854
3.713725292422496,-0.8136702453000698,2.056411732611182,1.9464949229339163,2.787668032653659
3.7126561401075104,-0.8150077714257005,2.0598168089557634,1.9453531763632237,2.761612675841618
3.711558381606767,-0.8163853008031469,2.0631743430225042,1.9441768644213029,2.7351017390534698
3.710432620907628,-0.8178023637255519,2.06648450650533,1.9429663597492897,2.708166319816953
3.7092794619974536,-0.8192584904860587,2.0697474710981654,1.9417220349883195,2.6808375156598077
3.7080995088636057,-0.8207532113778103,2.072963408494935,1.9404442627795282,2.653146424109772
3.7068933654934453,-0.8222860566939497,2.0761324903895635,1.9391334157640516,2.625124142694585
3.7056616358743346,-0.8238565567276198,2.0792548884759756,1.937789866583025,2.5968017689419867
3.7044049239936343,-0.8254642417719638,2.082330774448097,1.9364139878775846,2.568210400379715
3.703123833838706,-0.8271086421201246,2.085360319999851,1.9350061522888655,2.5393811345355095
3.701818969396911,-0.8287892880652453,2.088343696825164,1.9335667324580037,2.5103450689371094
3.70049093465561,-0.8305057099004689,2.0912810766179604,1.9320961010261346,2.481133301112254
3.6991403336021658,-0.8322574379189384,2.094172631072164,1.9305946306343942,2.451776928588681
3.6977677702239387,-0.8340440024137968,2.0970185318817007,1.929062693923918,2.422307048894131
3.69637384850829,-0.8358649336781871,2.0998189507404947,1.9275006635358414,2.3927547595563423
3.694959172442582,-0.8377197620052524,2.102574059342471,1.9259089121113007,2.3631511581030544
3.693524346014175,-0.8396080176881358,2.1052840293815547,1.9242878122914309,2.3335273420620055
3.692069973210431,-0.8415292310199801,2.1079490325516703,1.922637736717368,2.303914408960936
3.690596658018711,-0.8434829322939285,2.1105692405467424,1.9209590580302476,2.274343456327584
3.6891050044263767,-0.8454686518031239,2.1131448250606963,1.9192521488712053,2.2448455816896886
3.687595616420789,-0.8474859198407094,2.115675957787456,1.917517381881377,2.2154518825749894
3.6860690979893103,-0.849534266699828,2.1181628104209476,1.9157551297018982,2.1861934565112247
3.6845260531193005,-0.8516132226736227,2.1206055546550946,1.9139657649739046,2.157101401026134
3.682967085798122,-0.8537223180552366,2.123004362183823,1.9121496603385317,2.1282068136474557
3.6813928000131355,-0.8558610831378127,2.1253594047010567,1.9103071884369154,2.0995407919029305
3.6798037997517032,-0.8580290482144939,2.1276708539007205,1.9084387219101913,2.0711344333202963
3.6782006890011862,-0.8602257435784233,2.1299388814767397,1.906544633399495,2.043018835427292
3.676584071748945,-0.8624506995227439,2.1321636591230386,1.9046252955459622,2.0152250957516564
3.6749545519823417,-0.8647034463405989,2.134345358533543,1.9026810809907284,1.9877843118211296
3.673312733688738,-0.866983514325131,2.1364841514021764,1.9007123623749296,1.9607275811634506
3.6716592208554943,-0.8692904337694835,2.1385802094228645,1.8987195123397012,1.9340860013063577
3.669994617469973,-0.8716237349667991,2.140633704289532,1.896702903526179,1.90789066977759
3.6683195275195346,-0.8739829482102213,2.1426448076961027,1.8946629085754987,1.882172684104887
3.666634554991541,-0.8763676037928928,2.144613691336503,1.8925999001287959,1.8569631418159875
3.6649403038733532,-0.8787772320079567,2.1465405269046567,1.8905142508272061,1.832293140438631
3.663237378152333,-0.8812113631485559,2.1484254860944887,1.8884063333118652,1.8081937775005557
3.6615263818158414,-0.8836695275078335,2.1502687405999246,1.886276520223909,1.7846961505295018
3.6598079188512402,-0.8861512553789326,2.1520704621148874,1.8841251842044726,1.7618313570532076
3.6580825932458896,-0.888656077054996,2.153830822333304,1.881952697894692,1.7396304945994119
3.6563510089871527,-0.8911835228291671,2.155549992949098,1.8797594339357033,1.7181246606958547
3.6546137700623897,-0.8937331229945886,2.1572281456561946,1.8775457649686413,1.6973449528702738
3.652871480458962,-0.8963044078444037,2.1588654521485187,1.8753120636346423,1.6773224686504096
3.6511247441642314,-0.8988969076717553,2.160462084119995,1.8730587025748417,1.658088305564
3.6493741651655593,-0.9015101527697864,2.1620182132645476,1.8707860544303754,1.6396735611387854
3.647620347450306,-0.9041436734316403,2.1635340112761026,1.868494491842379,1.6221093329025031
3.6458638950058346,-0.9067969999504597,2.1650096498485834,1.8661843874519877,1.605426718382894
3.644105411819505,-0.9094696626193877,2.1664453006759157,1.8638561139003376,1.5896568151076953
3.6423455018786792,-0.9121611917315673,2.167841135452024,1.8615100438285643,1.574830720604648
3.6405847691707187,-0.9148711175801416,2.1691973258708335,1.8591465498778037,1.5609795324014901
3.6388238176829844,-0.9175989704582537,2.1705140436262687,1.8567660046891912,1.548134348025961
3.637063251402838,-0.9203442806590463,2.1717914604122543,1.854368780903862,1.536326265005799
3.6353036743176403,-0.9231065784756628,2.1730297479227154,1.8519552511629527,1.5255863808687433
3.633545690414754,-0.9258853942012462,2.1742290778515767,1.8495257881075986,1.5159457931425333
3.6317899036815393,-0.9286802581289392,2.175389621892763,1.847080764378935,1.5074355993549085
3.6300369181053576,-0.9314907005518849,2.176511551740199,1.8446205526180979,1.5000868970336074
3.6282873376735707,-0.9343162517632266,2.1775950390878096,1.8421455254662231,1.4939307837063698
3.6265417663735398,-0.9371564420561072,2.1786402556295195,1.839656055564446,1.4889983569009333
3.6248008081926257,-0.9400108017236696,2.1796473730592534,1.8371525155539024,1.4853207141450384
3.623065067118191,-0.9428788610590567,2.1806165630709367,1.8346352780757276,1.482928952966423
3.621335147137596,-0.9457601503554119,2.1815479973584937,1.832104715771058,1.4818541708928272
3.6196116522382025,-0.948654199905878,2.1824418476158494,1.8295612012810285,1.4821274654519896
3.617895186407372,-0.951560540003598,2.183298285536928,1.8270051072467752,1.483779934171649
3.6161863536324654,-0.9544787009417149,2.184117482815655,1.8244368063094338,1.4868426745795449
3.6144857579008445,-0.957408213013372,2.1848996111459553,1.8218566711101398,1.491346784203417
3.6127940031998707,-0.960348606511712,2.1856448422217536,1.819265074290029,1.4973233605710026
3.611111693516905,-0.9632994117298781,2.1863533477369743,1.8166623884902369,1.5048035012100418
3.6094394328393085,-0.9662601589610132,2.1870252993855424,1.814048986351899,1.5138183036482729
3.6077778251544435,-0.9692303784982604,2.187660868861383,1.8114252405161513,1.524398865413437
3.60612747444967,-0.9722096006347627,2.1882602278584202,1.8087915236241292,1.5365762840332713
3.604488984712351,-0.9751973556636631,2.1888235480705798,1.8061482083169689,1.5503816570355151
3.602862959929847,-0.9781931738781048,2.1893510011917856,1.8034956672358056,1.5658460819479072
3.6012500040895192,-0.9811965855712304,2.189842758915963,1.800834273021775,1.5830006562981889
3.599650721178729,-0.9842071210361835,2.1902989929370364,1.7981643983160127,1.6018764776140961
3.598065715184839,-0.9872243105661064,2.1907198749489316,1.7954864157596546,1.6225046434233703
3.5964955900952083,-0.9902476844541428,2.1911055766455725,1.7928006979938362,1.6449162512537474
3.5949409498972,-0.9932767729934353,2.1914562697208835,1.7901076176596933,1.6691423986329705
3.5934023985781747,-0.9963111064771272,2.1917721258687908,1.7874075473983615,1.695214183088777
3.5918805401254943,-0.9993502151983613,2.192053316783218,1.7847008598509764,1.7231627021489055
3.5903759785265197,-1.0023936294502809,2.1923000141580906,1.7819879276586736,1.7530190533410943
3.5888893177686123,-1.0054408795260286,2.192512389687333,1.7792691234625888,1.7848143341930829
3.587421161839134,-1.0084914957187479,2.1926906150648704,1.7765448199038578,1.8185796422326126
3.5859721147254455,-1.0115450083215813,2.1928348619846263,1.7738153896236164,1.8543460749874203
3.5845427804149086,-1.0146009476276723,2.1929453021405276,1.7710812052629998,1.8921447299852439
3.5831337628948843,-1.0176588439301635,2.1930221072264975,1.7683426394631443,1.932006704753828
3.5817456661527345,-1.0207182275221984,2.1930654489364616,1.765600064865185,1.9739630968209037
3.58037909417582,-1.0237786286969195,2.193075498964345,1.7628538541102579,2.0180450037142155
3.579034650951502,-1.0268395777474704,2.193052429004071,1.7601043798394982,2.0642835229615013
3.5777129404671424,-1.0299006049669936,2.192996410749566,1.7573520146940422,2.1127097520905
3.5764145667101026,-1.0329612406486326,2.1929076158947542,1.754597131315025,2.1633547886289497
3.5751401336677437,-1.0360210150855298,2.1927862161335603,1.7518401023435826,2.2162497301045905
3.5738902453274273,-1.0390794585708287,2.192632383159909,1.7490813004208507,2.2714256740451626
3.572665505676514,-1.0421361013976722,2.1924462886677256,1.7463210981879649,2.328913717978401
3.5714665187023664,-1.0451904738592033,2.192228104350934,1.7435598682860605,2.3887449594320502
3.570293888392345,-1.048242106248565,2.1919780019034603,1.740797983356274,2.4509504959338466
3.5691482187338113,-1.0512905288589005,2.1916961530192287,1.73803581603974,2.515561425011529
3.568030113714127,-1.0543352719833525,2.191382729392164,1.735273738977595,2.5826088441928343
3.5669401773206526,-1.057375865915064,2.1910379027161904,1.7325121248109745,2.6521238510055065
3.5658790135407505,-1.0604118409471788,2.1906618446852333,1.7297513461810137,2.7241375429772807
3.564847226361782,-1.0634427273728388,2.1902547269932175,1.7269917757288487,2.798681017635899
3.5638454197711074,-1.066468055485188,2.1898167213340676,1.7242337860956154,2.875785372509097
3.562874197756089,-1.0694873555773687,2.189347999401709,1.7214777499224487,2.955481705124618
3.561934164304088,-1.0725001579425242,2.188848732890066,1.718724039850485,3.0378011130101967
3.561025923402466,-1.0755059928737976,2.1883190934930634,1.7159730285208596,3.1227746936935734
3.560150079038584,-1.078504390664332,2.187759252904626,1.7132250885747082,3.2083666585912196
3.5593072351998027,-1.08149488160727,2.187169382818679,1.7104805926531665,3.2929957604320643
3.5584979958734846,-1.084476995995755,2.1865496549291468,1.7077399133973703,3.3766659752282684
3.557722965046991,-1.0874502641229298,2.185900240929954,1.7050034234484548,3.4593812789919536
3.5569827467076824,-1.0904142162819377,2.1852213125150257,1.7022714954475562,3.5411456477352807
3.5562779448429205,-1.0933683827659215,2.184513041378287,1.69954450203581,3.621963057470377
3.5556091634400677,-1.096312293868024,2.1837755992136625,1.6968228158543517,3.7018374842094053
3.5549770064864834,-1.0992454798813889,2.1830091577150768,1.6941068095443172,3.780772903964486
3.5543820779695308,-1.1021674710991587,2.182213888576454,1.691396855746842,3.8587732927477782
3.55382498187657,-1.1050777978144763,2.181389963491721,1.6886933271030617,3.935842626571411
3.5533063221949632,-1.1079759903204853,2.180537554154801,1.6859965962541121,4.011984881447544
3.552826702912072,-1.1108615789103284,2.1796568322596186,1.683307035841129,4.087204033388299
3.5523867280152563,-1.1137340938771483,2.1787479695000997,1.6806250185052478,4.1615040584058365
3.5519870014918786,-1.1165930655140888,2.1778111375701688,1.6779509168876041,4.234888932512284
3.5516281273293004,-1.119438024114292,2.17684650816375,1.6752851036293344,4.3073626317198075
3.5513107095148824,-1.1222684999709014,2.1758542529747684,1.672627951371573,4.37892913204052
3.5510353520359867,-1.12508402337706,2.1748345436971497,1.6699798327554565,4.449592409486584
3.5508026588799737,-1.1278841246259108,2.1737875520248178,1.6673411204221202,4.519356440070133
3.5506132340342056,-1.1306683340105972,2.1727134496516975,1.6647121870127002,4.588225199803315
3.550467681486043,-1.1334361818242613,2.1716124082717143,1.6620934051683316,4.656202664698273
3.550366605222848,-1.1361871983600471,2.1704845995787916,1.6594851475301509,4.7232928107671395
3.5503106092319814,-1.138920913911097,2.169330195266856,1.6568877867392922,4.789499614022073
3.5503002975008053,-1.141636858770554,2.1681493670298306,1.6543016954368932,4.8548270504752065
3.5503362740166806,-1.144334563231562,2.1669422865616417,1.6517272462640877,4.919279096138686
3.5504191427669687,-1.1470135575872626,2.1657091255562126,1.6491648118620126,4.982859727024644
3.5505495077390306,-1.1496733721308,2.16445005570747,1.646614764871803,5.045572919145238
3.550727972920228,-1.1523135371553168,2.163165248709337,1.6440774779345948,5.107422648512599
3.5509551422979224,-1.1549335829539558,2.161854876255739,1.6415533236915238,5.168412891138883
3.5512316198594753,-1.1575330398198602,2.1605191100406014,1.6390426747837248,5.228547623036213
3.551558009592247,-1.1601114380461732,2.159158121757848,1.6365459038523347,5.287830820216753
3.5519349154836,-1.162668307926038,2.1577720831014044,1.6340633835384886,5.346266458692626
3.5523629415208955,-1.165203179752597,2.156361165765195,1.631595486483322,5.403858514475994
3.5527390174965667,-1.1677155838189937,2.154925541443145,1.6291425853279706,5.460610963578976
3.5529644410740353,-1.1702050504183705,2.1534653818291782,1.62670505271357,5.516527782013737
3.5530401036684935,-1.1726711098438711,2.1519808586172204,1.6242832612812563,5.571612945792406
3.5529668966951276,-1.1751132923886387,2.1504721435011964,1.621877583672165,5.6258704309271375
3.5527457115691274,-1.1775311283458156,2.14893940817503,1.6194883925274315,5.679304213430056
3.5523774397056824,-1.179924148008545,2.1473828243326474,1.6171160604881918,5.731918269313326
3.551862972519981,-1.1822918816699701,2.1458025636679725,1.6147609601955812,5.7837165745890715
3.5512032014272137,-1.1846338596232342,2.1441987978749304,1.6124234642907356,5.83470310526944
3.550399017842567,-1.1869496121614795,2.142571698647446,1.6101039454147907,5.884881837366583
3.5494513131812315,-1.1892386695778498,2.1409214376794434,1.607802776208882,5.934256746892638
3.548360978858396,-1.1915005621654877,2.1392481866648483,1.6055203293141456,5.982831809859739
3.5471289062892497,-1.1937348202175366,2.1375521172975853,1.6032569773717165,6.030611002280034
3.5457559868889823,-1.1959409740271392,2.1358334012715794,1.6010130930227304,6.077598300165677
3.5442431120727798,-1.1981185538874384,2.1340922102807545,1.5987890489083239,6.123797679528796
3.5425911732558344,-1.2002670900915775,2.1323287160190363,1.5965852176696314,6.169213116381545
3.5408010618533328,-1.2023861129326998,2.130543090180349,1.5944019719477898,6.21384858673605
3.5388736692804663,-1.2044751527039474,2.1287355044586174,1.5922396843839337,6.25770806660447
3.536809886952421,-1.2065337396984646,2.1269061305477672,1.5900987276191991,6.300795531998936
3.5346106062843896,-1.208561404209393,2.1250551401417224,1.587979474294722,6.3431149589316025
3.532276718691558,-1.2105576765298767,2.1231827049344076,1.5858822970516382,6.3846703234146
3.529809115589117,-1.2125220869530582,2.1212889966197483,1.5838075685310824,6.425465601460085
3.5272086883922533,-1.2144541657720809,2.1193741868916693,1.5817556613741912,6.465504769080184
3.5244763285161578,-1.2163534432800873,2.117438447444095,1.5797269482221,6.504791802287053
3.5216129273760197,-1.218219449770221,2.1154819499709503,1.5777218017159442,6.543330677092824
3.518619376387027,-1.2200517155356247,2.11350486616616,1.5757405944968597,6.581125369509648
3.515496566964369,-1.2218497708694414,2.1115073677236493,1.5737836992059822,6.618179855549657
3.512245390523235,-1.2236131460648139,2.1094896263373424,1.571851488484447,6.65449811122501
3.5088667384788144,-1.2253413714148862,2.1074518137011644,1.5699443349733906,6.690084112547832
3.505361502246295,-1.2270339772127998,2.10539410150904,1.5680626113139478,6.7249418355302835
3.501730573240866,-1.228690493751699,2.103316661454894,1.5662066901472544,6.759075256184493
3.4979748428777175,-1.2303104513247263,2.1012196652326516,1.5643769441144464,6.7924883505226035
3.494095202572037,-1.2318933802250247,2.0991032845362367,1.5625737458566595,6.82518509455677
3.490092543739014,-1.2334388107457375,2.096967691059575,1.5607974680150294,6.85716946429912
3.485967757793838,-1.2349462731800076,2.094813056496591,1.5590484832306912,6.8884454357618035
3.4817217361516986,-1.2364152978209777,2.09263955254121,1.557327164144781,6.919016984956963
3.477355370227782,-1.2378454149617912,2.090447350887356,1.5556338833984342,6.948888087896744
3.4728695514372827,-1.239236154895591,2.0882366232289535,1.5539690136327866,6.978062720593287
3.468265171195382,-1.2405870479155199,2.0860075412599284,1.5523329274889743,7.006544859058726
3.463543120917276,-1.2418976243147215,2.083760276674205,1.5507259976081325,7.034338479305218
3.458704292018147,-1.2431674143863383,2.0814950011657083,1.549148596631397,7.0614475573449
3.4537495759131915,-1.244395948423513,2.079211886428363,1.5476010971999028,7.087876069189901
3.4486798640175933,-1.2455827567193896,2.0769111041560935,1.5460838719547867,7.113627990852385
3.4434960477465406,-1.2467273695671106,2.0745928260428252,1.544597293537184,7.138707298344477
3.4381990185152267,-1.2478293172598192,2.0722572237824832,1.54314173458823,7.163117967678341
3.432789667738839,-1.2488881300906578,2.0699044690689914,1.5417175677490602,7.186863974866092
3.4272688868325645,-1.2499033383527707,2.0675347335962746,1.5403251656608108,7.2099492959199
3.4216375672115946,-1.2508744723392993,2.065148189058258,1.5389649009646176,7.232377906851885
3.4158966002911155,-1.2518010623433873,2.0627450071488664,1.5376371463016156,7.2541537836742
3.4100468774863204,-1.2526826386581786,2.0603253595620252,1.5363422743129411,7.275280902398991
3.4040892902123945,-1.253518731576815,2.057889417991658,1.5350806576397293,7.295763239038403
3.398024729884527,-1.25430887139244,2.0554373541316906,1.5338526689231162,7.315604769604559
3.39185408791791,-1.2550525883981967,2.052969339676047,1.5326586808042373,7.334809470109622
3.3855782557277307,-1.2557494128872282,2.0504855463186527,1.5314990659242282,7.35338131656572
3.3791981247291765,-1.2563988751526773,2.0479861457534323,1.530374196924225,7.37132428498501
3.3727145863374393,-1.257000505487687,2.0454713096743102,1.5292844464453623,7.388642351379626
3.3661285319677043,-1.2575538341854005,2.0429412097752118,1.5282301871287771,7.4053394917617155
3.3594408530351645,-1.2580583915389605,2.0403960177500617,1.527211791615604,7.421419682143417
3.3526524409550067,-1.2585137078415105,2.037835905292785,1.5262296325469795,7.436886898536859
3.345764187142421,-1.2589193133861927,2.0352610440973056,1.5252840825640388,7.451745116954214
3.338776983012594,-1.2592747384661511,2.032671605857549,1.5243755143079176,7.465998313407604
3.331691719980719,-1.2595795133745287,2.03006776226744,1.5235043004197515,7.4796504639091825
3.3245092894619823,-1.2598331684044677,2.027449685020903,1.5226708135406761,7.492705544471078
3.317230582871572,-1.2600352338491114,2.0248175458118634,1.5218754263118275,7.505167531105448
3.309856491624676,-1.2601852400016034,2.0221715163342457,1.5211185113743413,7.517040399824423
3.302387907136489,-1.2602827171550857,2.0195117682819745,1.5204004413693526,7.528328126640161
3.294825720822196,-1.2603271956027025,2.0168384733489746,1.5197215889379974,7.539034687564782
3.2871708240969846,-1.2603182056375957,2.014151803229171,1.5190823267214113,7.549164058610456
3.2794241083760456,-1.2602552775529092,2.011451929616489,1.5184830273607304,7.558720215789297
3.27158646507457,-1.2601379416417857,2.008739024204853,1.51792406349709,7.567707135113476
3.2636587856077446,-1.2599657281973682,2.0060132586881876,1.5174058077716257,7.576128792595108
3.255641961390757,-1.2597381675127994,2.0032748047604176,1.5169286328254732,7.583989164246347
3.247536883838796,-1.2594547898812232,2.0005238341154676,1.5164929112997683,7.591292226079348
3.239344444367057,-1.2591151255957815,1.9977605184472633,1.5160990158356467,7.598041954106241
3.231065534390723,-1.2587187049496182,1.9949850294497287,1.5157473190742436,7.604242324339172
3.222701045324983,-1.2582650582358763,1.9921975388167894,1.5154381936566954,7.609897312790283
3.2142518685850265,-1.257753715747698,1.989398218242369,1.515172012224137,7.615010895471702
3.205718895586043,-1.2571842077782267,1.9865872394203932,1.5149491474177048,7.619587048395601
3.1971030177432262,-1.2565560646206062,1.9837647740447868,1.514769971878534,7.623629747574105
3.188405126471756,-1.2558688165679783,1.9809309938094741,1.51463485824776,7.627142969019355
3.179626113186829,-1.255121993913487,1.9780860704083802,1.514544179166519,7.630130688743501
3.170766869303631,-1.2543151269502746,1.97523017553543,1.514498307275947,7.632596882758673
3.1618282862373497,-1.253447745971485,1.9723634808845483,1.514497615217179,7.634545527077023
3.1528112554031775,-1.2525193812702604,1.9694861581496594,1.5145424756313504,7.635980597710699
3.143716668216299,-1.251529563139744,1.966598379024689,1.5146332611595972,7.636906070671836
3.1345454160919086,-1.2504778218730788,1.963700315203561,1.5147703444430556,7.637325921972579
3.125298390445191,-1.2493636877634082,1.9607921383802012,1.5149540981228609,7.637244127625069
3.115976482691337,-1.2481866911038748,1.9578740202485332,1.5151848948401485,7.636664663641451
3.1065805842455347,-1.246946362187622,1.954946132502483,1.5154631072360543,7.635591506033867
3.0971115865229737,-1.2456422313077924,1.9520086468359747,1.5157891079517136,7.634028630814457
3.087570380938843,-1.2442738287575292,1.949061734942933,1.5161632696282625,7.631980013995367
3.0779578589083303,-1.2428406848299751,1.9461055685172832,1.516585964906837,7.629449631588731
3.068274911846628,-1.2413423298182742,1.9431403192529504,1.5170575664285721,7.6264414596067045
3.0585224311689228,-1.2397782940155684,1.9401661588438581,1.5175784468346036,7.622959474061419
3.0487013082904033,-1.2381481077150014,1.9371832589839322,1.5181489787660671,7.61900765096502
3.0388124346262577,-1.2364513012097156,1.9341917913670972,1.5187695348640986,7.614589966329662
3.0288567015916774,-1.2346874047928544,1.9311919276872778,1.5194404877698335,7.60971039616747
3.018835000601851,-1.232855948757561,1.928183839638399,1.5201622101244077,7.604372916490597
3.0087482230719655,-1.2309564633969774,1.9251676989143853,1.5209350745689567,7.598581503311193
2.9985972604172106,-1.2289884790042485,1.9221436772091618,1.521759453744616,7.5923401326413735
2.9883830040527766,-1.2269515258725157,1.9191119462166535,1.5226357202925214,7.585652780493303
2.9781063453938543,-1.2248451342949227,1.9160726776307846,1.5235642468538089,7.578523422879114
2.9677681758556265,-1.222668834564612,1.9130260431454804,1.5245454060696133,7.570956035810974
2.957369386853285,-1.2204221569747276,1.9099722144546656,1.5255795705810713,7.562954595300994
2.9469108698020214,-1.2181046318184114,1.9069113632522647,1.5266671130293181,7.554523077361322
2.9363935161170236,-1.2157672514037456,1.9038436612322032,1.5278084060554893,7.545665458004114
2.925818217213479,-1.2134706994851236,1.900769280088405,1.5290038223007203,7.536385713241508
2.9151858645065776,-1.2112147101852644,1.8976883915147957,1.5302537344061473,7.526687819085641
2.904497349411507,-1.2089990176268959,1.8946011672052996,1.5315585150129059,7.516575751548652
2.893753563343462,-1.20682335593274,1.891507778853842,1.5329185367621312,7.506053486642694
2.882955397717621,-1.2046874592255248,1.8884083981543471,1.53433417229496,7.495125000379918
2.872103743949182,-1.2025910616279722,1.88530319680074,1.5358057942525267,7.483794268772444
2.8611994934533294,-1.2005338972628095,1.8821923464869457,1.5373337752759677,7.4720652678324235
2.8502435376452584,-1.1985157002527589,1.8790760189068885,1.5389184880064184,7.4599419735720005
2.8392367679401485,-1.1965362047205481,1.8759543857544938,1.5405603050850145,7.447428362003333
2.8281800757531936,-1.1945951447889005,1.872827618723686,1.542259599152892,7.43452840913854
2.817074352499586,-1.192692254580542,1.8696958895083897,1.5440167428511857,7.421246090989763
2.8059204895945093,-1.1908272682181962,1.8665593698025305,1.5458321088210325,7.407585383569151
2.7947193784531548,-1.1889999198245884,1.8634182313000327,1.547706069703567,7.3935502628888745
2.783471910490711,-1.1872099435224444,1.8602726456948209,1.5496389981399252,7.3791447049610355
2.7721789771223664,-1.1854570734344874,1.8571227846808203,1.551631266771243,7.364372685797788
2.760841469763314,-1.1837410436834457,1.8539688199519555,1.553683248238656,7.349238181411284
2.7494602798287358,-1.1820615883920385,1.8508109232021512,1.5557953151833,7.33374516781366
2.7380362987338254,-1.1804184416829968,1.8476492661253325,1.5579678402463097,7.317897621017071
2.7265704178937713,-1.1788113376790408,1.8444840204154245,1.5602011960688218,7.30169951703364
2.7150635287237646,-1.1772400105028995,1.841315357766352,1.562495755291972,7.285154831875509
2.7035165226389903,-1.1757041942772948,1.8381434498720384,1.5648518905568949,7.268267541554833
2.691930291054636,-1.174203623124953,1.8349684684264091,1.5672699745047276,7.251041622083765
2.6803057253858955,-1.172738031168597,1.8317905851233907,1.569750379776605,7.233481049474413
2.668643717047957,-1.1713071525309542,1.8286099716569058,1.5722934790136625,7.215589799738954
2.6569451574560063,-1.169910721334748,1.8254267997208804,1.574899644857036,7.197371848889514
2.6452109380252353,-1.1685484717027053,1.8222412410092383,1.5775692499478615,7.178831172938249
2.6334419501708344,-1.1672201377575468,1.8190534672159053,1.5803026669272744,7.15997174789727
2.621639085307988,-1.165925453622003,1.8158636500348055,1.5831002684364104,7.140797549778764
2.6098032348518867,-1.1646641534187936,1.8126719611598645,1.5859624271164048,7.1213125545948195
2.5979352902177197,-1.1634359712706472,1.8094785722850069,1.588889515608394,7.101520738357642
2.5860361428206784,-1.1622406413002864,1.8062836551041568,1.591881906553513,7.081426077079328
2.5741066840759528,-1.1610778976304377,1.8030873813112391,1.5949399725928983,7.061032546772029
2.562147805398723,-1.1599474743838247,1.7998899226001797,1.5980640863676843,7.040344123447902
2.550160398204188,-1.158849105683174,1.7966914506649028,1.6012546205190081,7.019364783119055
2.5381453539075283,-1.1577825256512095,1.793492137199332,1.604511947688004,6.998098501797706
2.526103563923943,-1.156747468410654,1.7902921538973944,1.607836440515808,6.976549255495907
2.5140359196686113,-1.1557436680842366,1.7870916724530128,1.6112284716435565,6.954721020225854
2.5019433125567287,-1.154770858794679,1.783890864560113,1.614688413712385,6.932617771999688
2.489826634003479,-1.153828774664708,1.7806899019126194,1.618216639363429,6.9102434868295255
2.4776867754240577,-1.152917149817047,1.7774889562044576,1.6218135212378235,6.88760214072752
2.4655246282336485,-1.1520357183744214,1.7742881991295514,1.6254794319767047,6.864697709705819
2.453341083847441,-1.151184214459557,1.7710878023818262,1.6292147442212088,6.841534169776576
2.4411370336806275,-1.1503623721951783,1.7678879376552068,1.6330198306124704,6.818115496951897
2.4289133691483915,-1.149569925704008,1.764688776643617,1.6368950637916262,6.79444566724397
2.416670981665928,-1.1488066091087743,1.7614904910409832,1.640840816399811,6.770528656664904
2.4044107626484212,-1.1480721565322012,1.75829325254123,1.644857461078161,6.746368441226867
2.3921336035110645,-1.147366302097012,1.7550972328382812,1.6489453704678116,6.721968996942007
2.379840395669042,-1.1466887799259324,1.7519026036260614,1.6531049172098986,6.697334299822408
2.3675320305375447,-1.1460393241416882,1.7487095365984966,1.657336473945558,6.672468325880271
2.3552093995317653,-1.1454176688670037,1.7455182034495111,1.6616404133159242,6.6473750511277245
2.342873394066885,-1.1448235482246039,1.7423287758730295,1.6660171079621344,6.622058451576912
2.3305249055581037,-1.1442566963372134,1.739141425562977,1.670466930525324,6.596522503239953
2.318164825420598,-1.1437168473275574,1.735956324213278,1.6749902536466277,6.570771182129029
2.3057940450695646,-1.1432037353183613,1.7327736435178571,1.6795874499671821,6.544808464256228
2.2934134559201933,-1.1427170944323484,1.7295935551706403,1.684258892128123,6.518638325633773
2.2810239493876656,-1.1422566587922462,1.7264162308655513,1.6890049527705846,6.492264742273736
2.26862641688718,-1.1418221625207772,1.7232418422965154,1.693826004535704,6.46569169018829
2.2562217498339177,-1.1414133397406665,1.7200705611574572,1.6987224200646167,6.4389231453895555
2.243810839643074,-1.1410299245746403,1.7169025591423015,1.7036945719984573,6.411963083889706
2.2313945777298345,-1.1406716511454236,1.7137380079449729,1.7087428329783625,6.38481548170088
2.218973855509388,-1.1403382535757383,1.7105770792593966,1.7138675756454684,6.357484314835194
2.20654956439692,-1.1400294659883128,1.7074199447794975,1.7190691726409095,6.3299735593048005
2.1941225958076274,-1.139745022505871,1.7042667761991999,1.724347996605822,6.3022871911218665
2.1816938411566973,-1.1394846572511377,1.7011177452124284,1.7297044201813414,6.2744291862985015
2.1692641918593134,-1.1392481043468365,1.6979730235131092,1.7351388160086036,6.246403520846858
2.156834539330668,-1.139035097915695,1.6948327827951657,1.7406515567287435,6.218214170779081
2.1444057749859544,-1.138845372080436,1.691697194752523,1.7462430149828985,6.189865112107306
2.1319787902403498,-1.138678660963784,1.6885664310791066,1.7519135634122025,6.161360320843727
2.1195544765090535,-1.1385346986884672,1.6854406634688401,1.7576635746577922,6.132703773000422
2.1071337252072535,-1.1384132193772054,1.6823200636156497,1.7634934213608024,6.103899444589551
2.0947174277501377,-1.1383139571527292,1.6792048032134592,1.7694034761623698,6.074951311623263
2.082306475552892,-1.1382366461377578,1.676095053956194,1.7753941117036296,6.045863350113699
2.0699017600307092,-1.1381810204550213,1.6729909875377784,1.7814657006257166,6.016639536072983
2.057504172598775,-1.1381468142272404,1.669892775652138,1.787618615569768,5.987283845513321
2.045114604672282,-1.1381337615771425,1.6668005899931961,1.7938532291769194,5.95780025444677
2.032733947666417,-1.1381415966274524,1.6637146022548792,1.8001699140883038,5.9281927388855316
2.0203630929963685,-1.138170053500894,1.6606349841311108,1.8065690429450603,5.898465274841712
2.008002932077325,-1.1382188663201924,1.6575619073158163,1.8130509883883226,5.868621838327488
1.995654356324481,-1.1382877692080735,1.6544955435029203,1.8196161230592274,5.838666405354971
1.9833182571530186,-1.1383764962872598,1.651436064386348,1.8262648195989095,5.808602951936361
1.9709955259781307,-1.1384847816804788,1.6483836416600246,1.8329974506485052,5.778435454083713
1.9586870542150052,-1.138612359510455,1.645338447017873,1.8398143888491492,5.748167887809217
1.9463937332788275,-1.138758963899912,1.6423006521538208,1.8467160068419781,5.717804229125015
1.9341164545847942,-1.138924328971575,1.6392704287617905,1.8537026772681273,5.6873484540432635
1.9218561095480888,-1.1391081888481713,1.6362479485357078,1.860774772768733,5.656804538576104
1.9096135895839002,-1.1393102776524218,1.6332333831694972,1.8679326659849302,5.626176458735639
1.8973897861074267,-1.1395303295070534,1.630226904357084,1.875176729557854,5.595468190534046
1.8851855905338404,-1.1397680785347923,1.6272286837923924,1.8825073361286415,5.5646837099834485
1.8730018942783406,-1.1400232588583625,1.624238893169348,1.8899248583384274,5.533826993095996
1.860839588756117,-1.1402956046004862,1.6212577041818745,1.8974296688283478,5.502902015883851
1.8486995653823577,-1.1405848498838944,1.6182852885238979,1.9050221402395382,5.471912754359138
1.8365827155722512,-1.1408907288313044,1.6153218178893425,1.9127026452131337,5.440863184533999
1.824489930740981,-1.141212975565447,1.612367463972133,1.9204715563902706,5.409757282420571
1.8124221023037475,-1.1415513242090456,1.6094223984661937,1.9283292464120845,5.378599024031004
1.8003801216757287,-1.1419055088848236,1.6064867930654503,1.9362760879197116,5.347392385377432
1.7883648802721197,-1.1422752637155074,1.6035608194638278,1.944312453554286,5.316141342472015
1.7763772695081066,-1.1426603228238221,1.60064464935525,1.952438715956945,5.284849871326898
1.764418180798879,-1.14306042033249,1.5977384544336422,1.960655247768824,5.253521947954212
1.7524885055596302,-1.1434752903642393,1.5948424063929296,1.9689624216310573,5.222161548366074
1.7405891352055454,-1.143904667041793,1.591956676927036,1.9773606101847825,5.190772648574658
1.7287209611518088,-1.1443482844878772,1.5890814377298865,1.9858501860711335,5.15935922459213
1.7168848748136174,-1.1448058768252136,1.5862168604954068,1.9944315219312474,5.127925252430579
1.705081767606158,-1.1452771781765323,1.5833631169175213,2.003104990406259,5.096474708102193
1.6933125309446178,-1.1457619226645543,1.580520378690154,2.0118709641373043,5.065011567619067
1.6815780562441907,-1.1462598444120076,1.5776888175072308,2.0207298157655185,5.033539806993382
1.6698792349200575,-1.1467706775416135,1.5748686050626761,2.029681917932038,5.002063402237262
1.6582169583874098,-1.1472941561760996,1.5720599130504147,2.0387276432779977,4.970586329362881
1.646592118061439,-1.1478300144381888,1.5692629131643703,2.047867364444534,4.939112564382327
1.6350056053573354,-1.148377986450606,1.5664777770984701,2.0571014540727823,4.907646083307796
1.6234583116902872,-1.1489378063360807,1.5637046765466378,2.0664302848038787,4.87619086215139
1.6119511284754804,-1.1495092082173324,1.5609437832027968,2.0758542292789572,4.844750876925261
1.600484947128102,-1.1500919262170872,1.5581952687608733,2.0853736601391555,4.813330103641576
1.5890606590633496,-1.15068569445807,1.555459304914792,2.0949889500256083,4.781932518312459
1.577679155696405,-1.1512902470630086,1.552736063358478,2.1047004715794513,4.750562096950077
1.5663413284424603,-1.1519053181546246,1.5500257157858555,2.1145085974418203,4.719222815566511
1.5550480687167028,-1.1525306418556447,1.5473284338908493,2.12441370025385,4.68791865017397
1.5438002679343228,-1.1531659522887918,1.5446443893673845,2.1344161526566783,4.656653576784549
1.532598817510511,-1.153810983576793,1.5419737539093858,2.1445163272914387,4.625431571410452
1.5214446088604507,-1.1544654698423722,1.5393166992107783,2.154714596799268,4.594256610063745
1.5103385333993344,-1.155129145208254,1.5366733969654862,2.1650113338213015,4.563132668756602
1.4992814825423526,-1.1558017437971637,1.5340440188674342,2.175406910998675,4.532063723501182
1.488274347704694,-1.156482999731827,1.5314287366105483,2.185901700972524,4.501053750309609
1.4773180203015421,-1.1571726471349688,1.5288277218887518,2.196496076383984,4.470106725194029
1.4664133917480981,-1.1578704201293104,1.526241146395971,2.207190409874191,4.439226624166615
1.4555613534595366,-1.158576052837581,1.5236691818261303,2.2179850740842806,4.408417423239477
1.4447627968510517,-1.159289279382504,1.5211119998731533,2.2288804416553885,4.3776830984247255
1.4340186133378392,-1.1600098338868055,1.5185697722309663,2.23987688522865,4.347027625734569
1.4233296943350773,-1.1607374504732073,1.5160426705934926,2.250974777445202,4.31645498118111
1.4126969312579618,-1.161471863264436,1.5135308666546585,2.262174490946178,4.285969140776508
1.4021212155216833,-1.1622128063832187,1.511034532108388,2.2734763983727153,4.2555740805329165
1.391603438541427,-1.162960013952278,1.5085538386486064,2.284880872365949,4.225273776462444
1.3811444917323819,-1.1637132200943379,1.5060889579692378,2.2963882855670157,4.195072204577237
1.3707452665097328,-1.1644721589321247,1.503640061764208,2.307999010617049,4.164973340889489
1.3604066542886795,-1.1652365645883638,1.5012073217274409,2.319713420157187,4.134981161411261
1.3501295464844034,-1.1660061711857814,1.4987909095528613,2.331531886828564,4.105099642154769
1.339914834512097,-1.1667807128470988,1.4963909969343945,2.3434547832723163,4.075332759132145
1.3297634097869437,-1.1675599236950407,1.4940077555659654,2.355482482129579,4.045684488355477
1.319676163724143,-1.1683435378523348,1.4916413571414984,2.3676095023925967,4.016158805836973
1.3096539877388693,-1.1691312894417067,1.4892919733549193,2.3796492588168157,3.9867596875887372
1.2996977732463186,-1.169922912585879,1.4869597759001498,2.3916008730107325,3.957491109622879
1.2898084116616868,-1.1707181414075771,1.4846449364711187,2.403463466582803,3.9283570479516285
1.2799867944001555,-1.1715167100295245,1.482347626761749,2.415236161141454,3.8993614785870605
1.2702338128769153,-1.1723183525744498,1.480068018465965,2.426918078295147,3.87050837754137
1.260550358507155,-1.173122803165076,1.477806283277693,2.438508339652314,3.8418017208266733
1.2509373227060632,-1.1739297959241268,1.4755625928908556,2.4500060668213948,3.8132454844550807
1.2413955968888288,-1.174739064974328,1.47333711899938,2.461410381410838,3.78484364443878
1.2319260724706371,-1.1755503444384034,1.4711300332971895,2.47272040502909,3.7566001767899095
1.2225296408666768,-1.1763633684390808,1.4689415074782088,2.4839352592845803,3.7285190575205363
1.213207193492158,-1.1771778710990843,1.4667717132363651,2.4950540657857623,3.700604262642962
1.203959621762241,-1.1779935865411377,1.46462082226558,2.506075946141074,3.672859768169161
1.1947878170921342,-1.1788102488879644,1.4624890062597786,2.517000021958962,3.6452895501113574
1.1856926708970086,-1.1796275922622939,1.4603764369128887,2.5278254148478627,3.6178975844817316
1.1766750745920707,-1.1804453507868446,1.458283285918832,2.538551246416217,3.590687847292301
1.1677359195924986,-1.1812632585843468,1.4562097249715333,2.5491766382724776,3.563664314555375
1.15887609731349,-1.1820810497775227,1.4541559257649204,2.5597007120250783,3.5368309622829273
1.15009649917023,-1.1828984584891002,1.452122059992916,2.5701225892824677,3.510191766487253
1.1413980165778987,-1.1837152188418019,1.450108299349445,2.5804413916530873,3.4837507031803767
1.1327815409517044,-1.18453106495835,1.4481148155284327,2.5906562407453695,3.4575117483745075
1.1242479637068143,-1.1853457309614748,1.4461417802238028,2.6007662581677753,3.4314788780817906
1.1157981762584352,-1.1861589509738986,1.444189365129481,2.61077056552873,3.405656068314265
1.1074330700217452,-1.186970459118347,1.4422577419393918,2.620668284436684,3.380047295084225
1.099153536411933,-1.1877799895175447,1.4403470823474605,2.6304585365000843,3.3546565344037234
1.0909604668441997,-1.1885872762942147,1.4384575580476122,2.640140443327363,3.32948776228492
1.0828547527337165,-1.1893920535710842,1.4365893407337698,2.649713126526972,3.304544954739974
1.0748372854956862,-1.1901940554708772,1.434742602099861,2.6591757077073535,3.2798320877809957
1.0669089565453014,-1.1909930161163191,1.4329175138398078,2.668527308476934,3.2553531374201583
1.0590706572977346,-1.191788669630133,1.4311142476475376,2.6777670504441726,3.231112079669572
1.0513232791681855,-1.1925807501350456,1.4293329752169726,2.686894055217511,3.207112890541417
1.0436677135718373,-1.1933689917537857,1.4275738682420398,2.695907444405389,3.1833595460478037
1.0361048519238878,-1.1941531286090687,1.4258370984166624,2.704806339616244,3.1598560222009056
1.028635585639515,-1.1949328948236286,1.4241228374347652,2.7135898624585284,3.1366062950128537
1.021260806133924,-1.195708024520183,1.4224312569902744,2.722257134540671,3.113614340495751
1.0139814048222853,-1.1964782518214632,1.420762528777113,2.730807277471129,3.090884134661792
1.0067982731197986,-1.197243310850189,1.4191168244892083,2.7392394128583355,3.0684196535230868
0.9997123024416457,-1.1980029357290904,1.4174943158204836,2.7475526623107385,3.0462248730918304
0.992724384203024,-1.1987568605808874,1.4158951744648642,2.755746147436776,3.024303769380076
0.9858354098191224,-1.1995048195283053,1.4143195721162733,2.7638189898448893,3.0026603184000464
0.9790462707051226,-1.2002465466940748,1.4127676804686375,2.771770311143536,2.981298496163866
0.9723578582762222,-1.2009817762009147,1.4112396712158803,2.779599232941136,2.9602222786836236
0.9657710639475976,-1.2017102421715489,1.4097357160519284,2.787304876846145,2.9394356419715493
0.9592867791344482,-1.2024316787287082,1.4082559866707047,2.794886364467006,2.9189425620397316
0.9529058952519627,-1.203145819995116,1.4068006547661351,2.8023428174121587,2.8987470149003087
0.9466293037153228,-1.2038524000934938,1.4053698920321436,2.8096733572900447,2.8788529765654545
0.9404578959397227,-1.2045511531465696,1.4039638701626553,2.8168771057091053,2.8592644230472715
0.9343925633403565,-1.2052418132770644,1.4025827608515957,2.8239531842777854,2.839985330357969
0.9284341973324022,-1.2059241146077087,1.4012267357928891,2.8309007146045353,2.8210196745096
0.9225836893310593,-1.2065977912612258,1.39989596668046,2.8377188182977804,2.802371431514352
0.9168419307515094,-1.2072625773603347,1.3985906252082332,2.8444066169659745,2.7840445773843996
0.9112098130089485,-1.2079182070277676,1.3973108830701348,2.8509632322175626,2.766043088131852
0.9056882275185494,-1.208564414386247,1.3960569119600876,2.8573877856609773,2.74837093976884
0.9002780656955238,-1.2092009335584981,1.3948288835720168,2.8636793989046705,2.7310321083075593
0.8949802189550411,-1.2098274986672441,1.393626969599849,2.8698371935570783,2.7140305697600553
0.8897955787123042,-1.2104438438352112,1.3924513417375075,2.875860291226644,2.6973703001385445
0.8847250363824912,-1.2110497031851253,1.3913021716789173,2.881747813521814,2.6810552754551793
0.8797694833808052,-1.2116448108397098,1.3901796311180044,2.8874988820510357,2.6650894717220694
0.8749298111224206,-1.212228900921689,1.3890838917486898,2.8931126184227374,2.649476864951353
0.8702069110225388,-1.2128017075537896,1.3880151252649031,2.898588144245368,2.634221431155183
0.8656016744963342,-1.2133629648587352,1.3869735033605664,2.903924581127372,2.619327146345711
0.8611149929590063,-1.2139124069592526,1.3859591977296053,2.909121050677193,2.6047979865350754
0.8567477578257421,-1.2144497679780661,1.3849723800659448,2.9141766745032704,2.590637927735372
0.8525008605117268,-1.2149747820378964,1.384013222063508,2.919090574214051,2.5768509459588387
0.8483751924321545,-1.215487183261474,1.3830818954162223,2.923861871417971,2.5634410172175706
0.8443716450022194,-1.2159867057715221,1.3821785718180117,2.9284896877234736,2.550412117523692
0.8404911096371013,-1.2164730836907642,1.3813034229627994,2.9329731447390035,2.537768222889369
0.836734477751989,-1.2169460511419254,1.3804566205445115,2.9373113640730093,2.5255133093266693
0.8331026407620712,-1.2174053422477336,1.3796383362570732,2.9415034673339235,2.513651352847887
0.8295964900825439,-1.2178506911309102,1.378848741794409,2.9455485761301965,2.5021863294650473
0.8262169171285887,-1.218281831914183,1.378088008850444,2.9494458120702642,2.491122215190316
0.8229648133153908,-1.2186984987202711,1.3773563091191008,2.953194296762577,2.4804629860358602
0.8198410700581569,-1.2191004256719067,1.3766538142943072,2.9567931518155692,2.4702126180137753
0.8168465787720613,-1.2194873468918113,1.375980696069985,2.9602414988376875,2.4603750871362564
0.8139822308723019,-1.21985899650271,1.3753371261400633,2.9635384594373697,2.4509543694154416
0.8112489177740585,-1.2202151086273272,1.3747232761984614,2.966683155223068,2.4419544408634266
0.8086475308925216,-1.220555417388388,1.3741393179391106,2.9696747078032146,2.4333792774924063
0.8061789616428854,-1.220879656908619,1.3735854230559283,2.972512238786255,2.425232855314448
0.8038441014403368,-1.2211875613107432,1.3730617632428461,2.9751948697806405,2.417519150341846
0.8016438417000629,-1.2214788647174872,1.3725685101937848,2.9777217223948043,2.410242138586554
0.7995790738372612,-1.2217533012515736,1.3721058356026696,2.980091918237189,2.403405796060852
0.7976506892671082,-1.2220106050357273,1.3716739111634264,2.982304578916242,2.3970140987768076
0.7958595794047945,-1.222250510192679,1.37127290856998,2.9843588260404026,2.391071022746601
0.7942066356655175,-1.222472750845145,1.3709029995162556,2.9862537812181102,2.3855805439823996
0.7926927494644609,-1.2226770611158546,1.370564355696175,2.9879885660578154,2.3805466384962557
0.791318812216808,-1.2228631751275314,1.3702571488036672,2.9895623021679505,2.3759732823003787
0.7900857153377601,-1.223030827002904,1.3699815505326534,2.9909741111569765,2.371864451406907
0.7889943502425041,-1.2231797508646949,1.3697377325770614,2.992223114633312,2.368224121828021
0.7880456083462235,-1.2233096808356256,1.3695258666308132,2.9933084342054173,2.36505626957576
0.7872403810641018,-1.223420351038425,1.3693461243878362,2.9942291914817183,2.362364870662347
0.7865795598113401,-1.2235114955958188,1.3691986775420535,2.994984508070676,2.3601539010998778
0.7860640360031255,-1.223582848630529,1.3690836977873908,2.995573505580733,2.358427336900519
0.7856947010546413,-1.2236341442652812,1.3690013568177712,2.9959953056203084,2.357189154076451
0.7854724463810783,-1.2236651166228016,1.3689518263271228,2.9962490297978697,2.3564433286397843
0.7853981633976197,-1.223675499825812,1.368935278009367,2.9963337997218424,2.3561938366026283
