oscarkremer/mentor-optimization/notebooks/traject_2/non_adaptive/angles_24.csv
theta1,theta2,theta3,theta4,theta5
3.7295952571373574,-0.7943678438589166,1.973043134264813,1.9629173631838936,3.2059965904706873
3.7295348109850566,-0.7943945779497745,1.9720928688858967,1.9628947393086684,3.2053230692517074
3.729353887396327,-0.7944744670844434,1.9699152009182415,1.9628271161104163,3.2033232372799265
3.7290531086734284,-0.7946070415560664,1.9675198226154864,1.9627148662302734,3.2000281920830833
3.728633097118621,-0.7947918316577867,1.965916426231272,1.9625583623093747,3.1954690311889173
3.728094475034165,-0.7950283676827472,1.9661147040192382,1.9623579769888566,3.189676852125168
3.7274378647223196,-0.7953161799240906,1.969124348233024,1.9621140829098542,3.182682752419574
3.7266638884853456,-0.7956547986749606,1.9736187932530656,1.9618270527135035,3.1745178295998744
3.7257731686255027,-0.7960437542284995,1.9780619187289203,1.96149725904094,3.165213181193808
3.7247663274450504,-0.7964825768778507,1.9824538963545142,1.9611250745332993,3.1547999047291144
3.7236439872462497,-0.7969707969161574,1.9867948978237717,1.9607108718317174,3.143309097733532
3.7224067703313595,-0.7975079446365622,1.9910850948306178,1.9602550235773297,3.1307718577348007
3.72105529900264,-0.7980935503322082,1.9953246590689775,1.959757902411272,3.117219282260659
3.7195901955623523,-0.7987271442962387,1.999513762232775,1.9592198809746797,3.1026824688388457
3.7180120823127547,-0.7994082568217965,2.0036525760159356,1.9586413319086886,3.0871925149971005
3.7163215815561075,-0.8001364182020247,2.0077412721123835,1.9580226278544344,3.0707805182631622
3.7145193155946714,-0.8009111587300662,2.0117800222160445,1.957364141453053,3.05347757616477
3.712605906730706,-0.8017320086990642,2.0157689980208424,1.9566662453456796,3.0353147862296623
3.710581977266471,-0.8025984984021617,2.0197083712207027,1.95592931217345,3.0163232459855784
3.7084481495042265,-0.8035101581325015,2.0235983135095497,1.9551537145775002,2.996534052960258
3.7062050457462328,-0.8044665181832269,2.0274389965813087,1.9543398251989657,2.97597830468144
3.70385328829475,-0.8054671088474809,2.031230592129905,1.9534880166789819,2.9546870986768634
3.7013934994520374,-0.8065114604184062,2.0349732718492617,1.9525986616586846,2.932691532474266
3.698826301520355,-0.8075991031891462,2.038667207433305,1.9516721327792097,2.910022703601389
3.696152316801963,-0.8087295674528436,2.042312570575959,1.9507088026816926,2.88671170958597
3.693372167599121,-0.8099023835026419,2.045909532971149,1.949709044007269,2.8627896479557484
3.69048647621409,-0.8111170816316835,2.0494582663127994,1.9486732293970745,2.8382876162384636
3.687495864949129,-0.8123731921331119,2.0529589422948353,1.9476017314922454,2.813236711961854
3.684400956106498,-0.8136702453000698,2.056411732611182,1.9464949229339163,2.787668032653659
3.6812023719884572,-0.8150077714257005,2.0598168089557634,1.9453531763632237,2.761612675841618
3.677900734897267,-0.8163853008031469,2.0631743430225042,1.9441768644213029,2.7351017390534698
3.6744966671351866,-0.8178023637255519,2.06648450650533,1.9429663597492897,2.708166319816953
3.6709907910044763,-0.8192584904860587,2.0697474710981654,1.9417220349883195,2.6808375156598077
3.667383728807396,-0.8207532113778103,2.072963408494935,1.9404442627795282,2.653146424109772
3.6636761028462055,-0.8222860566939497,2.0761324903895635,1.9391334157640516,2.625124142694585
3.659868535423165,-0.8238565567276198,2.0792548884759756,1.937789866583025,2.5968017689419867
3.6559616488405347,-0.8254642417719638,2.082330774448097,1.9364139878775846,2.568210400379715
3.6519560654005736,-0.8271086421201246,2.085360319999851,1.9350061522888655,2.5393811345355095
3.647852407405543,-0.8287892880652453,2.088343696825164,1.9335667324580037,2.5103450689371094
3.6436512971577018,-0.8305057099004689,2.0912810766179604,1.9320961010261346,2.481133301112254
3.6393533569593104,-0.8322574379189384,2.094172631072164,1.9305946306343942,2.451776928588681
3.634959209112629,-0.8340440024137968,2.0970185318817007,1.929062693923918,2.422307048894131
3.630469475919917,-0.8358649336781871,2.0998189507404947,1.9275006635358414,2.3927547595563423
3.6258847796834344,-0.8377197620052524,2.102574059342471,1.9259089121113007,2.3631511581030544
3.621205742705442,-0.8396080176881358,2.1052840293815547,1.9242878122914309,2.3335273420620055
3.6164329872881984,-0.8415292310199801,2.1079490325516703,1.922637736717368,2.303914408960936
3.6115671357339645,-0.8434829322939285,2.1105692405467424,1.9209590580302476,2.274343456327584
3.606608810345,-0.8454686518031239,2.1131448250606963,1.9192521488712053,2.2448455816896886
3.6015586334235654,-0.8474859198407094,2.115675957787456,1.917517381881377,2.2154518825749894
3.59641722727192,-0.849534266699828,2.1181628104209476,1.9157551297018982,2.1861934565112247
3.591185214192324,-0.8516132226736227,2.1206055546550946,1.9139657649739046,2.157101401026134
3.585863216487037,-0.8537223180552366,2.123004362183823,1.9121496603385317,2.1282068136474557
3.5804518564583194,-0.8558610831378127,2.1253594047010567,1.9103071884369154,2.0995407919029305
3.574951756408431,-0.8580290482144939,2.1276708539007205,1.9084387219101913,2.0711344333202963
3.5693635386396316,-0.8602257435784233,2.1299388814767397,1.906544633399495,2.043018835427292
3.5636878254541817,-0.8624506995227439,2.1321636591230386,1.9046252955459622,2.0152250957516564
3.5579252391543403,-0.8647034463405989,2.134345358533543,1.9026810809907284,1.9877843118211296
3.5520764020423683,-0.866983514325131,2.1364841514021764,1.9007123623749296,1.9607275811634506
3.5461419364205256,-0.8692904337694835,2.1385802094228645,1.8987195123397012,1.9340860013063577
3.540122464591071,-0.8716237349667991,2.140633704289532,1.896702903526179,1.90789066977759
3.5340186088562664,-0.8739829482102213,2.1426448076961027,1.8946629085754987,1.882172684104887
3.5278309915183703,-0.8763676037928928,2.144613691336503,1.8925999001287959,1.8569631418159875
3.521560234879643,-0.8787772320079567,2.1465405269046567,1.8905142508272061,1.832293140438631
3.5152069612423444,-0.8812113631485559,2.1484254860944887,1.8884063333118652,1.8081937775005557
3.5087717929087345,-0.8836695275078335,2.1502687405999246,1.886276520223909,1.7846961505295018
3.5022553521810735,-0.8861512553789326,2.1520704621148874,1.8841251842044726,1.7618313570532076
3.4956582613616214,-0.888656077054996,2.153830822333304,1.881952697894692,1.7396304945994119
3.488981142752637,-0.8911835228291671,2.155549992949098,1.8797594339357033,1.7181246606958547
3.4822246186563826,-0.8937331229945886,2.1572281456561946,1.8775457649686413,1.6973449528702738
3.475389311375116,-0.8963044078444037,2.1588654521485187,1.8753120636346423,1.6773224686504096
3.468475843211098,-0.8988969076717553,2.160462084119995,1.8730587025748417,1.658088305564
3.4614848364665884,-0.9015101527697864,2.1620182132645476,1.8707860544303754,1.6396735611387854
3.4544169134438474,-0.9041436734316403,2.1635340112761026,1.868494491842379,1.6221093329025031
3.447272696445135,-0.9067969999504597,2.1650096498485834,1.8661843874519877,1.605426718382894
3.44005280777271,-0.9094696626193877,2.1664453006759157,1.8638561139003376,1.5896568151076953
3.432757869728834,-0.9121611917315673,2.167841135452024,1.8615100438285643,1.574830720604648
3.4253885046157664,-0.9148711175801416,2.1691973258708335,1.8591465498778037,1.5609795324014901
3.4179453347357667,-0.9175989704582537,2.1705140436262687,1.8567660046891912,1.548134348025961
3.410428982391095,-0.9203442806590463,2.1717914604122543,1.854368780903862,1.536326265005799
3.402840069884012,-0.9231065784756628,2.1730297479227154,1.8519552511629527,1.5255863808687433
3.395179219516777,-0.9258853942012462,2.1742290778515767,1.8495257881075986,1.5159457931425333
3.38744705359165,-0.9286802581289392,2.175389621892763,1.847080764378935,1.5074355993549085
3.3796441944108913,-0.9314907005518849,2.176511551740199,1.8446205526180979,1.5000868970336074
3.3717712642767608,-0.9343162517632266,2.1775950390878096,1.8421455254662231,1.4939307837063698
3.3638288854915177,-0.9371564420561072,2.1786402556295195,1.839656055564446,1.4889983569009333
3.3558176803574225,-0.9400108017236696,2.1796473730592534,1.8371525155539024,1.4853207141450384
3.347738271176735,-0.9428788610590567,2.1806165630709367,1.8346352780757276,1.482928952966423
3.339591280251716,-0.9457601503554119,2.1815479973584937,1.832104715771058,1.4818541708928272
3.3313773298846243,-0.948654199905878,2.1824418476158494,1.8295612012810285,1.4821274654519896
3.3230970423777206,-0.951560540003598,2.183298285536928,1.8270051072467752,1.483779934171649
3.3147510400332645,-0.9544787009417149,2.184117482815655,1.8244368063094338,1.4868426745795449
3.3063399451535163,-0.957408213013372,2.1848996111459553,1.8218566711101398,1.491346784203417
3.2978643800407355,-0.960348606511712,2.1856448422217536,1.819265074290029,1.4973233605710026
3.289324966997182,-0.9632994117298781,2.1863533477369743,1.8166623884902369,1.5048035012100418
3.2807223283251163,-0.9662601589610132,2.1870252993855424,1.814048986351899,1.5138183036482729
3.2720570863267984,-0.9692303784982604,2.187660868861383,1.8114252405161513,1.524398865413437
3.2633298633044876,-0.9722096006347627,2.1882602278584202,1.8087915236241292,1.5365762840332713
3.2545412815604444,-0.9751973556636631,2.1888235480705798,1.8061482083169689,1.5503816570355151
3.245691963396929,-0.9781931738781048,2.1893510011917856,1.8034956672358056,1.5658460819479072
3.2367825311161997,-0.9811965855712304,2.189842758915963,1.800834273021775,1.5830006562981889
3.2278136070205194,-0.9842071210361835,2.1902989929370364,1.7981643983160127,1.6018764776140961
3.218785813412145,-0.9872243105661064,2.1907198749489316,1.7954864157596546,1.6225046434233703
3.2096997725933387,-0.9902476844541428,2.1911055766455725,1.7928006979938362,1.6449162512537474
3.200556106866359,-0.9932767729934353,2.1914562697208835,1.7901076176596933,1.6691423986329705
3.1913554385334666,-0.9963111064771272,2.1917721258687908,1.7874075473983615,1.695214183088777
3.1820983898969213,-0.9993502151983613,2.192053316783218,1.7847008598509764,1.7231627021489055
3.172785583258983,-1.0023936294502809,2.1923000141580906,1.7819879276586736,1.7530190533410943
3.163417640921912,-1.0054408795260286,2.192512389687333,1.7792691234625888,1.7848143341930829
3.1539951851879677,-1.0084914957187479,2.1926906150648704,1.7765448199038578,1.8185796422326126
3.1445188383594105,-1.0115450083215813,2.1928348619846263,1.7738153896236164,1.8543460749874203
3.1349892227385006,-1.0146009476276723,2.1929453021405276,1.7710812052629998,1.8921447299852439
3.1254069606274966,-1.0176588439301635,2.1930221072264975,1.7683426394631443,1.932006704753828
3.1157726743286593,-1.0207182275221984,2.1930654489364616,1.765600064865185,1.9739630968209037
3.10608698614425,-1.0237786286969195,2.193075498964345,1.7628538541102579,2.0180450037142155
3.0963505183765268,-1.0268395777474704,2.193052429004071,1.7601043798394982,2.0642835229615013
3.0865638933277504,-1.0299006049669936,2.192996410749566,1.7573520146940422,2.1127097520905
3.0767277333001806,-1.0329612406486326,2.1929076158947542,1.754597131315025,2.1633547886289497
3.0668426605960772,-1.0360210150855298,2.1927862161335603,1.7518401023435826,2.2162497301045905
3.056909297517701,-1.0390794585708287,2.192632383159909,1.7490813004208507,2.2714256740451626
3.0469282663673107,-1.0421361013976722,2.1924462886677256,1.7463210981879649,2.328913717978401
3.0369001894471674,-1.0451904738592033,2.192228104350934,1.7435598682860605,2.3887449594320502
3.0268256890595304,-1.048242106248565,2.1919780019034603,1.740797983356274,2.4509504959338466
3.0167053875066596,-1.0512905288589005,2.1916961530192287,1.73803581603974,2.515561425011529
3.0065399070908154,-1.0543352719833525,2.191382729392164,1.735273738977595,2.5826088441928343
2.9963298701142578,-1.057375865915064,2.1910379027161904,1.7325121248109745,2.6521238510055065
2.986075898879246,-1.0604118409471788,2.1906618446852333,1.7297513461810137,2.7241375429772807
2.9757786156880406,-1.0634427273728388,2.1902547269932175,1.7269917757288487,2.798681017635899
2.9654386428429014,-1.066468055485188,2.1898167213340676,1.7242337860956154,2.875785372509097
2.9550566026460885,-1.0694873555773687,2.189347999401709,1.7214777499224487,2.955481705124618
2.944633117399862,-1.0725001579425242,2.188848732890066,1.718724039850485,3.0378011130101967
2.9341688094064806,-1.0755059928737976,2.1883190934930634,1.7159730285208596,3.1227746936935734
2.923664300968206,-1.078504390664332,2.187759252904626,1.7132250885747082,3.2083666585912196
2.9131202143872974,-1.08149488160727,2.187169382818679,1.7104805926531665,3.2929957604320643
2.9025371719660145,-1.084476995995755,2.1865496549291468,1.7077399133973703,3.3766659752282684
2.891915796006618,-1.0874502641229298,2.185900240929954,1.7050034234484548,3.4593812789919536
2.881256708811367,-1.0904142162819377,2.1852213125150257,1.7022714954475562,3.5411456477352807
2.8705605326825214,-1.0933683827659215,2.184513041378287,1.69954450203581,3.621963057470377
2.8598278899223426,-1.096312293868024,2.1837755992136625,1.6968228158543517,3.7018374842094053
2.8490594028330896,-1.0992454798813889,2.1830091577150768,1.6941068095443172,3.780772903964486
2.8382556937170214,-1.1021674710991587,2.182213888576454,1.691396855746842,3.8587732927477782
2.8274173848763997,-1.1050777978144763,2.181389963491721,1.6886933271030617,3.935842626571411
2.8165450986134832,-1.1079759903204853,2.180537554154801,1.6859965962541121,4.011984881447544
2.8056394572305323,-1.1108615789103284,2.1796568322596186,1.683307035841129,4.087204033388299
2.7947010830298074,-1.1137340938771483,2.1787479695000997,1.6806250185052478,4.1615040584058365
2.7837305983135674,-1.1165930655140888,2.1778111375701688,1.6779509168876041,4.234888932512284
2.7727286253840733,-1.119438024114292,2.17684650816375,1.6752851036293344,4.3073626317198075
2.7616957865435845,-1.1222684999709014,2.1758542529747684,1.672627951371573,4.37892913204052
2.750632704094361,-1.12508402337706,2.1748345436971497,1.6699798327554565,4.449592409486584
2.739540000338663,-1.1278841246259108,2.1737875520248178,1.6673411204221202,4.519356440070133
2.7284182975787505,-1.1306683340105972,2.1727134496516975,1.6647121870127002,4.588225199803315
2.7172682181168835,-1.1334361818242613,2.1716124082717143,1.6620934051683316,4.656202664698273
2.706090384255321,-1.1361871983600471,2.1704845995787916,1.6594851475301509,4.7232928107671395
2.694885418296324,-1.138920913911097,2.169330195266856,1.6568877867392922,4.789499614022073
2.6836539425421524,-1.141636858770554,2.1681493670298306,1.6543016954368932,4.8548270504752065
2.6723965792950657,-1.144334563231562,2.1669422865616417,1.6517272462640877,4.919279096138686
2.6611139508573247,-1.1470135575872626,2.1657091255562126,1.6491648118620126,4.982859727024644
2.649806679531188,-1.1496733721308,2.16445005570747,1.646614764871803,5.045572919145238
2.638475387618916,-1.1523135371553168,2.163165248709337,1.6440774779345948,5.107422648512599
2.62712069742277,-1.1549335829539558,2.161854876255739,1.6415533236915238,5.168412891138883
2.615743231245008,-1.1575330398198602,2.1605191100406014,1.6390426747837248,5.228547623036213
2.604343611387891,-1.1601114380461732,2.159158121757848,1.6365459038523347,5.287830820216753
2.5929224601536798,-1.162668307926038,2.1577720831014044,1.6340633835384886,5.346266458692626
2.5814803998446325,-1.165203179752597,2.156361165765195,1.631595486483322,5.403858514475994
2.5700180527630105,-1.1677155838189937,2.154925541443145,1.6291425853279706,5.460610963578976
2.5585360412110725,-1.1702050504183705,2.1534653818291782,1.62670505271357,5.516527782013737
2.54703498749108,-1.1726711098438711,2.1519808586172204,1.6242832612812563,5.571612945792406
2.5355155139052914,-1.1751132923886387,2.1504721435011964,1.621877583672165,5.6258704309271375
2.5239782427559683,-1.1775311283458156,2.14893940817503,1.6194883925274315,5.679304213430056
2.5124237963453684,-1.179924148008545,2.1473828243326474,1.6171160604881918,5.731918269313326
2.5008527969757544,-1.1822918816699701,2.1458025636679725,1.6147609601955812,5.7837165745890715
2.489265866949384,-1.1846338596232342,2.1441987978749304,1.6124234642907356,5.83470310526944
2.4776636285685183,-1.1869496121614795,2.142571698647446,1.6101039454147907,5.884881837366583
2.466046704135417,-1.1892386695778498,2.1409214376794434,1.607802776208882,5.934256746892638
2.45441571595234,-1.1915005621654877,2.1392481866648483,1.6055203293141456,5.982831809859739
2.4427712863215474,-1.1937348202175366,2.1375521172975853,1.6032569773717165,6.030611002280034
2.431114037545299,-1.1959409740271392,2.1358334012715794,1.6010130930227304,6.077598300165677
2.4194445919258545,-1.1981185538874384,2.1340922102807545,1.5987890489083239,6.123797679528796
2.407763571765475,-1.2002670900915775,2.1323287160190363,1.5965852176696314,6.169213116381545
2.396071599366419,-1.2023861129326998,2.130543090180349,1.5944019719477898,6.21384858673605
2.3843692970309474,-1.2044751527039474,2.1287355044586174,1.5922396843839337,6.25770806660447
2.37265728706132,-1.2065337396984646,2.1269061305477672,1.5900987276191991,6.300795531998936
2.360936191759796,-1.208561404209393,2.1250551401417224,1.587979474294722,6.3431149589316025
2.3492066334286363,-1.2105576765298767,2.1231827049344076,1.5858822970516382,6.3846703234146
2.3374692343701007,-1.2125220869530582,2.1212889966197483,1.5838075685310824,6.425465601460085
2.3257246168864487,-1.2144541657720809,2.1193741868916693,1.5817556613741912,6.465504769080184
2.313973403279941,-1.2163534432800873,2.117438447444095,1.5797269482221,6.504791802287053
2.302216215852837,-1.218219449770221,2.1154819499709503,1.5777218017159442,6.543330677092824
2.290453676907396,-1.2200517155356247,2.11350486616616,1.5757405944968597,6.581125369509648
2.27868640874588,-1.2218497708694414,2.1115073677236493,1.5737836992059822,6.618179855549657
2.266915033670547,-1.2236131460648139,2.1094896263373424,1.571851488484447,6.65449811122501
2.255140173983658,-1.2253413714148862,2.1074518137011644,1.5699443349733906,6.690084112547832
2.2433624519874726,-1.2270339772127998,2.10539410150904,1.5680626113139478,6.7249418355302835
2.231582489984251,-1.228690493751699,2.103316661454894,1.5662066901472544,6.759075256184493
2.2198009102762524,-1.2303104513247263,2.1012196652326516,1.5643769441144464,6.7924883505226035
2.208018335165737,-1.2318933802250247,2.0991032845362367,1.5625737458566595,6.82518509455677
2.1962353869549656,-1.2334388107457375,2.096967691059575,1.5607974680150294,6.85716946429912
2.184452687946198,-1.2349462731800076,2.094813056496591,1.5590484832306912,6.8884454357618035
2.172670860441693,-1.2364152978209777,2.09263955254121,1.557327164144781,6.919016984956963
2.160890526743712,-1.2378454149617912,2.090447350887356,1.5556338833984342,6.948888087896744
2.149112309154514,-1.239236154895591,2.0882366232289535,1.5539690136327866,6.978062720593287
2.1373368299763595,-1.2405870479155199,2.0860075412599284,1.5523329274889743,7.006544859058726
2.125564711511508,-1.2418976243147215,2.083760276674205,1.5507259976081325,7.034338479305218
2.11379657606222,-1.2431674143863383,2.0814950011657083,1.549148596631397,7.0614475573449
2.1020330459307544,-1.244395948423513,2.079211886428363,1.5476010971999028,7.087876069189901
2.0902747434193722,-1.2455827567193896,2.0769111041560935,1.5460838719547867,7.113627990852385
2.078522290830333,-1.2467273695671106,2.0745928260428252,1.544597293537184,7.138707298344477
2.066776310465898,-1.2478293172598192,2.0722572237824832,1.54314173458823,7.163117967678341
2.0550374246283245,-1.2488881300906578,2.0699044690689914,1.5417175677490602,7.186863974866092
2.043306255619874,-1.2499033383527707,2.0675347335962746,1.5403251656608108,7.2099492959199
2.0315834257428067,-1.2508744723392993,2.065148189058258,1.5389649009646176,7.232377906851885
2.019869557299383,-1.2518010623433873,2.0627450071488664,1.5376371463016156,7.2541537836742
2.008165272591861,-1.2526826386581786,2.0603253595620252,1.5363422743129411,7.275280902398991
1.9964711939225033,-1.253518731576815,2.057889417991658,1.5350806576397293,7.295763239038403
1.984787943593567,-1.25430887139244,2.0554373541316906,1.5338526689231162,7.315604769604559
1.9731161439073135,-1.2550525883981967,2.052969339676047,1.5326586808042373,7.334809470109622
1.9614564171660025,-1.2557494128872282,2.0504855463186527,1.5314990659242282,7.35338131656572
1.949809385671895,-1.2563988751526773,2.0479861457534323,1.530374196924225,7.37132428498501
1.9381756717272496,-1.257000505487687,2.0454713096743102,1.5292844464453623,7.388642351379626
1.9265558976343267,-1.2575538341854005,2.0429412097752118,1.5282301871287771,7.4053394917617155
1.914950685695386,-1.2580583915389605,2.0403960177500617,1.527211791615604,7.421419682143417
1.9033606582126883,-1.2585137078415105,2.037835905292785,1.5262296325469795,7.436886898536859
1.8917864374884923,-1.2589193133861927,2.0352610440973056,1.5252840825640388,7.451745116954214
1.8802286458250597,-1.2592747384661511,2.032671605857549,1.5243755143079176,7.465998313407604
1.8686879055246484,-1.2595795133745287,2.03006776226744,1.5235043004197515,7.4796504639091825
1.8571648388895199,-1.2598331684044677,2.027449685020903,1.5226708135406761,7.492705544471078
1.8456600682219333,-1.2600352338491114,2.0248175458118634,1.5218754263118275,7.505167531105448
1.8341742158241496,-1.2601852400016034,2.0221715163342457,1.5211185113743413,7.517040399824423
1.8227079039984273,-1.2602827171550857,2.0195117682819745,1.5204004413693526,7.528328126640161
1.8112617550470282,-1.2603271956027025,2.0168384733489746,1.5197215889379974,7.539034687564782
1.7998363912722097,-1.2603182056375957,2.014151803229171,1.5190823267214113,7.549164058610456
1.7884324349762344,-1.2602552775529092,2.011451929616489,1.5184830273607304,7.558720215789297
1.7770505084613606,-1.2601379416417857,2.008739024204853,1.51792406349709,7.567707135113476
1.7656912340298494,-1.2599657281973682,2.0060132586881876,1.5174058077716257,7.576128792595108
1.7543552339839592,-1.2597381675127994,2.0032748047604176,1.5169286328254732,7.583989164246347
1.7430431306259515,-1.2594547898812232,2.0005238341154676,1.5164929112997683,7.591292226079348
1.7317555462580851,-1.2591151255957815,1.9977605184472633,1.5160990158356467,7.598041954106241
1.7204931031826214,-1.2587187049496182,1.9949850294497287,1.5157473190742436,7.604242324339172
1.7092564237018184,-1.2582650582358763,1.9921975388167894,1.5154381936566954,7.609897312790283
1.6980461301179381,-1.257753715747698,1.989398218242369,1.515172012224137,7.615010895471702
1.6868628447332386,-1.2571842077782267,1.9865872394203932,1.5149491474177048,7.619587048395601
1.675707189849982,-1.2565560646206062,1.9837647740447868,1.514769971878534,7.623629747574105
1.6645797877704256,-1.2558688165679783,1.9809309938094741,1.51463485824776,7.627142969019355
1.6534812607968314,-1.255121993913487,1.9780860704083802,1.514544179166519,7.630130688743501
1.6424122312314589,-1.2543151269502746,1.97523017553543,1.514498307275947,7.632596882758673
1.6313733213765678,-1.253447745971485,1.9723634808845483,1.514497615217179,7.634545527077023
1.6203651535344172,-1.2525193812702604,1.9694861581496594,1.5145424756313504,7.635980597710699
1.6093883500072694,-1.251529563139744,1.966598379024689,1.5146332611595972,7.636906070671836
1.5984435330973819,-1.2504778218730788,1.963700315203561,1.5147703444430556,7.637325921972579
1.5875313251070167,-1.2493636877634082,1.9607921383802012,1.5149540981228609,7.637244127625069
1.5766523483384323,-1.2481866911038748,1.9578740202485332,1.5151848948401485,7.636664663641451
1.565807225093889,-1.246946362187622,1.954946132502483,1.5154631072360543,7.635591506033867
1.554996577675647,-1.2456422313077924,1.9520086468359747,1.5157891079517136,7.634028630814457
1.544221028385966,-1.2442738287575292,1.949061734942933,1.5161632696282625,7.631980013995367
1.5334811995271058,-1.2428406848299751,1.9461055685172832,1.516585964906837,7.629449631588731
1.5227777134013276,-1.2413423298182742,1.9431403192529504,1.5170575664285721,7.6264414596067045
1.5121111923108896,-1.2397782940155684,1.9401661588438581,1.5175784468346036,7.622959474061419
1.5014822585580536,-1.2381481077150014,1.9371832589839322,1.5181489787660671,7.61900765096502
1.490891534445078,-1.2364513012097156,1.9341917913670972,1.5187695348640986,7.614589966329662
1.4803396422742223,-1.2346874047928544,1.9311919276872778,1.5194404877698335,7.60971039616747
1.4698272043477494,-1.232855948757561,1.928183839638399,1.5201622101244077,7.604372916490597
1.4593548429679157,-1.2309564633969774,1.9251676989143853,1.5209350745689567,7.598581503311193
1.4489231804369838,-1.2289884790042485,1.9221436772091618,1.521759453744616,7.5923401326413735
1.4385328390572119,-1.2269515258725157,1.9191119462166535,1.5226357202925214,7.585652780493303
1.428184441130861,-1.2248451342949227,1.9160726776307846,1.5235642468538089,7.578523422879114
1.4178786089601914,-1.222668834564612,1.9130260431454804,1.5245454060696133,7.570956035810974
1.407615964847462,-1.2204221569747276,1.9099722144546656,1.5255795705810713,7.562954595300994
1.3973971310949322,-1.2181046318184114,1.9069113632522647,1.5266671130293181,7.554523077361322
1.3872227300048647,-1.2157672514037456,1.9038436612322032,1.5278084060554893,7.545665458004114
1.3770933838795163,-1.2134706994851236,1.900769280088405,1.5290038223007203,7.536385713241508
1.3670097150211493,-1.2112147101852644,1.8976883915147957,1.5302537344061473,7.526687819085641
1.3569723457320224,-1.2089990176268959,1.8946011672052996,1.5315585150129059,7.516575751548652
1.3469818983143957,-1.20682335593274,1.891507778853842,1.5329185367621312,7.506053486642694
1.3370389950705288,-1.2046874592255248,1.8884083981543471,1.53433417229496,7.495125000379918
1.3271442583026833,-1.2025910616279722,1.88530319680074,1.5358057942525267,7.483794268772444
1.317298310313118,-1.2005338972628095,1.8821923464869457,1.5373337752759677,7.4720652678324235
1.3075017734040921,-1.1985157002527589,1.8790760189068885,1.5389184880064184,7.4599419735720005
1.2977552698778676,-1.1965362047205481,1.8759543857544938,1.5405603050850145,7.447428362003333
1.2880594220367025,-1.1945951447889005,1.872827618723686,1.542259599152892,7.43452840913854
1.2784148521828569,-1.192692254580542,1.8696958895083897,1.5440167428511857,7.421246090989763
1.268822182618592,-1.1908272682181962,1.8665593698025305,1.5458321088210325,7.407585383569151
1.2592820356461671,-1.1889999198245884,1.8634182313000327,1.547706069703567,7.3935502628888745
1.249795033567843,-1.1872099435224444,1.8602726456948209,1.5496389981399252,7.3791447049610355
1.240361798685878,-1.1854570734344874,1.8571227846808203,1.551631266771243,7.364372685797788
1.230982953302532,-1.1837410436834457,1.8539688199519555,1.553683248238656,7.349238181411284
1.2216591197200684,-1.1820615883920385,1.8508109232021512,1.5557953151833,7.33374516781366
1.2123909202407424,-1.1804184416829968,1.8476492661253325,1.5579678402463097,7.317897621017071
1.2031789771668167,-1.1788113376790408,1.8444840204154245,1.5602011960688218,7.30169951703364
1.1940239128005499,-1.1772400105028995,1.841315357766352,1.562495755291972,7.285154831875509
1.1849263494442046,-1.1757041942772948,1.8381434498720384,1.5648518905568949,7.268267541554833
1.1758869094000386,-1.174203623124953,1.8349684684264091,1.5672699745047276,7.251041622083765
1.1669062149703109,-1.172738031168597,1.8317905851233907,1.569750379776605,7.233481049474413
1.157984888457284,-1.1713071525309542,1.8286099716569058,1.5722934790136625,7.215589799738954
1.149123552163216,-1.169910721334748,1.8254267997208804,1.574899644857036,7.197371848889514
1.1403228283903681,-1.1685484717027053,1.8222412410092383,1.5775692499478615,7.178831172938249
1.1315833394409989,-1.1672201377575468,1.8190534672159053,1.5803026669272744,7.15997174789727
1.1229057076173703,-1.165925453622003,1.8158636500348055,1.5831002684364104,7.140797549778764
1.1142905552217393,-1.1646641534187936,1.8126719611598645,1.5859624271164048,7.1213125545948195
1.1057385045563692,-1.1634359712706472,1.8094785722850069,1.588889515608394,7.101520738357642
1.0972501779235175,-1.1622406413002864,1.8062836551041568,1.591881906553513,7.081426077079328
1.0888261976254459,-1.1610778976304377,1.8030873813112391,1.5949399725928983,7.061032546772029
1.0804671859644124,-1.1599474743838247,1.7998899226001797,1.5980640863676843,7.040344123447902
1.0721737652426793,-1.158849105683174,1.7966914506649028,1.6012546205190081,7.019364783119055
1.0639465577625038,-1.1577825256512095,1.793492137199332,1.604511947688004,6.998098501797706
1.0557861858261486,-1.156747468410654,1.7902921538973944,1.607836440515808,6.976549255495907
1.0476932717358727,-1.1557436680842366,1.7870916724530128,1.6112284716435565,6.954721020225854
1.0396684377939356,-1.154770858794679,1.783890864560113,1.614688413712385,6.932617771999688
1.0317123063025968,-1.153828774664708,1.7806899019126194,1.618216639363429,6.9102434868295255
1.0238254995641172,-1.152917149817047,1.7774889562044576,1.6218135212378235,6.88760214072752
1.0160086398807562,-1.1520357183744214,1.7742881991295514,1.6254794319767047,6.864697709705819
1.0082623495547751,-1.151184214459557,1.7710878023818262,1.6292147442212088,6.841534169776576
1.0005872508884317,-1.1503623721951783,1.7678879376552068,1.6330198306124704,6.818115496951897
0.9929839661839877,-1.149569925704008,1.764688776643617,1.6368950637916262,6.79444566724397
0.9854531177437016,-1.1488066091087743,1.7614904910409832,1.640840816399811,6.770528656664904
0.9779953278698357,-1.1480721565322012,1.75829325254123,1.644857461078161,6.746368441226867
0.9706112188646467,-1.147366302097012,1.7550972328382812,1.6489453704678116,6.721968996942007
0.9633014130303983,-1.1466887799259324,1.7519026036260614,1.6531049172098986,6.697334299822408
0.9560665326693472,-1.1460393241416882,1.7487095365984966,1.657336473945558,6.672468325880271
0.9489072000837555,-1.1454176688670037,1.7455182034495111,1.6616404133159242,6.6473750511277245
0.9418240375758811,-1.1448235482246039,1.7423287758730295,1.6660171079621344,6.622058451576912
0.9348176674479847,-1.1442566963372134,1.739141425562977,1.670466930525324,6.596522503239953
0.9278887120023276,-1.1437168473275574,1.735956324213278,1.6749902536466277,6.570771182129029
0.9210377935411693,-1.1432037353183613,1.7327736435178571,1.6795874499671821,6.544808464256228
0.9142655343667685,-1.1427170944323484,1.7295935551706403,1.684258892128123,6.518638325633773
0.9075725567813864,-1.1422566587922462,1.7264162308655513,1.6890049527705846,6.492264742273736
0.9009594830872834,-1.1418221625207772,1.7232418422965154,1.693826004535704,6.46569169018829
0.8944269355867172,-1.1414133397406665,1.7200705611574572,1.6987224200646167,6.4389231453895555
0.8879755365819499,-1.1410299245746403,1.7169025591423015,1.7036945719984573,6.411963083889706
0.8816059083752412,-1.1406716511454236,1.7137380079449729,1.7087428329783625,6.38481548170088
0.8753186732688492,-1.1403382535757383,1.7105770792593966,1.7138675756454684,6.357484314835194
0.8691144535650359,-1.1400294659883128,1.7074199447794975,1.7190691726409095,6.3299735593048005
0.8629938715660606,-1.139745022505871,1.7042667761991999,1.724347996605822,6.3022871911218665
0.856957549574183,-1.1394846572511377,1.7011177452124284,1.7297044201813414,6.2744291862985015
0.8510061098916637,-1.1392481043468365,1.6979730235131092,1.7351388160086036,6.246403520846858
0.8451401748207616,-1.139035097915695,1.6948327827951657,1.7406515567287435,6.218214170779081
0.8393603666637386,-1.138845372080436,1.691697194752523,1.7462430149828985,6.189865112107306
0.8336673077228531,-1.138678660963784,1.6885664310791066,1.7519135634122025,6.161360320843727
0.8280616203003643,-1.1385346986884672,1.6854406634688401,1.7576635746577922,6.132703773000422
0.8225439266985339,-1.1384132193772054,1.6823200636156497,1.7634934213608024,6.103899444589551
0.8171148492196223,-1.1383139571527292,1.6792048032134592,1.7694034761623698,6.074951311623263
0.8117750101658863,-1.1382366461377578,1.676095053956194,1.7753941117036296,6.045863350113699
0.8065250318395889,-1.1381810204550213,1.6729909875377784,1.7814657006257166,6.016639536072983
0.8013655365429897,-1.1381468142272404,1.669892775652138,1.787618615569768,5.987283845513321
0.7962971465783464,-1.1381337615771425,1.6668005899931961,1.7938532291769194,5.95780025444677
0.791320484247922,-1.1381415966274524,1.6637146022548792,1.8001699140883038,5.9281927388855316
0.7864361718539743,-1.138170053500894,1.6606349841311108,1.8065690429450603,5.898465274841712
0.7816448316987645,-1.1382188663201924,1.6575619073158163,1.8130509883883226,5.868621838327488
0.7769470860845513,-1.1382877692080735,1.6544955435029203,1.8196161230592274,5.838666405354971
0.7723435573135959,-1.1383764962872598,1.651436064386348,1.8262648195989095,5.808602951936361
0.7678348676881579,-1.1384847816804788,1.6483836416600246,1.8329974506485052,5.778435454083713
0.7634216395104967,-1.138612359510455,1.645338447017873,1.8398143888491492,5.748167887809217
0.7591044950828727,-1.138758963899912,1.6423006521538208,1.8467160068419781,5.717804229125015
0.7548840567075463,-1.138924328971575,1.6392704287617905,1.8537026772681273,5.6873484540432635
0.7507609466867771,-1.1391081888481713,1.6362479485357078,1.860774772768733,5.656804538576104
0.7467357873228253,-1.1393102776524218,1.6332333831694972,1.8679326659849302,5.626176458735639
0.7428092009179497,-1.1395303295070534,1.630226904357084,1.875176729557854,5.595468190534046
0.7389818097744105,-1.1397680785347923,1.6272286837923924,1.8825073361286415,5.5646837099834485
0.7352542361944701,-1.1400232588583625,1.624238893169348,1.8899248583384274,5.533826993095996
0.7316271024803851,-1.1402956046004862,1.6212577041818745,1.8974296688283478,5.502902015883851
0.7281010309344182,-1.1405848498838944,1.6182852885238979,1.9050221402395382,5.471912754359138
0.7246766438588264,-1.1408907288313044,1.6153218178893425,1.9127026452131337,5.440863184533999
0.721354563555872,-1.141212975565447,1.612367463972133,1.9204715563902706,5.409757282420571
0.7181354123278165,-1.1415513242090456,1.6094223984661937,1.9283292464120845,5.378599024031004
0.715019812476914,-1.1419055088848236,1.6064867930654503,1.9362760879197116,5.347392385377432
0.7120083863054303,-1.1422752637155074,1.6035608194638278,1.944312453554286,5.316141342472015
0.7091017561156239,-1.1426603228238221,1.60064464935525,1.952438715956945,5.284849871326898
0.7063005442097516,-1.14306042033249,1.5977384544336422,1.960655247768824,5.253521947954212
0.7036053728900775,-1.1434752903642393,1.5948424063929296,1.9689624216310573,5.222161548366074
0.7010168644588592,-1.143904667041793,1.591956676927036,1.9773606101847825,5.190772648574658
0.6985356412183599,-1.1443482844878772,1.5890814377298865,1.9858501860711335,5.15935922459213
0.6961623254708345,-1.1448058768252136,1.5862168604954068,1.9944315219312474,5.127925252430579
0.693897539518546,-1.1452771781765323,1.5833631169175213,2.003104990406259,5.096474708102193
0.6917419056637542,-1.1457619226645543,1.580520378690154,2.0118709641373043,5.065011567619067
0.6896960462087192,-1.1462598444120076,1.5776888175072308,2.0207298157655185,5.033539806993382
0.6877605834556988,-1.1467706775416135,1.5748686050626761,2.029681917932038,5.002063402237262
0.6859361397069543,-1.1472941561760996,1.5720599130504147,2.0387276432779977,4.970586329362881
0.6842233372647488,-1.1478300144381888,1.5692629131643703,2.047867364444534,4.939112564382327
0.6826227984313364,-1.148377986450606,1.5664777770984701,2.0571014540727823,4.907646083307796
0.681135145508982,-1.1489378063360807,1.5637046765466378,2.0664302848038787,4.87619086215139
0.6797610007999433,-1.1495092082173324,1.5609437832027968,2.0758542292789572,4.844750876925261
0.6785009866064806,-1.1500919262170872,1.5581952687608733,2.0853736601391555,4.813330103641576
0.6773557252308544,-1.15068569445807,1.555459304914792,2.0949889500256083,4.781932518312459
0.6763258389753242,-1.1512902470630086,1.552736063358478,2.1047004715794513,4.750562096950077
0.6754119501421485,-1.1519053181546246,1.5500257157858555,2.1145085974418203,4.719222815566511
0.6746146810335887,-1.1525306418556447,1.5473284338908493,2.12441370025385,4.68791865017397
0.6739346539519069,-1.1531659522887918,1.5446443893673845,2.1344161526566783,4.656653576784549
0.673372491199359,-1.153810983576793,1.5419737539093858,2.1445163272914387,4.625431571410452
0.6729288150782073,-1.1544654698423722,1.5393166992107783,2.154714596799268,4.594256610063745
0.6726042478907113,-1.155129145208254,1.5366733969654862,2.1650113338213015,4.563132668756602
0.6723994119391303,-1.1558017437971637,1.5340440188674342,2.175406910998675,4.532063723501182
0.6723149295257258,-1.156482999731827,1.5314287366105483,2.185901700972524,4.501053750309609
0.6723514229527563,-1.1571726471349688,1.5288277218887518,2.196496076383984,4.470106725194029
0.672509514522484,-1.1578704201293104,1.526241146395971,2.207190409874191,4.439226624166615
0.6727898265371648,-1.158576052837581,1.5236691818261303,2.2179850740842806,4.408417423239477
0.6731929812990618,-1.159289279382504,1.5211119998731533,2.2288804416553885,4.3776830984247255
0.6737196011104336,-1.1600098338868055,1.5185697722309663,2.23987688522865,4.347027625734569
0.6743703082735415,-1.1607374504732073,1.5160426705934926,2.250974777445202,4.31645498118111
0.675145725090645,-1.161471863264436,1.5135308666546585,2.262174490946178,4.285969140776508
0.6760464738640044,-1.1622128063832187,1.511034532108388,2.2734763983727153,4.2555740805329165
0.6770731768958784,-1.162960013952278,1.5085538386486064,2.284880872365949,4.225273776462444
0.6782264564885283,-1.1637132200943379,1.5060889579692378,2.2963882855670157,4.195072204577237
0.6795069349442118,-1.1644721589321247,1.503640061764208,2.307999010617049,4.164973340889489
0.680915234565191,-1.1652365645883638,1.5012073217274409,2.319713420157187,4.134981161411261
0.6824519776537272,-1.1660061711857814,1.4987909095528613,2.331531886828564,4.105099642154769
0.6841177865120747,-1.1667807128470988,1.4963909969343945,2.3434547832723163,4.075332759132145
0.6859132834424999,-1.1675599236950407,1.4940077555659654,2.355482482129579,4.045684488355477
0.6878390907472598,-1.1683435378523348,1.4916413571414984,2.3676095023925967,4.016158805836973
0.6898958307286138,-1.1691312894417067,1.4892919733549193,2.3796492588168157,3.9867596875887372
0.6920841256888233,-1.169922912585879,1.4869597759001498,2.3916008730107325,3.957491109622879
0.6944045979301459,-1.1707181414075771,1.4846449364711187,2.403463466582803,3.9283570479516285
0.6968578697548464,-1.1715167100295245,1.482347626761749,2.415236161141454,3.8993614785870605
0.6994445634651791,-1.1723183525744498,1.480068018465965,2.426918078295147,3.87050837754137
0.702165301363407,-1.173122803165076,1.477806283277693,2.438508339652314,3.8418017208266733
0.7050207057517914,-1.1739297959241268,1.4755625928908556,2.4500060668213948,3.8132454844550807
0.7080113989325891,-1.174739064974328,1.47333711899938,2.461410381410838,3.78484364443878
0.7111380032080623,-1.1755503444384034,1.4711300332971895,2.47272040502909,3.7566001767899095
0.7144011408804696,-1.1763633684390808,1.4689415074782088,2.4839352592845803,3.7285190575205363
0.7178014342520678,-1.1771778710990843,1.4667717132363651,2.4950540657857623,3.700604262642962
0.7213395056251244,-1.1779935865411377,1.46462082226558,2.506075946141074,3.672859768169161
0.7250159773018954,-1.1788102488879644,1.4624890062597786,2.517000021958962,3.6452895501113574
0.7288314715846411,-1.1796275922622939,1.4603764369128887,2.5278254148478627,3.6178975844817316
0.7327866107756202,-1.1804453507868446,1.458283285918832,2.538551246416217,3.590687847292301
0.7368820171770949,-1.1812632585843468,1.4562097249715333,2.5491766382724776,3.563664314555375
0.7411183130913201,-1.1820810497775227,1.4541559257649204,2.5597007120250783,3.5368309622829273
0.7454961208205635,-1.1828984584891002,1.452122059992916,2.5701225892824677,3.510191766487253
0.7500160626670809,-1.1837152188418019,1.450108299349445,2.5804413916530873,3.4837507031803767
0.7546787609331282,-1.18453106495835,1.4481148155284327,2.5906562407453695,3.4575117483745075
0.7594848379209758,-1.1853457309614748,1.4461417802238028,2.6007662581677753,3.4314788780817906
0.7644349159328723,-1.1861589509738986,1.444189365129481,2.61077056552873,3.405656068314265
0.7695296172710844,-1.186970459118347,1.4422577419393918,2.620668284436684,3.380047295084225
0.7747695642378716,-1.1877799895175447,1.4403470823474605,2.6304585365000843,3.3546565344037234
0.7801553791354916,-1.1885872762942147,1.4384575580476122,2.640140443327363,3.32948776228492
0.7856876842662057,-1.1893920535710842,1.4365893407337698,2.649713126526972,3.304544954739974
0.7913671019322752,-1.1901940554708772,1.434742602099861,2.6591757077073535,3.2798320877809957
0.7969660023223781,-1.1909930161163191,1.4329175138398078,2.668527308476934,3.2553531374201583
0.8022201686014085,-1.191788669630133,1.4311142476475376,2.6777670504441726,3.231112079669572
0.807137556344955,-1.1925807501350456,1.4293329752169726,2.686894055217511,3.207112890541417
0.8117261211287428,-1.1933689917537857,1.4275738682420398,2.695907444405389,3.1833595460478037
0.8159938185284688,-1.1941531286090687,1.4258370984166624,2.704806339616244,3.1598560222009056
0.8199486041197872,-1.1949328948236286,1.4241228374347652,2.7135898624585284,3.1366062950128537
0.8235984334786366,-1.195708024520183,1.4224312569902744,2.722257134540671,3.113614340495751
0.8269512621805006,-1.1964782518214632,1.420762528777113,2.730807277471129,3.090884134661792
0.8300150458012752,-1.197243310850189,1.4191168244892083,2.7392394128583355,3.0684196535230868
0.8327977399165576,-1.1980029357290904,1.4174943158204836,2.7475526623107385,3.0462248730918304
0.8353073001022864,-1.1987568605808874,1.4158951744648642,2.755746147436776,3.024303769380076
0.8375516819339452,-1.1995048195283053,1.4143195721162733,2.7638189898448893,3.0026603184000464
0.8395388409874727,-1.2002465466940748,1.4127676804686375,2.771770311143536,2.981298496163866
0.841276732838395,-1.2009817762009147,1.4112396712158803,2.779599232941136,2.9602222786836236
0.8427733130626365,-1.2017102421715489,1.4097357160519284,2.787304876846145,2.9394356419715493
0.8440365372357377,-1.2024316787287082,1.4082559866707047,2.794886364467006,2.9189425620397316
0.8450743609335944,-1.203145819995116,1.4068006547661351,2.8023428174121587,2.8987470149003087
0.8458947397318326,-1.2038524000934938,1.4053698920321436,2.8096733572900447,2.8788529765654545
0.8465056292062343,-1.2045511531465696,1.4039638701626553,2.8168771057091053,2.8592644230472715
0.8469149849324822,-1.2052418132770644,1.4025827608515957,2.8239531842777854,2.839985330357969
0.8471307624864011,-1.2059241146077087,1.4012267357928891,2.8309007146045353,2.8210196745096
0.8471609174435315,-1.2065977912612258,1.39989596668046,2.8377188182977804,2.802371431514352
0.847013405379812,-1.2072625773603347,1.3985906252082332,2.8444066169659745,2.7840445773843996
0.846696181870783,-1.2079182070277676,1.3973108830701348,2.8509632322175626,2.766043088131852
0.8462172024923547,-1.208564414386247,1.3960569119600876,2.8573877856609773,2.74837093976884
0.8455844228201244,-1.2092009335584981,1.3948288835720168,2.8636793989046705,2.7310321083075593
0.84480579842986,-1.2098274986672441,1.393626969599849,2.8698371935570783,2.7140305697600553
0.843889284897287,-1.2104438438352112,1.3924513417375075,2.875860291226644,2.6973703001385445
0.8428428377981447,-1.2110497031851253,1.3913021716789173,2.881747813521814,2.6810552754551793
0.8416744127081586,-1.2116448108397098,1.3901796311180044,2.8874988820510357,2.6650894717220694
0.8403919652030822,-1.212228900921689,1.3890838917486898,2.8931126184227374,2.649476864951353
0.83900345085857,-1.2128017075537896,1.3880151252649031,2.898588144245368,2.634221431155183
0.8375168252505034,-1.2133629648587352,1.3869735033605664,2.903924581127372,2.619327146345711
0.8359400439543947,-1.2139124069592526,1.3859591977296053,2.909121050677193,2.6047979865350754
0.8342810625461254,-1.2144497679780661,1.3849723800659448,2.9141766745032704,2.590637927735372
0.8325478366013783,-1.2149747820378964,1.384013222063508,2.919090574214051,2.5768509459588387
0.8307483216958644,-1.215487183261474,1.3830818954162223,2.923861871417971,2.5634410172175706
0.8288904734053517,-1.2159867057715221,1.3821785718180117,2.9284896877234736,2.550412117523692
0.8269822473055513,-1.2164730836907642,1.3813034229627994,2.9329731447390035,2.537768222889369
0.8250315989721457,-1.2169460511419254,1.3804566205445115,2.9373113640730093,2.5255133093266693
0.8230464839809599,-1.2174053422477336,1.3796383362570732,2.9415034673339235,2.513651352847887
0.8210348579076765,-1.2178506911309102,1.378848741794409,2.9455485761301965,2.5021863294650473
0.8190046763280918,-1.218281831914183,1.378088008850444,2.9494458120702642,2.491122215190316
0.8169638948177464,-1.2186984987202711,1.3773563091191008,2.953194296762577,2.4804629860358602
0.8149204689524652,-1.2191004256719067,1.3766538142943072,2.9567931518155692,2.4702126180137753
0.8128823543079875,-1.2194873468918113,1.375980696069985,2.9602414988376875,2.4603750871362564
0.810857506460195,-1.21985899650271,1.3753371261400633,2.9635384594373697,2.4509543694154416
0.8088538809845431,-1.2202151086273272,1.3747232761984614,2.966683155223068,2.4419544408634266
0.8068794334569134,-1.220555417388388,1.3741393179391106,2.9696747078032146,2.4333792774924063
0.8049421194530169,-1.220879656908619,1.3735854230559283,2.972512238786255,2.425232855314448
0.8030498945485363,-1.2211875613107432,1.3730617632428461,2.9751948697806405,2.417519150341846
0.8012107143192679,-1.2214788647174872,1.3725685101937848,2.9777217223948043,2.410242138586554
0.7994325343410082,-1.2217533012515736,1.3721058356026696,2.980091918237189,2.403405796060852
0.7977233101892409,-1.2220106050357273,1.3716739111634264,2.982304578916242,2.3970140987768076
0.7960909974398476,-1.222250510192679,1.37127290856998,2.9843588260404026,2.391071022746601
0.794543551668653,-1.222472750845145,1.3709029995162556,2.9862537812181102,2.3855805439823996
0.7930889284511693,-1.2226770611158546,1.370564355696175,2.9879885660578154,2.3805466384962557
0.7917350833633066,-1.2228631751275314,1.3702571488036672,2.9895623021679505,2.3759732823003787
0.7904899719806622,-1.223030827002904,1.3699815505326534,2.9909741111569765,2.371864451406907
0.7893615498790894,-1.2231797508646949,1.3697377325770614,2.992223114633312,2.368224121828021
0.7883577726342423,-1.2233096808356256,1.3695258666308132,2.9933084342054173,2.36505626957576
0.7874865958218038,-1.223420351038425,1.3693461243878362,2.9942291914817183,2.362364870662347
0.7867559750176554,-1.2235114955958188,1.3691986775420535,2.994984508070676,2.3601539010998778
0.7861738657973945,-1.223582848630529,1.3690836977873908,2.995573505580733,2.358427336900519
0.785748223736789,-1.2236341442652812,1.3690013568177712,2.9959953056203084,2.357189154076451
0.7854870044114932,-1.2236651166228016,1.3689518263271228,2.9962490297978697,2.3564433286397843
0.7853981633974172,-1.223675499825812,1.368935278009367,2.9963337997218424,2.3561938366026283
