oscarkremer/mentor-optimization/notebooks/traject_2/non_adaptive/angles_0.csv
theta1,theta2,theta3,theta4,theta5
3.7295952571373574,-0.7943678438589166,1.973043134264813,1.9629173631838936,3.2059965904706873
3.729572296892299,-0.794404849630069,1.9728502203675762,1.9629124441736603,3.2053230692517074
3.729503818815365,-0.7945154741885659,1.9722772991075685,1.9628980494581492,3.2033232372799265
3.729390426893916,-0.7946991284019668,1.9713331011323427,1.9628747225101442,3.2000281920830833
3.7292327251153146,-0.7949552231378312,1.9700263570894518,1.9628430068024287,3.1954690311889173
3.7290313174669216,-0.7952831692637186,1.9683657976264497,1.962803445807786,3.189676852125168
3.7287868079360975,-0.7956823776471883,1.9663601533908892,1.9627565829990006,3.182682752419574
3.728499800510205,-0.7961522591558,1.964018155030323,1.9627029618488556,3.1745178295998744
3.7281708991766047,-0.7966922246571132,1.9613485331923053,1.9626431258301347,3.165213181193808
3.727800707922658,-0.7973016850186873,1.9583600185243888,1.9625776184156212,3.1547999047291144
3.727389830735726,-0.7979800511080817,1.9550613416741263,1.9625069830780992,3.143309097733532
3.7269388716031715,-0.798726733792856,1.9514612332890715,1.962431763290352,3.1307718577348007
3.726448434512354,-0.7995411439405699,1.9475684240167774,1.9623525025251636,3.117219282260659
3.725919123450636,-0.8004226924187823,1.9433916445047972,1.9622697442553172,3.1026824688388457
3.7253515424053787,-0.8013707900950533,1.9389396254006843,1.9621840319535968,3.0871925149971005
3.724746295363943,-0.802384847836942,1.9342210973519915,1.9620959090927854,3.0707805182631622
3.724103986313691,-0.8034642765120081,1.9292447910062724,1.9620059191456674,3.05347757616477
3.7234252192419834,-0.8046084869878111,1.9240194370110801,1.961914605585026,3.0353147862296623
3.7227105981361817,-0.8058168901319103,1.9185537660139675,1.9618225118836448,3.0163232459855784
3.721960726983647,-0.8070888968118652,1.9128565086624882,1.9617301815143076,2.996534052960258
3.721176209771742,-0.8084239178952356,1.9069363956041951,1.961638157949798,2.97597830468144
3.7203576504878266,-0.8098213642495806,1.9008021574866416,1.9615469846628992,2.9546870986768634
3.7195056531192625,-0.8112806467424599,1.8944625249573805,1.9614572051263957,2.932691532474266
3.7186208216534116,-0.8128011762414329,1.8879262286639655,1.9613693628130702,2.910022703601389
3.717703760077635,-0.8143823636140591,1.8812019992539497,1.9612840011957071,2.88671170958597
3.716755072379293,-0.8160236197278982,1.8742985673748858,1.9612016637470893,2.8627896479557484
3.715775362545749,-0.8177243554505094,1.8672246636743275,1.9611228939400007,2.8382876162384636
3.714765234564363,-0.8194839816494521,1.8599890187998278,1.9610482352472254,2.813236711961854
3.713725292422496,-0.8213019091922863,1.8526003633989403,1.9609782311415465,2.787668032653659
3.7126561401075104,-0.8231775489465709,1.8450674281192174,1.9609134250957476,2.761612675841618
3.711558381606767,-0.8251103117798658,1.8373989436082128,1.9608543605826125,2.7351017390534698
3.710432620907628,-0.8270996085597303,1.82960364051348,1.9608015810749249,2.708166319816953
3.7092794619974536,-0.829144850153724,1.8216902494825713,1.9607556300454683,2.6808375156598077
3.7080995088636057,-0.8312454474294062,1.8136675011630408,1.9607170509670262,2.653146424109772
3.7068933654934453,-0.8334008112543366,1.805544126202441,1.9606863873123823,2.625124142694585
3.7056616358743346,-0.8356103524960745,1.7973288552483253,1.9606641825543205,2.5968017689419867
3.7044049239936343,-0.8378734820221795,1.7890304189482473,1.9606509801656242,2.568210400379715
3.703123833838706,-0.840189610700211,1.78065754794976,1.960647323619077,2.5393811345355095
3.701818969396911,-0.8425581493977288,1.772218972900416,1.9606537563874622,2.5103450689371094
3.70049093465561,-0.844978508982292,1.7637234244477693,1.9606708219435642,2.481133301112254
3.6991403336021658,-0.8474501003214602,1.755179633239373,1.9606990637601662,2.451776928588681
3.6977677702239387,-0.849972334282793,1.7465963299227796,1.9607390253100516,2.422307048894131
3.69637384850829,-0.8525446217338496,1.737982245145543,1.9607912500660043,2.3927547595563423
3.694959172442582,-0.8551663735421898,1.729346109555216,1.960856281500808,2.3631511581030544
3.693524346014175,-0.857837000575373,1.7206966537993518,1.960934663087246,2.3335273420620055
3.692069973210431,-0.8605559137009589,1.712042608525504,1.961026938298102,2.303914408960936
3.690596658018711,-0.8633225237865064,1.7033927043812254,1.96113365060616,2.274343456327584
3.6891050044263767,-0.8661362416995756,1.6947556720140693,1.9612553434842035,2.2448455816896886
3.687595616420789,-0.8689964783077256,1.686140242071589,1.9613925604050155,2.2154518825749894
3.6860690979893103,-0.8719026444785161,1.6775551452013377,1.9615458448413805,2.1861934565112247
3.6845260531193005,-0.8748541510795064,1.669009112050868,1.9617157402660816,2.157101401026134
3.682967085798122,-0.8778504089782561,1.6605108732677343,1.9619027901519024,2.1282068136474557
3.6813928000131355,-0.8808908290423247,1.6520691594994887,1.9621075379716268,2.0995407919029305
3.6798037997517032,-0.8839748221392717,1.6436927013936846,1.9623305271980382,2.0711344333202963
3.6782006890011862,-0.8871017991366564,1.6353902295978757,1.9625723013039205,2.043018835427292
3.676584071748945,-0.8902711709020387,1.6271704747596147,1.9628334037620572,2.0152250957516564
3.6749545519823417,-0.8934823483029777,1.619042167526455,1.9631143780452316,1.9877843118211296
3.673312733688738,-0.8967347422070331,1.6110140385459495,1.9634157676262276,1.9607275811634506
3.6716592208554943,-0.9000277634817643,1.6030948184656522,1.963738115977829,1.9340860013063577
3.669994617469973,-0.9033608229947306,1.5952932379331153,1.964081966572819,1.90789066977759
3.6683195275195346,-0.9067333316134919,1.5876180275958927,1.9644478628839819,1.882172684104887
3.666634554991541,-0.9101447002056073,1.580077918101537,1.9648363483841005,1.8569631418159875
3.6649403038733532,-0.9135943396386367,1.5726816400976018,1.9652479665459586,1.832293140438631
3.663237378152333,-0.9170816607801392,1.5654379242316403,1.9656832608423402,1.8081937775005557
3.6615263818158414,-0.9206060744976744,1.5583555011512056,1.966142774746029,1.7846961505295018
3.6598079188512402,-0.9241669916588019,1.5514431015038508,1.9666270517298081,1.7618313570532076
3.6580825932458896,-0.927763823131081,1.5447094559371295,1.9671366352664617,1.7396304945994119
3.6563510089871527,-0.9313959797820713,1.5381632950985944,1.967672068828773,1.7181246606958547
3.6546137700623897,-0.9350628724793324,1.5318133496357984,1.9682338958895256,1.6973449528702738
3.652871480458962,-0.9387639120904236,1.5256683501962955,1.968822659921503,1.6773224686504096
3.6511247441642314,-0.9424985094829046,1.5197370274276387,1.9694389043974896,1.658088305564
3.6493741651655593,-0.9462660755243346,1.5140281119773813,1.9700831727902681,1.6396735611387854
3.647620347450306,-0.9500660210822732,1.508550334493076,1.970756008572623,1.6221093329025031
3.6458638950058346,-0.9538977570242801,1.503312425622276,1.9714579552173372,1.605426718382894
3.644105411819505,-0.9577606942179144,1.4983231160125348,1.9721895561971943,1.5896568151076953
3.6423455018786792,-0.961654243530736,1.4935911363114058,1.9729513549849784,1.574830720604648
3.6405847691707187,-0.9655778158303041,1.4891252171664418,1.9737438950534731,1.5609795324014901
3.6388238176829844,-0.9695308219841782,1.484934089225196,1.9745677198754616,1.548134348025961
3.637063251402838,-0.973512672859918,1.481026483135222,1.975423372923728,1.536326265005799
3.6353036743176403,-0.9775227793250827,1.4774111295440724,1.9763113976710556,1.5255863808687433
3.633545690414754,-0.9815605522472319,1.4740967590993008,1.977232337590228,1.5159457931425333
3.6317899036815393,-0.9856254024939254,1.47109210244846,1.978186736154029,1.5074355993549085
3.6300369181053576,-0.9897167409327223,1.468405890239104,1.9791751368352422,1.5000868970336074
3.6282873376735707,-0.993833978431182,1.4660468531187851,1.9801980831066512,1.4939307837063698
3.6265417663735398,-0.9979765258568645,1.4640237217350571,1.9812561184410395,1.4889983569009333
3.6248008081926257,-1.0021437940773288,1.462345226735473,1.982349786311191,1.4853207141450384
3.623065067118191,-1.0063351939601344,1.4610200987675859,1.983479630189889,1.482928952966423
3.621335147137596,-1.010550136372841,1.4600570684789487,1.9846461935499171,1.4818541708928272
3.6196116522382025,-1.0147880321830083,1.4594648665171155,1.9858500198640594,1.4821274654519896
3.617895186407372,-1.0190482922581956,1.4592522235296383,1.9870916526050992,1.483779934171649
3.6161863536324654,-1.023330327465962,1.4594278701640715,1.98837163524582,1.4868426745795449
3.6144857579008445,-1.0276335486738675,1.4600005370679674,1.9896905112590055,1.491346784203417
3.6127940031998707,-1.031957366749471,1.4609789548888794,1.9910488241174396,1.4973233605710026
3.611111693516905,-1.036301192560333,1.4623718542743613,1.9924471172939056,1.5048035012100418
3.6094394328393085,-1.040664436974012,1.4641879658719654,1.9938859342611872,1.5138183036482729
3.6077778251544435,-1.0450465108580678,1.4664360203292455,1.9953658184920682,1.524398865413437
3.60612747444967,-1.0494468250800602,1.4691247482937546,1.996887313459332,1.5365762840332713
3.604488984712351,-1.0538647905075482,1.4722628804130455,1.9984509626357623,1.5503816570355151
3.602862959929847,-1.0582998180080916,1.4758591473346718,2.0000573094941427,1.5658460819479072
3.6012500040895192,-1.0627513184492496,1.4799222797061873,2.001706897507257,1.5830006562981889
3.599650721178729,-1.0672187026985822,1.4844610081751441,2.0034002701478886,1.6018764776140961
3.598065715184839,-1.0717013816236485,1.4894840633890958,2.005137970888821,1.6225046434233703
3.5964955900952083,-1.076198766092008,1.495000175995596,2.0069205432028383,1.6449162512537474
3.5949409498972,-1.08071026697122,1.5010180766421977,2.0087485305627233,1.6691423986329705
3.5934023985781747,-1.0852352951288446,1.5075464959764533,2.010622476441261,1.695214183088777
3.5918805401254943,-1.089773261432441,1.5145941646459167,2.012542924311233,1.7231627021489055
3.5903759785265197,-1.0943235767495683,1.5221698132981414,2.0145104176454254,1.7530190533410943
3.5888893177686123,-1.0988856519477868,1.5302821725806794,2.01652549991662,1.7848143341930829
3.587421161839134,-1.103458897894655,1.5389399731410855,2.018588714597601,1.8185796422326126
3.5859721147254455,-1.108042725457733,1.5481519456269122,2.0207006051611516,1.8543460749874203
3.5845427804149086,-1.1126365455045801,1.5579268206857124,2.0228617150800563,1.8921447299852439
3.5831337628948843,-1.117239768902756,1.5682733289650395,2.025072587827098,1.932006704753828
3.5817456661527345,-1.12185180651982,1.5792002011124466,2.0273337668750604,1.9739630968209037
3.58037909417582,-1.1264720692233314,1.5907161677754864,2.0296457956967275,2.0180450037142155
3.579034650951502,-1.1310999678808504,1.6028299596017135,2.0320092177648825,2.0642835229615013
3.5777129404671424,-1.1357349133599357,1.6155503072386797,2.0344245765523095,2.1127097520905
3.5764145667101026,-1.140376316528147,1.6288859413339392,2.0368924155317916,2.1633547886289497
3.5751401336677437,-1.1450235882530442,1.6428455925350445,2.0394132781761125,2.2162497301045905
3.5738902453274273,-1.1496761394021864,1.6574379914895485,2.0419877079580564,2.2714256740451626
3.572665505676514,-1.154333380843133,1.6726718688450064,2.0446162483504065,2.328913717978401
3.5714665187023664,-1.1589947234434437,1.6885559552489688,2.0472994428259463,2.3887449594320502
3.570293888392345,-1.1636595780706778,1.7050989813489905,2.0500378348574593,2.4509504959338466
3.5691482187338113,-1.1683273555923952,1.7218378201541988,2.05283196791773,2.515561425011529
3.568030113714127,-1.1729974668761547,1.738385177903408,2.0556823854795407,2.5826088441928343
3.5669401773206526,-1.1776693227895165,1.7547418362159952,2.0585896310156757,2.6521238510055065
3.5658790135407505,-1.18234233420004,1.7709085767113355,2.0615542479989193,2.7241375429772807
3.564847226361782,-1.187015911975284,1.7868861810088037,2.064576779902054,2.798681017635899
3.5638454197711074,-1.1916894669828089,1.802675430727776,2.0676577701978642,2.875785372509097
3.562874197756089,-1.1963624100901733,1.818277107487628,2.070797762359133,2.955481705124618
3.561934164304088,-1.2010341521649375,1.8336919929077347,2.073997299858644,3.0378011130101967
3.561025923402466,-1.2057041040746603,1.8489208686074714,2.0772569261691816,3.1227746936935734
3.560150079038584,-1.2103716766869017,1.863964516206214,2.0805771847635284,3.2083666585912196
3.5593072351998027,-1.2150362808692208,1.8788237173233377,2.0839586191144686,3.2929957604320643
3.5584979958734846,-1.2196973274891776,1.8934992535782174,2.0874017726947858,3.3766659752282684
3.557722965046991,-1.2243542274143313,1.9079919065902289,2.0909071889772637,3.4593812789919536
3.5569827467076824,-1.2290063915122411,1.9223024579787484,2.0944754114346855,3.5411456477352807
3.5562779448429205,-1.2336532306504668,1.93643168936315,2.0981069835398354,3.621963057470377
3.5556091634400677,-1.2382941556965679,1.950380382362809,2.1018024487654965,3.7018374842094053
3.5549770064864834,-1.2429285775181038,1.9641493185971017,2.105562350584453,3.780772903964486
3.5543820779695308,-1.247555906982634,1.9777392796854047,2.1093872324694876,3.8587732927477782
3.55382498187657,-1.252175554957718,1.9911510472470906,2.1132776378933844,3.935842626571411
3.5533063221949632,-1.2567869323109155,2.004385402901536,2.117234110328928,4.011984881447544
3.552826702912072,-1.2613894499097855,2.017443128268117,2.1212571932489004,4.087204033388299
3.5523867280152563,-1.2659825186218878,2.0303250049662087,2.125347430126086,4.1615040584058365
3.5519870014918786,-1.2705655493147818,2.0430318146151865,2.1295053644332684,4.234888932512284
3.5516281273293004,-1.2751379528560274,2.0555643388344245,2.1337315396432315,4.3073626317198075
3.5513107095148824,-1.2796991401131832,2.0679233592433,2.1380264992287583,4.37892913204052
3.5510353520359867,-1.2842485219538093,2.0801096574611884,2.142390786662633,4.449592409486584
3.5508026588799737,-1.2887855092454652,2.0921240151074634,2.146824945417639,4.519356440070133
3.5506132340342056,-1.2933095128557106,2.1039672138015013,2.1513295189665596,4.588225199803315
3.550467681486043,-1.297819943652104,2.1156400351626776,2.155905050782179,4.656202664698273
3.550366605222848,-1.3023162125022063,2.127143260810368,2.1605520843372803,4.7232928107671395
3.5503106092319814,-1.3067977302735758,2.138477672363947,2.1652711631046477,4.789499614022073
3.5503002975008053,-1.3112639078337727,2.1496440514427912,2.17001672445499,4.8548270504752065
3.5503362740166806,-1.315714156050356,2.160643179666275,2.1747489149753965,4.919279096138686
3.5504191427669687,-1.3201478857908855,2.1714758386537754,2.1794677327852634,4.982859727024644
3.5505495077390306,-1.3245645079229205,2.182142810024666,2.1841731760039877,5.045572919145238
3.550727972920228,-1.3289634333140208,2.1926448753983223,2.1888652427509694,5.107422648512599
3.5509551422979224,-1.3333440728317454,2.2029828163941207,2.193543931145604,5.168412891138883
3.5512316198594753,-1.3377058373436546,2.213157414631436,2.1982092393072907,5.228547623036213
3.551558009592247,-1.3420481377173066,2.223169451729644,2.2028611653554266,5.287830820216753
3.5519349154836,-1.3463703848202622,2.233019709308119,2.2074997074094087,5.346266458692626
3.5523629415208955,-1.3506719895200798,2.2427089689862387,2.212124863588637,5.403858514475994
3.5527390174965667,-1.35495236268432,2.2522380123833763,2.216736632012507,5.460610963578976
3.5529644410740353,-1.3592109151805416,2.261607621118908,2.221335010800417,5.516527782013737
3.5530401036684935,-1.363447057876304,2.2708185768122093,2.225919998071766,5.571612945792406
3.5529668966951276,-1.367660201639167,2.2798716610826557,2.2304915919459494,5.6258704309271375
3.5527457115691274,-1.3718497573366897,2.2887676555496217,2.2350497905423663,5.679304213430056
3.5523774397056824,-1.3760151358364319,2.297507341832485,2.239594591980415,5.731918269313326
3.551862972519981,-1.3801557480059534,2.3060915015506183,2.2441259943794925,5.7837165745890715
3.5512032014272137,-1.384271004712813,2.3145209163233984,2.248643995858996,5.83470310526944
3.550399017842567,-1.3883603168245706,2.3227963677702013,2.253148594538325,5.884881837366583
3.5494513131812315,-1.3924230952087857,2.3309186375104,2.2576397885368755,5.934256746892638
3.548360978858396,-1.3964587507330177,2.3388885071633734,2.2621175759740453,5.982831809859739
3.5471289062892497,-1.4004666942648258,2.3467067583484917,2.2665819549692334,6.030611002280034
3.5457559868889823,-1.40444633667177,2.354374172685138,2.271032923641836,6.077598300165677
3.5442431120727798,-1.4083970888214097,2.361891531792681,2.275470480111252,6.123797679528796
3.5425911732558344,-1.412318361581304,2.369259617290497,2.2798946224968786,6.169213116381545
3.5408010618533328,-1.4162095658190128,2.376479210797966,2.2843053489181138,6.21384858673605
3.5388736692804663,-1.4200701124020954,2.3835510939344586,2.288702657494355,6.25770806660447
3.536809886952421,-1.4238994121981112,2.390476048319352,2.2930865463450005,6.300795531998936
3.5346106062843896,-1.4276968760746198,2.3972548555720214,2.297457013589447,6.3431149589316025
3.532276718691558,-1.4314619148991805,2.403888297311841,2.301814057347094,6.3846703234146
3.529809115589117,-1.435193939539353,2.4103771551581907,2.3061576757373374,6.425465601460085
3.5272086883922533,-1.4388923608626971,2.416722210730441,2.3104878668795754,6.465504769080184
3.5244763285161578,-1.442556589736772,2.422924245647968,2.3148046288932065,6.504791802287053
3.5216129273760197,-1.4461860370291368,2.4289840415301494,2.319107959897628,6.543330677092824
3.518619376387027,-1.4497801136073512,2.43490237999636,2.3233978580122367,6.581125369509648
3.515496566964369,-1.453338230338975,2.4406800426659725,2.3276743213564317,6.618179855549657
3.512245390523235,-1.4568597980915676,2.446317811158365,2.3319373480496104,6.65449811122501
3.5088667384788144,-1.4603442277326883,2.4518164670929132,2.33618693621117,6.690084112547832
3.505361502246295,-1.463790930129897,2.4571767920889913,2.340423083960509,6.7249418355302835
3.501730573240866,-1.4671993161507526,2.4623995677659756,2.344645789417024,6.759075256184493
3.4979748428777175,-1.4705687966628143,2.467485575743239,2.3488550507001142,6.7924883505226035
3.494095202572037,-1.4738987825336431,2.4724355976401595,2.3530508659291764,6.82518509455677
3.490092543739014,-1.4771886846307969,2.4772504150761128,2.3572332332236083,6.85716946429912
3.485967757793838,-1.480437913821836,2.481930809670472,2.3614021507028085,6.8884454357618035
3.4817217361516986,-1.4836458809743194,2.486477563042615,2.365557616486173,6.919016984956963
3.477355370227782,-1.4868119969558071,2.4908914568119163,2.369699628693101,6.948888087896744
3.4728695514372827,-1.4899356726338588,2.4951732725977513,2.3738281854429903,6.978062720593287
3.468265171195382,-1.4930163188760326,2.4993237920194935,2.3779432848552373,7.006544859058726
3.463543120917276,-1.4960533465498895,2.5033437966965213,2.3820449250492413,7.034338479305218
3.458704292018147,-1.4990461665229886,2.5072340682482075,2.386133104144399,7.0614475573449
3.4537495759131915,-1.5019941896628888,2.5109953882939284,2.3902078202601085,7.087876069189901
3.4486798640175933,-1.5048968268371508,2.5146285384530613,2.394269071515768,7.113627990852385
3.4434960477465406,-1.5077534889133326,2.5181343003449816,2.398316856030774,7.138707298344477
3.4381990185152267,-1.5105635867589944,2.521513455589062,2.402351171924525,7.163117967678341
3.432789667738839,-1.513326531241696,2.524766785804678,2.4063720173164196,7.186863974866092
3.4272688868325645,-1.5160417332289962,2.527895072611206,2.4103793903258537,7.2099492959199
3.4216375672115946,-1.518708603588455,2.530899097628023,2.4143732890722256,7.232377906851885
3.4158966002911155,-1.5213265531876314,2.533779642474501,2.4183537116749343,7.2541537836742
3.4100468774863204,-1.523894992894086,2.536537488770019,2.4223206562533757,7.275280902398991
3.4040892902123945,-1.5264133335753765,2.5391734181339496,2.4262741209269496,7.295763239038403
3.398024729884527,-1.5288809860990642,2.5416882121856728,2.430214103815052,7.315604769604559
3.39185408791791,-1.5312973613327077,2.544082652544558,2.4341406030370805,7.334809470109622
3.3855782557277307,-1.5336618701438667,2.5463575208299822,2.438053616712435,7.35338131656572
3.3791981247291765,-1.5359739234000997,2.548513598661323,2.4419531429605104,7.37132428498501
3.3727145863374393,-1.538232931968968,2.5505516676579534,2.445839179900706,7.388642351379626
3.3661285319677043,-1.5404383067180303,2.552472509439252,2.44971172565242,7.4053394917617155
3.3594408530351645,-1.542589458514845,2.554276905624591,2.4535707783350493,7.421419682143417
3.3526524409550067,-1.544685798226973,2.5559656378333484,2.4574163360679915,7.436886898536859
3.345764187142421,-1.546726736721973,2.5575394876848976,2.4612483969706456,7.451745116954214
3.338776983012594,-1.5487116848674054,2.5589992367986154,2.4650669591624066,7.465998313407604
3.331691719980719,-1.5506400535308285,2.5603456667938738,2.4688720207626753,7.4796504639091825
3.3245092894619823,-1.5525112535798022,2.561579559290053,2.472663579890848,7.492705544471078
3.317230582871572,-1.554324695881887,2.5627016959065254,2.476441634666322,7.505167531105448
3.309856491624676,-1.556079791304641,2.5637128582626683,2.4802061832084963,7.517040399824423
3.302387907136489,-1.5577759507156241,2.5646138279778565,2.4839572236367675,7.528328126640161
3.294825720822196,-1.5594125849823963,2.5654053866714652,2.4876947540705334,7.539034687564782
3.2871708240969846,-1.5609891049725164,2.566088315962869,2.4914187726291925,7.549164058610456
3.2794241083760456,-1.5625049215535445,2.5666633974714435,2.4951292774321425,7.558720215789297
3.27158646507457,-1.5639594455930395,2.5671314128165634,2.49882626659878,7.567707135113476
3.2636587856077446,-1.565352087958561,2.5674931436176074,2.502509738248504,7.576128792595108
3.255641961390757,-1.5666822595176688,2.567749371493948,2.5061796905007117,7.583989164246347
3.247536883838796,-1.5679493711379227,2.567900878064961,2.5098361214748004,7.591292226079348
3.239344444367057,-1.569152833686881,2.5679484449500247,2.5134790292901688,7.598041954106241
3.231065534390723,-1.5702920580321043,2.567892853768509,2.517108412066214,7.604242324339172
3.222701045324983,-1.571366455041152,2.5677348861397933,2.5207242679223336,7.609897312790283
3.2142518685850265,-1.5723754355815827,2.5674753236832526,2.524326594977925,7.615010895471702
3.205718895586043,-1.5733184105209568,2.567114948018261,2.527915391352387,7.619587048395601
3.1971030177432262,-1.574194790726833,2.566654540764194,2.5314906551651175,7.623629747574105
3.188405126471756,-1.575003987066772,2.56609488354043,2.5350523845355135,7.627142969019355
3.179626113186829,-1.5757454104083322,2.5654367579663395,2.538600577582972,7.630130688743501
3.170766869303631,-1.5764184716190732,2.5646809456613022,2.542135232426892,7.632596882758673
3.1618282862373497,-1.5770225815665546,2.5638282282446925,2.545656347186671,7.634545527077023
3.1528112554031775,-1.5775571511183366,2.562879387335882,2.5491639199817056,7.635980597710699
3.143716668216299,-1.5780215911419777,2.561835204554253,2.5526579489313947,7.636906070671836
3.1345454160919086,-1.5784153125050384,2.560696461519174,2.5561384321551364,7.637325921972579
3.125298390445191,-1.5787377260750768,2.5594639398500254,2.559605367772327,7.637244127625069
3.115976482691337,-1.5789882427196538,2.558138421166179,2.5630587539023657,7.636664663641451
3.1065805842455347,-1.5791662733063279,2.556720687087016,2.5664985886646488,7.635591506033867
3.0971115865229737,-1.5792712287026587,2.5552115192319054,2.5699248701785753,7.634028630814457
3.087570380938843,-1.579302519776206,2.553611699220224,2.5733375965635426,7.631980013995367
3.0779578589083303,-1.5792595573945294,2.5519220086713488,2.5767367659389477,7.629449631588731
3.068274911846628,-1.579141752425188,2.5501432292046537,2.5801223764241894,7.6264414596067045
3.0585224311689228,-1.5789485157357417,2.548276142439516,2.583494426138665,7.622959474061419
3.0487013082904033,-1.5786792581937497,2.5463215299953097,2.5868529132017715,7.61900765096502
3.0388124346262577,-1.5783333906667714,2.5442801734914107,2.5901978357329076,7.614589966329662
3.0288567015916774,-1.577910324022367,2.5421528545471967,2.593529191851471,7.60971039616747
3.018835000601851,-1.5774094691280949,2.539940354782039,2.596846979676858,7.604372916490597
3.0087482230719655,-1.576830236851515,2.5376434558153145,2.600151197328469,7.598581503311193
2.9985972604172106,-1.576172038060187,2.535262939266396,2.603441842925699,7.5923401326413735
2.9883830040527766,-1.5754342836216704,2.532799586754666,2.606718914587948,7.585652780493303
2.9781063453938543,-1.5746163844035246,2.5302541798994937,2.609982410434612,7.578523422879114
2.9677681758556265,-1.573717751273309,2.527627500320259,2.6132323285850894,7.570956035810974
2.957369386853285,-1.5727377950985837,2.524920329636331,2.616468667158778,7.562954595300994
2.9469108698020214,-1.571675926746907,2.5221334494670926,2.6196914242750755,7.554523077361322
2.9363935161170236,-1.5705315570858391,2.519267641431912,2.6229005980533793,7.545665458004114
2.925818217213479,-1.5693040969829397,2.5163236871501704,2.626096186613088,7.536385713241508
2.9151858645065776,-1.5679929573057678,2.5133023682412414,2.6292781880735983,7.526687819085641
2.904497349411507,-1.566597548921883,2.510204466324498,2.6324466005543083,7.516575751548652
2.893753563343462,-1.5651172826988453,2.5070307630193196,2.6356014221746165,7.506053486642694
2.882955397717621,-1.5635515695042133,2.503782039945077,2.63874265105392,7.495125000379918
2.872103743949182,-1.5618998202055472,2.500459078721153,2.6418702853116156,7.483794268772444
2.8611994934533294,-1.5601614456704063,2.497062660966913,2.6449843230671024,7.4720652678324235
2.8502435376452584,-1.55833585676635,2.493593568301739,2.648084762439777,7.4599419735720005
2.8392367679401485,-1.5564224643609377,2.4900525823450064,2.6511716015490383,7.447428362003333
2.8281800757531936,-1.554420679321729,2.48644048471609,2.654244838514284,7.43452840913854
2.817074352499586,-1.5523299125162837,2.4827580570343626,2.6573044714549097,7.421246090989763
2.8059204895945093,-1.5501495748121612,2.4790060809192007,2.660350498490317,7.407585383569151
2.7947193784531548,-1.5478790770769195,2.4751853379899824,2.6633829177399,7.3935502628888745
2.783471910490711,-1.5455178301781203,2.471296609866082,2.666401727323058,7.3791447049610355
2.7721789771223664,-1.5430652449833224,2.4673406781668703,2.6694069253591888,7.364372685797788
2.760841469763314,-1.5405207323600845,2.463318324511729,2.6723985099676897,7.349238181411284
2.7494602798287358,-1.5378837031759676,2.459230330520032,2.6753764792679586,7.33374516781366
2.7380362987338254,-1.5351535682985293,2.4550774778111504,2.6783408313793937,7.317897621017071
2.7265704178937713,-1.5323297385953296,2.4508605480044654,2.681291564421392,7.30169951703364
2.7150635287237646,-1.5294116249339291,2.446580322719348,2.684228676513351,7.285154831875509
2.7035165226389903,-1.5263986381818864,2.442237583575179,2.6871521657746698,7.268267541554833
2.691930291054636,-1.5232901892067612,2.437833112191328,2.6900620303247447,7.251041622083765
2.6803057253858955,-1.520085688876113,2.4333676901871737,2.692958268282975,7.233481049474413
2.668643717047957,-1.5167845480575006,2.428842099182088,2.6958408777687564,7.215589799738954
2.6569451574560063,-1.513386177618485,2.4242571207954504,2.698709856901488,7.197371848889514
2.6452109380252353,-1.5098899884266244,2.4196135366466356,2.7015652038005675,7.178831172938249
2.6334419501708344,-1.5062953913494792,2.414912128355019,2.7044069165853926,7.15997174789727
2.621639085307988,-1.5026017972546075,2.4101536775399737,2.70723499337536,7.140797549778764
2.6098032348518867,-1.49880861700957,2.405338965820879,2.7100494322898685,7.1213125545948195
2.5979352902177197,-1.494915261481926,2.4004687748171025,2.7128502314483156,7.101520738357642
2.5860361428206784,-1.4909211415392356,2.39554388614803,2.7156373889700984,7.081426077079328
2.5741066840759528,-1.4868256680490561,2.3905650814330284,2.7184109029746164,7.061032546772029
2.562147805398723,-1.4826282518789493,2.385533142291479,2.7211707715812645,7.040344123447902
2.550160398204188,-1.478328303896474,2.380448850342756,2.7239169929094436,7.019364783119055
2.5381453539075283,-1.473925234969189,2.3753129872062315,2.7266495650785494,6.998098501797706
2.526103563923943,-1.4694184559646546,2.3701263345012857,2.7293684862079806,6.976549255495907
2.5140359196686113,-1.46480737775043,2.3648896738472884,2.732073754417133,6.954721020225854
2.5019433125567287,-1.4600914111940742,2.359603786863621,2.734765367825407,6.932617771999688
2.489826634003479,-1.4552699671631473,2.354269455169652,2.7374433245521983,6.9102434868295255
2.4776867754240577,-1.4503424565252083,2.348887460384763,2.7401076227169066,6.88760214072752
2.4655246282336485,-1.4453082901478176,2.3434585841283266,2.742758260438928,6.864697709705819
2.453341083847441,-1.4401668788985345,2.3379836080197185,2.74539523583766,6.841534169776576
2.4411370336806275,-1.434917633644917,2.3324633136783155,2.748018547032502,6.818115496951897
2.4289133691483915,-1.4295599652545268,2.326898482723492,2.750628192142851,6.79444566724397
2.416670981665928,-1.4240932845949215,2.3212898967746223,2.7532241692881034,6.770528656664904
2.4044107626484212,-1.4185170025336626,2.315638337451081,2.7558064765876593,6.746368441226867
2.3921336035110645,-1.412830529938307,2.30994458637225,2.7583751121609135,6.721968996942007
2.379840395669042,-1.4070332776764154,2.304209425157497,2.760930074127267,6.697334299822408
2.3675320305375447,-1.4011246566155484,2.2984336354262,2.7634713606061156,6.672468325880271
2.3552093995317653,-1.3951040776232637,2.292617998797736,2.7659989697168563,6.6473750511277245
2.342873394066885,-1.3889709515671216,2.286763296891479,2.768512899578889,6.622058451576912
2.3305249055581037,-1.3827246893146823,2.2808703113268036,2.7710131483116105,6.596522503239953
2.318164825420598,-1.3763647017335043,2.274939823723087,2.7734997140344175,6.570771182129029
2.3057940450695646,-1.3698903996911476,2.2689726156997043,2.7759725948667096,6.544808464256228
2.2934134559201933,-1.363301194055171,2.2629694688760296,2.7784317889278825,6.518638325633773
2.2810239493876656,-1.3565964956931351,2.2569311648714416,2.7808772943373357,6.492264742273736
2.26862641688718,-1.3497757154725973,2.250858485305309,2.7833091092144664,6.46569169018829
2.2562217498339177,-1.34283826426112,2.244752211797014,2.785727231678672,6.4389231453895555
2.243810839643074,-1.335783552926261,2.2386131259659336,2.7881316598493497,6.411963083889706
2.2313945777298345,-1.3286109923355798,2.232442009431435,2.790522391845898,6.38481548170088
2.218973855509388,-1.3213199933566355,2.226239643812896,2.7928994257877147,6.357484314835194
2.20654956439692,-1.313909966856989,2.2200068107296973,2.795262759794198,6.3299735593048005
2.1941225958076274,-1.3063803237041989,2.2137442918012074,2.797612391984745,6.3022871911218665
2.1816938411566973,-1.2987304747658235,2.207452868646807,2.799948320478752,6.2744291862985015
2.1692641918593134,-1.2909598309094257,2.201133322885868,2.802270543395619,6.246403520846858
2.156834539330668,-1.2830678030025608,2.19478643613777,2.8045790588547437,6.218214170779081
2.1444057749859544,-1.2750538019127915,2.1884129900218845,2.806873864975522,6.189865112107306
2.1319787902403498,-1.2669172385076748,2.1820137661575876,2.8091549598773526,6.161360320843727
2.1195544765090535,-1.2586575236547723,2.1755895461642583,2.8114223416796342,6.132703773000422
2.1071337252072535,-1.250274068221643,2.169141111661263,2.8136760085017625,6.103899444589551
2.0947174277501377,-1.241766283075846,2.1626692442679873,2.815915958463137,6.074951311623263
2.082306475552892,-1.233133579084941,2.156174725603803,2.818142189683154,6.045863350113699
2.0699017600307092,-1.2243753671164872,2.1496583372880824,2.820354700281213,6.016639536072983
2.057504172598775,-1.2154910580380442,2.1431208609402086,2.8225534883767107,5.987283845513321
2.045114604672282,-1.206480062717171,2.136563078179547,2.824738552089045,5.95780025444677
2.032733947666417,-1.1973417920214287,2.1299857706254786,2.8269098895376126,5.9281927388855316
2.0203630929963685,-1.188075656818374,2.1233897198973786,2.8290674988418125,5.898465274841712
2.008002932077325,-1.1786810679755693,2.1167757076146225,2.831211378121042,5.868621838327488
1.995654356324481,-1.1691574363605728,2.1101445153965814,2.833341525494699,5.838666405354971
1.9833182571530186,-1.1595041728409434,2.1034969248626396,2.8354579390821817,5.808602951936361
1.9709955259781307,-1.1497206882842423,2.0968337176321654,2.837560617002886,5.778435454083713
1.9586870542150052,-1.1399866190028654,2.0901556753245334,2.8396495573762124,5.748167887809217
1.9463937332788275,-1.1305307203023567,2.083463579559126,2.8417247583215564,5.717804229125015
1.9341164545847942,-1.1213501360868108,2.0767582119553154,2.8437862179583164,5.6873484540432635
1.9218561095480888,-1.112442010260299,2.0700403541324706,2.8458339344058903,5.656804538576104
1.9096135895839002,-1.1038034867268962,2.0633107877099786,2.847867905783675,5.626176458735639
1.8973897861074267,-1.0954317093906738,2.0565702943072033,2.84988813021107,5.595468190534046
1.8851855905338404,-1.0873238221557209,2.0498196555435273,2.851894605807472,5.5646837099834485
1.8730018942783406,-1.0794769689261088,2.0430596530383234,2.8538873306922774,5.533826993095996
1.860839588756117,-1.0718882936059018,2.036291068410968,2.8558663029848863,5.502902015883851
1.8486995653823577,-1.0645549400991676,2.029514683280838,2.8578315208046954,5.471912754359138
1.8365827155722512,-1.0574740523099884,2.022731279267302,2.8597829822711027,5.440863184533999
1.824489930740981,-1.0506427741424709,2.015941637989749,2.861720685503505,5.409757282420571
1.8124221023037475,-1.0440582495006367,2.0091465410675413,2.8636446286213,5.378599024031004
1.8003801216757287,-1.0377176222885822,2.002346770120057,2.8655548097438874,5.347392385377432
1.7883648802721197,-1.0316180364104,1.9955431067666725,2.8674512269906636,5.316141342472015
1.7763772695081066,-1.025756635770147,1.9887363326267664,2.8693338784810263,5.284849871326898
1.764418180798879,-1.020130564271895,1.981927229319715,2.871202762334372,5.253521947954212
1.7524885055596302,-1.014736965819747,1.9751165784648865,2.8730578766701016,5.222161548366074
1.7405891352055454,-1.0095729843177423,1.9683051616816583,2.87489921960761,5.190772648574658
1.7287209611518088,-1.0046357636699668,1.9614937605894154,2.876726789266296,5.15935922459213
1.7168848748136174,-0.9999224477805022,1.9546831568075227,2.8785405837655573,5.127925252430579
1.705081767606158,-0.99543018055342,1.947874131955353,2.880340601224791,5.096474708102193
1.6933125309446178,-0.9911561058927916,1.9410674676522888,2.8821268397633957,5.065011567619067
1.6815780562441907,-0.9870973677026988,1.9342639455177109,2.88389929750077,5.033539806993382
1.6698792349200575,-0.9832511098872132,1.9274643471709796,2.8856579725563085,5.002063402237262
1.6582169583874098,-0.9796144763504202,1.9206694542314855,2.887402863049412,4.970586329362881
1.646592118061439,-0.9761846109963663,1.9138800483185916,2.889133967099477,4.939112564382327
1.6350056053573354,-0.9729586577291514,1.9070969110516849,2.890851282825902,4.907646083307796
1.6234583116902872,-0.969933760452836,1.9003208240501293,2.892554808348083,4.87619086215139
1.6119511284754804,-0.9671070630715128,1.8935525689333064,2.894244541785419,4.844750876925261
1.600484947128102,-0.9644757094892356,1.88679292732059,2.895920481257308,4.813330103641576
1.5890606590633496,-0.9620368436100897,1.8800426808313535,2.897582624883147,4.781932518312459
1.577679155696405,-0.9597876093381501,1.8733026110849833,2.8992309707823343,4.750562096950077
1.5663413284424603,-0.9577251505774989,1.8665734997008396,2.9008655170742665,4.719222815566511
1.5550480687167028,-0.9558466112322108,1.8598561282983095,2.9024862618783427,4.68791865017397
1.5438002679343228,-0.9541491352063325,1.8531512784967603,2.9040932033139604,4.656653576784549
1.532598817510511,-0.9526298664039707,1.8464597319155747,2.9056863395005172,4.625431571410452
1.5214446088604507,-0.9512859487291898,1.8397822701741218,2.9072656685574105,4.594256610063745
1.5103385333993344,-0.950114526086054,1.833119674891778,2.9088311886040374,4.563132668756602
1.4992814825423526,-0.9491127423786416,1.8264727276879187,2.9103828977597974,4.532063723501182
1.488274347704694,-0.9482777415110633,1.8198422101819238,2.911920794144087,4.501053750309609
1.4773180203015421,-0.9476066673873369,1.813228903993168,2.913444875876304,4.470106725194029
1.4664133917480981,-0.9470966639115908,1.8066335907410203,2.914955141075847,4.439226624166615
1.4555613534595366,-0.9467448749878642,1.8000570520448615,2.916451587862112,4.408417423239477
1.4447627968510517,-0.9465484445202357,1.7935000695240664,2.917934214354498,4.3776830984247255
1.4340186133378392,-0.946504516412773,1.7869634247980049,2.919403018672403,4.347027625734569
1.4233296943350773,-0.9466102345695901,1.7804478994860613,2.9208579989352237,4.31645498118111
1.4126969312579618,-0.9468627428947158,1.7739542752076094,2.922299153262359,4.285969140776508
1.4021212155216833,-0.9472591852922498,1.7674833335820175,2.9237264797732063,4.2555740805329165
1.391603438541427,-0.9477967056662635,1.7610358562286699,2.925139976587163,4.225273776462444
1.3811444917323819,-0.9484724479208424,1.754612624766935,2.9265396418236254,4.195072204577237
1.3707452665097328,-0.9492835559600543,1.7482144208161916,2.9279254736019933,4.164973340889489
1.3604066542886795,-0.9502271736879244,1.7418420259958118,2.9292974700416647,4.134981161411261
1.3501295464844034,-0.9513004450086235,1.7354962219251782,2.9306556292620365,4.105099642154769
1.339914834512097,-0.9525005138261449,1.7291777902236607,2.931999949382506,4.075332759132145
1.3297634097869437,-0.953824524044613,1.722887512510633,2.9333304285224706,4.045684488355477
1.319676163724143,-0.9552696195680568,1.716626170405478,2.9346470648013296,4.016158805836973
1.3096539877388693,-0.9568329443006149,1.7103945455275653,2.93594985633848,3.9867596875887372
1.2996977732463186,-0.9585116421462878,1.7041934194962671,2.9372388012533195,3.957491109622879
1.2898084116616868,-0.9603028570092249,1.6980235739309588,2.9385138976652456,3.9283570479516285
1.2799867944001555,-0.9622037327934336,1.6918857904510318,2.9397751436936557,3.8993614785870605
1.2702338128769153,-0.9642114134030351,1.685780850675842,2.9410225374579486,3.87050837754137
1.260550358507155,-0.9663230427420615,1.679709536224781,2.9422560770775212,3.8418017208266733
1.2509373227060632,-0.968535764714666,1.6736726287172043,2.943475760671771,3.8132454844550807
1.2413955968888288,-0.970846723224831,1.6676709097725038,2.9446815863600975,3.78484364443878
1.2319260724706371,-0.9732530621766742,1.6617051610100493,2.9458735522618964,3.7566001767899095
1.2225296408666768,-0.9757519254742633,1.6557761640492217,2.947051656496566,3.7285190575205363
1.213207193492158,-0.9783404570217016,1.6498847005093804,2.9482158971835046,3.700604262642962
1.203959621762241,-0.9810158007230569,1.6440315520099222,2.9493662724421092,3.672859768169161
1.1947878170921342,-0.9837751004823545,1.638217500170212,2.9505027803917785,3.6452895501113574
1.1856926708970086,-0.9866155002036976,1.6324433266096214,2.9516254191519096,3.6178975844817316
1.1766750745920707,-0.9895341437911824,1.6267098129475333,2.9527341868419,3.590687847292301
1.1677359195924986,-0.9925281751488626,1.6210177408033157,2.953829081581147,3.563664314555375
1.15887609731349,-0.9955947381808201,1.615367891796355,2.9549101014890495,3.5368309622829273
1.15009649917023,-0.998730976791137,1.6097610475460105,2.955977244685005,3.510191766487253
1.1413980165778987,-1.0019340348838668,1.6041979896716683,2.957030509288411,3.4837507031803767
1.1327815409517044,-1.0052010563631057,1.5986794997927039,2.9580698934186658,3.4575117483745075
1.1242479637068143,-1.0085291851329075,1.5932063595284927,2.9590953951951646,3.4314788780817906
1.1157981762584352,-1.0119155650973681,1.587779350498412,2.960107012737309,3.405656068314265
1.1074330700217452,-1.0153573401605342,1.5823992543218264,2.9611047441644938,3.380047295084225
1.099153536411933,-1.0188516542265376,1.5770668526181186,2.9620885875961185,3.3546565344037234
1.0909604668441997,-1.0223956511993677,1.5717829270066659,2.9630585411515793,3.32948776228492
1.0828547527337165,-1.0259864749831635,1.56654825910684,2.9640146029502747,3.304544954739974
1.0748372854956862,-1.0296212694819928,1.5613636305380236,2.964956771111603,3.2798320877809957
1.0669089565453014,-1.0332971785999234,1.5562298229195832,2.9658850437549606,3.2553531374201583
1.0590706572977346,-1.0370113462410302,1.551147617870896,2.9667994189997464,3.231112079669572
1.0513232791681855,-1.0407609163093667,1.5461177970113447,2.967699894965358,3.207112890541417
1.0436677135718373,-1.0445430327090435,1.5411411419602938,2.968586469771193,3.1833595460478037
1.0361048519238878,-1.048354839344114,1.5362184343371261,2.9694591415366487,3.1598560222009056
1.028635585639515,-1.052193480118639,1.531350455761208,2.970317908381123,3.1366062950128537
1.021260806133924,-1.0560560989367431,1.5265379878519294,2.971162768424013,3.113614340495751
1.0139814048222853,-1.0599398397024515,1.5217818122286584,2.9719937197847184,3.090884134661792
1.0067982731197986,-1.0638418463198676,1.5170827105107687,2.9728107605826355,3.0684196535230868
0.9997123024416457,-1.0677592626930519,1.5124414643176358,2.973613888937162,3.0462248730918304
0.992724384203024,-1.0716892327260652,1.5078588552686352,2.974403102967696,3.024303769380076
0.9858354098191224,-1.075628900323018,1.503335664983144,2.975178400793635,3.0026603184000464
0.9790462707051226,-1.0795754093879637,1.4988726750805412,2.9759397805343766,2.981298496163866
0.9723578582762222,-1.0835259038249916,1.4944706671801917,2.9766872403093196,2.9602222786836236
0.9657710639475976,-1.087477527538141,1.4901304229014798,2.9774207782378603,2.9394356419715493
0.9592867791344482,-1.0914274244315223,1.4858527238637809,2.9781403924393968,2.9189425620397316
0.9529058952519627,-1.0953727384092176,1.4816383516864704,2.9788460810333275,2.8987470149003087
0.9466293037153228,-1.0993106133752875,1.477488087988915,2.9795378421390497,2.8788529765654545
0.9404578959397227,-1.103238193233807,1.473402714390497,2.980215673875962,2.8592644230472715
0.9343925633403565,-1.1071526218888152,1.4693830125105922,2.9808795743634593,2.839985330357969
0.9284341973324022,-1.111051043244423,1.4654297639685776,2.981529541720942,2.8210196745096
0.9225836893310593,-1.1149306012046907,1.4615437503838287,2.9821655740678077,2.802371431514352
0.9168419307515094,-1.118788439673743,1.4577257533757084,2.9827876695234536,2.7840445773843996
0.9112098130089485,-1.122621702555584,1.4539765545636065,2.983395826207277,2.766043088131852
0.9056882275185494,-1.1264275337543381,1.4502969355668949,2.9839900422386756,2.74837093976884
0.9002780656955238,-1.130203077174059,1.4466876780049454,2.9845703157370487,2.7310321083075593
0.8949802189550411,-1.1339454767188428,1.443149563497137,2.985136644821792,2.7140305697600553
0.8897955787123042,-1.1376518762927361,1.4396833736628452,2.985689027612304,2.6973703001385445
0.8847250363824912,-1.1413194197998067,1.4362898901214418,2.9862274622279834,2.6810552754551793
0.8797694833808052,-1.1449452511441578,1.4329698944923095,2.9867519467882264,2.6650894717220694
0.8749298111224206,-1.148526514229836,1.4297241683948148,2.987262479412432,2.649476864951353
0.8702069110225388,-1.1520603529609517,1.426553493448342,2.987759058219997,2.634221431155183
0.8656016744963342,-1.1555439112415513,1.4234586512722593,2.9882416813303188,2.619327146345711
0.8611149929590063,-1.1589743329757312,1.4204404234859425,2.988710346862797,2.6047979865350754
0.8567477578257421,-1.162348762067566,1.4174995917087685,2.9891650529368277,2.590637927735372
0.8525008605117268,-1.1656643424211026,1.4146369375601129,2.989605797671809,2.5768509459588387
0.8483751924321545,-1.1689182179404227,1.4118532426593546,2.990032579187139,2.5634410172175706
0.8443716450022194,-1.172107532529651,1.409149288625862,2.9904453956022143,2.550412117523692
0.8404911096371013,-1.1752294300928128,1.4065258570790178,2.990844245036434,2.537768222889369
0.836734477751989,-1.1782810545339757,1.4039837296381972,2.9912291256091956,2.5255133093266693
0.8331026407620712,-1.1812595497572076,1.4015236879227633,2.991600035439897,2.513651352847887
0.8295964900825439,-1.184162059666626,1.3991465135521075,2.9919569726479334,2.5021863294650473
0.8262169171285887,-1.1869857281663059,1.3968529881455911,2.992299935352707,2.491122215190316
0.8229648133153908,-1.1897276991602865,1.394643893322602,2.992628921673612,2.4804629860358602
0.8198410700581569,-1.1923851165526784,1.3925200107025084,2.992943929730047,2.4702126180137753
0.8168465787720613,-1.1949551242475067,1.3904821219047,2.99324495764141,2.4603750871362564
0.8139822308723019,-1.1974348661489103,1.3885310085485276,2.993532003527099,2.4509543694154416
0.8112489177740585,-1.1998214861609,1.3866674522533842,2.993805065506512,2.4419544408634266
0.8086475308925216,-1.2021121281875793,1.384892234638631,2.9940641416990457,2.4333792774924063
0.8061789616428854,-1.2043039361330585,1.3832061373236595,2.994309230224098,2.425232855314448
0.8038441014403368,-1.2063940539013416,1.3816099419278363,2.994540329201067,2.417519150341846
0.8016438417000629,-1.2083796253965886,1.3801044300705367,2.994757436749351,2.410242138586554
0.7995790738372612,-1.2102577945228035,1.3786903833711328,2.994960550988347,2.403405796060852
0.7976506892671082,-1.2120257051841037,1.3773685834490088,2.9951496700374522,2.3970140987768076
0.7958595794047945,-1.2136805012845215,1.3761398119235437,2.995324792016065,2.391071022746601
0.7942066356655175,-1.2152193267281746,1.3750048504141006,2.995485915043584,2.3855805439823996
0.7926927494644609,-1.2166393254190808,1.3739644805400566,2.9956330372394055,2.3805466384962557
0.791318812216808,-1.2179376412613863,1.3730194839207979,2.9957661567229286,2.3759732823003787
0.7900857153377601,-1.2191114181591232,1.372170642175682,2.995885271613548,2.371864451406907
0.7889943502425041,-1.2201578000163593,1.3714187369241007,2.9959903800306655,2.368224121828021
0.7880456083462235,-1.221073930737198,1.3707645497854308,2.996081480093677,2.36505626957576
0.7872403810641018,-1.2218569542257143,1.3702088623790285,2.99615856992198,2.362364870662347
0.7865795598113401,-1.222504014385926,1.3697524563242869,2.996221647634972,2.3601539010998778
0.7860640360031255,-1.223012255122029,1.3693961132405708,2.996270711352051,2.358427336900519
0.7856947010546413,-1.223378820337956,1.3691406147472733,2.9963057591926154,2.357189154076451
0.7854724463810783,-1.2236008539378744,1.3689867424637434,2.9963267892760626,2.3564433286397843
0.7853981633976197,-1.2236754998258306,1.3689352780093706,2.9963337997217896,2.3561938366026283
