oscarkremer/mentor-optimization/data/trajectory_1/adaptative_5_steps/angles.csv
theta1,theta2,theta3,theta4,theta5
0.0,-0.9030865823619687,2.1246196420553805,1.2215330596934117,0.0
-0.00033619076155937073,-0.9030374654379473,2.1245631570364187,1.221492505575998,-4.877783665592453e-05
-0.0011526540396321282,-0.9028909166214869,2.124394523133492,1.2213716115255915,-0.00018838336915391545
-0.0021612263243102406,-0.9026481388459932,2.124114972077538,1.2211715299949435,-0.0004087246312892986
-0.0030737441056856753,-0.902310335044872,2.1237257355994954,1.2208934134368064,-0.0006997096568574001
-0.0036020438738504,-0.901878708151529,2.1232280454303014,1.2205384143039322,-0.001051246479653546
-0.0034579621188963842,-0.90135446109937,2.1226231333008934,1.220107685049072,-0.001453243133473062
-0.002353335330915595,-0.9007387968218006,2.1219122309422094,1.2196023781249783,-0.0018956076521112744
0.0,-0.9000329182522268,2.1210965700851876,1.2190236459844028,-0.002368248069363508
0.002876235321092967,-0.899238028324054,2.1201773824607657,1.218372641080097,-0.00286107241902509
0.0055214184030262,-0.898355329970688,2.1191558997998814,1.2176505158648132,-0.003363988734891347
0.007942574904902314,-0.8973860261255348,2.118033353833473,1.2168584227913029,-0.003866905050757603
0.010146730485823957,-0.896331319722,2.116810976292477,1.215997514312318,-0.004359729400419185
0.01214091080489371,-0.8951924136934892,2.115489998907833,1.2150689428806105,-0.004832369817671419
0.013932141521214247,-0.8939705109734083,2.1140716534104778,1.2140738609489323,-0.005274734336309633
0.015527448293888163,-0.8926668144951629,2.1125571715313494,1.213013420970035,-0.005676730990129147
0.016933856782018107,-0.891282527192159,2.110947785001385,1.2118887753966705,-0.006028267812925292
0.018158392644706676,-0.8898188519978019,2.1092447255515236,1.2107010766815907,-0.006319252838493394
0.019208081541056517,-0.8882769918454977,2.1074492249127026,1.2094514772775473,-0.006539594100628775
0.020089949130170273,-0.8866581496686521,2.1055625148158597,1.2081411296372924,-0.006679199633126763
0.02081102107115052,-0.8849635284006706,2.1035858269919325,1.2067711862135775,-0.0067279774697826915
0.02137832302309993,-0.8831943309749591,2.101520393171859,1.2053427994591548,-0.006675835644391871
0.0217988806451211,-0.8813517603249235,2.0993674450865765,1.2038571218267762,-0.006512682190749644
0.022079719596316667,-0.8794370193839692,2.0971282144670242,1.202315305769193,-0.0062284251426513275
0.022227865535789267,-0.8774513110855021,2.0948039330441386,1.2007185037391575,-0.005812972533892246
0.022250344122641517,-0.875395838362928,2.092395832548858,1.1990678681894211,-0.0052562323982677205
0.02215418101597602,-0.8732718041496527,2.08990514471212,1.1973645515727362,-0.004548112769573093
0.02194640187489544,-0.8710804113790818,2.0873331012648633,1.1956097063418545,-0.0036785216816036803
0.021634032358502434,-0.8688228629846207,2.084680933938025,1.1938044849495275,-0.002637367168154811
0.02122409812589952,-0.8665003618996758,2.081949874462542,1.1919500398485074,-0.0014145572630218095
0.020723624836189378,-0.8641141110576525,2.079141154569354,1.190047523491546,6.938893903907228e-18
0.020139638148474727,-0.8616653133919565,2.076256005989398,1.1880980883313947,0.0014811411390594892
0.019479163721858053,-0.8591551718359935,2.0732956604536117,1.186102886820806,0.0028982725259556843
0.01874922721544199,-0.8565848893231696,2.0702613496929327,1.184063071412531,0.004252088885675739
0.017956854288329292,-0.8539556687868901,2.067154305438299,1.1819797945593224,0.005543284943206813
0.017109070599622432,-0.8512687131605609,2.0639757594206483,1.1798542087139317,0.006772555423536064
0.016212901808424204,-0.8485252253775877,2.0607269433709194,1.1776874663291101,0.007940595051650646
0.015275373573837008,-0.8457264083713765,2.057409089020049,1.1754807198576103,0.009048098552537753
0.014303511554963705,-0.8428734650753326,2.0540234280989753,1.173235121752184,0.010095760651184473
0.01330434141090682,-0.839967598422862,2.050571192338636,1.1709518244655825,0.011084276072578038
0.012284888800768945,-0.8370100113473703,2.0470536134699686,1.1686319804505583,0.012014339541705577
0.011252179383652694,-0.8340019067822635,2.043471923223912,1.166276742159863,0.012886645783554217
0.010213238818660847,-0.830944487660947,2.0398273533314035,1.1638872620462481,0.013701889523111155
0.009175092764895795,-0.8278389569168269,2.03612113552338,1.1614646925624659,0.014460765485363547
0.00814476688146036,-0.8246865174833086,2.0323545015307807,1.159010186161268,0.015163968395298539
0.007129286827457046,-0.8214883722937978,2.028528683084543,1.1565248952954061,0.015812192977903303
0.006135678261988645,-0.8182457242817006,2.024644911915604,1.1540099724176327,0.01640613395816498
0.005170966844157562,-0.8149597763804226,2.0207044197549022,1.151466569980699,0.01694648606107075
0.004242178233066524,-0.8116317315233693,2.0167084383333753,1.1488958404373568,0.017433944011607777
0.003356338087818156,-0.8082627926439467,2.012658199381961,1.1462989362403586,0.0178692025347632
0.002520472067515156,-0.8048541626755605,2.0085549346315976,1.1436770098424556,0.01825295635552413
0.001741605831260068,-0.8014070445516163,2.0043998758132227,1.1410312136963998,0.018585900198877837
0.0010267650381554916,-0.7979226412055199,2.0001942546577736,1.1383627002549432,0.018868728789811398
0.0003829753473041375,-0.7944021555706772,1.9959393028961885,1.1356726219708375,0.019102136853311993
-0.00018273758219147784,-0.7908467905804937,1.991636252259405,1.1329621312968345,0.019286819114366763
-0.0006633480912285605,-0.7872577491683753,1.9872863344783616,1.1302323806856862,0.01942347029796292
-0.001051830520704622,-0.7836362342677275,1.9828907812839953,1.1274845225901444,0.019512785129087523
-0.0013411592115170623,-0.7799834488119564,1.9784508244072447,1.1247197094629608,0.019555458332727885
-0.0015243085045631155,-0.7763005957344674,1.9739676955790468,1.1219390937568874,0.019552184633871043
-0.0015942527407402096,-0.7725888779686665,1.9694426265303402,1.119143827924676,0.019503658757504132
-0.0015439662609458282,-0.7688494984479594,1.9648768489920618,1.1163350644190784,0.01941057542861442
-0.0013664234060772884,-0.7650836601057516,1.9602715946951506,1.1135139556928464,0.019273629372189016
-0.0010545985170318795,-0.761292565875449,1.9556280953705432,1.1106816541987319,0.019093515313215067
-0.0006014659347069462,-0.7574774186904573,1.9509475827491782,1.1078393123894865,0.01887092797667972
-5.551115123125783e-17,-0.7536394214841823,1.9462312885619935,1.1049880827178629,0.01860656208757014
0.000663087847914059,-0.7497797771900296,1.9414804445399265,1.1021291176366117,0.018301112370873535
0.0013103833629363685,-0.7458996887414051,1.9366962824139151,1.0992635695984858,0.01795527355157702
0.0019420188690514473,-0.7420003590717146,1.9318800339148974,1.0963925910562364,0.017569740354667802
0.002558126690243811,-0.7380829911143635,1.927032930773811,1.0935173344626155,0.01714520750513293
0.0031588391504979822,-0.7341487878027578,1.9221562047215934,1.0906389522703752,0.01668236972795966
0.0037442885737984863,-0.7301989520703033,1.9172510874891833,1.087758596932267,0.016181921748135097
0.004314607284129867,-0.7262346868504056,1.9123188108075175,1.0848774209010428,0.01564455829064644
0.004869927605476663,-0.7222571950764702,1.9073606064075346,1.0819965766294546,0.015070974080480859
0.005410381861823341,-0.7182676796819034,1.9023777060201719,1.0791172165702538,0.01446186384262544
0.005936102377154463,-0.7142673436001105,1.8973713413763675,1.076240493176193,0.013817922302067367
0.006447221475454576,-0.7102573897644974,1.8923427442070593,1.0733675589000236,0.013139844183793901
0.0069438714807081945,-0.7062390211084697,1.887293146243185,1.0704995661944974,0.01242832421279208
0.007426184716899795,-0.7022134405654332,1.8822237792156824,1.0676376675123664,0.011684057114049129
0.00789429350801396,-0.6981818510687938,1.8771358748554892,1.0647830153063822,0.010907737612552114
0.008348330178035218,-0.694145455551957,1.8720306648935436,1.0619367620292968,0.010100060433288309
0.008788427050948061,-0.6901054569483288,1.8669093810607829,1.059100060133862,0.009261720301244773
0.00921471645073699,-0.6860630581913146,1.8617732550881452,1.0562740620728297,0.008393411941408788
0.00962733070138662,-0.6820194622143204,1.8566235187065685,1.0534599202989519,0.007495830078767432
0.010026402126881398,-0.677975871950752,1.8514614036469903,1.0506587872649802,0.006569669438307779
0.010412063051205891,-0.6739334903340148,1.8462881416403487,1.0478718154236664,0.005615624745017242
0.010784445798344594,-0.6698935202975147,1.8411049644175814,1.0451001572277623,0.00463439072388272
0.011143682692282037,-0.6658571647746575,1.835913103709626,1.0423449651300198,0.0036266620998914173
0.011489906057002801,-0.6618256266988489,1.8307137912474205,1.0396073915831912,0.0025931335980306502
0.011823248216491347,-0.6578001090034947,1.8255082587619031,1.0368885890400277,0.001534499943287318
0.012143841494732212,-0.6537818146220006,1.8202977379840113,1.0341897099532815,0.00045145586064884724
0.01245181821570994,-0.6497719464877723,1.8150834606446826,1.0315119067757044,-0.0006553039248976961
0.012747310703409048,-0.6457717075342154,1.809866658474855,1.028856331960048,-0.0017850846883651766
0.013030451281814053,-0.6417823006947359,1.8046485632054667,1.0262241379590644,-0.0029371917047665425
0.013301372274909497,-0.6378049289027393,1.7994304065674551,1.0236164772255054,-0.004110930249114464
0.013560206006679898,-0.6338407950916316,1.7942134202917583,1.0210345022121228,-0.005305605596421778
0.013807084801109794,-0.6298911021948184,1.7889988361093139,1.0184793653716682,-0.006520523021701516
0.014042140982183683,-0.6259570531457053,1.7837878857510598,1.015952219156894,-0.007754987799966362
0.014265506873886079,-0.6220398508776981,1.778581800947934,1.0134542160205515,-0.009008305206229111
0.014477314800201577,-0.6181406983242028,1.7733818134308743,1.0109865084153928,-0.010279780515502726
0.014677697085114655,-0.6142607984186248,1.768189154930818,1.0085502487941698,-0.01156871900280007
0.014866786052609837,-0.61040135409437,1.7630050571787035,1.0061465896096342,-0.012874425943133844
0.01504471402667168,-0.6065635682848441,1.7578307519054683,1.0037766833145378,-0.014196206611516896
0.01521161333128462,-0.6027486439234528,1.7526674708420504,1.0014416823616328,-0.015533366282962285
0.015367616290433296,-0.598957783943602,1.7475164457193877,0.9991427392036705,-0.016885210232482573
0.015512855228102175,-0.5951921912786974,1.742378908268418,0.9968810062934029,-0.01825104373509087
0.015647462468275773,-0.5914530688621444,1.7372560902200784,0.9946576360835822,-0.019630172065799978
0.015771570334938673,-0.5877416196273492,1.732149223305308,0.9924737810269599,-0.02102190049962241
0.015885311152075338,-0.5840590465077172,1.7270595392550436,0.9903305935762879,-0.02242553431157121
0.015988817243670378,-0.5804065524366544,1.7219882698002236,0.9882292261843182,-0.023840378776659482
0.0160822209337082,-0.5767853403475662,1.7169366466717852,0.9861708313038025,-0.025265739169899604
0.016165654546173382,-0.5731966131738586,1.7119059016006672,0.9841565613874924,-0.026700920766304787
0.016239250405050507,-0.5696415738489373,1.7068972663178066,0.9821875688881401,-0.028145228840887604
0.016303140834324027,-0.5661214253062081,1.7019119725541414,0.9802650062584972,-0.029597968668661295
0.01635745815797842,-0.5626373704790764,1.6969512520406091,0.9783900259513161,-0.03105844552463813
0.01640233469999841,-0.5591906123009485,1.6920163365081486,0.9765637804193478,-0.032525964683831454
0.01643790278436831,-0.5557823537052295,1.687108457687697,0.9747874221153446,-0.03399983142125382
0.016464294735072778,-0.5524137976253256,1.6822288473101916,0.9730621034920586,-0.0354793510119181
0.016481642876096242,-0.5490861469946424,1.677378737106571,0.971388977002241,-0.0369638287308372
0.01649007953142332,-0.5458006047465858,1.672559358807773,0.969769195098644,-0.03845256985302395
0.016489737025038496,-0.5425583738145612,1.667771944144735,0.9682039102340195,-0.039944879653491444
0.01648074768092629,-0.5393606571319745,1.663017724848395,0.9666942748611193,-0.04144006340725209
0.016463243823071183,-0.5362086576322314,1.6582979326496914,0.9652414414326951,-0.0429374263893188
0.016437357775457843,-0.5331035782487377,1.653613799279561,0.9638465624014989,-0.04443627387470467
0.016403221862070633,-0.5300466219148989,1.6489665564689424,0.9625107902202824,-0.045935911138422214
0.016360968406894154,-0.5270389915641213,1.644357435948773,0.9612352773417976,-0.04743564345548468
0.016310729733912968,-0.5240818901298101,1.6397876694499902,0.9600211762187961,-0.0489347761009046
0.016252638167111512,-0.5211765205453713,1.635258488703533,0.9588696393040301,-0.05043261434969479
0.016186826030474402,-0.5183240857442104,1.6307711254403383,0.9577818190502512,-0.05192846347686836
0.01611342564798615,-0.5155257886597333,1.6263268113913443,0.9567588679102113,-0.05342162875743789
0.01603256934363119,-0.5127828322253458,1.6219267782874884,0.9558019383366619,-0.05491141546641648
0.015944389441394077,-0.5100964193744537,1.6175722578597092,0.9549121827823555,-0.05639712887881676
0.01584901826525948,-0.5074677530404625,1.613264481838944,0.9540907537000435,-0.05787807426965158
0.01574658813921173,-0.5048980361567781,1.6090046819561306,0.9533388035424779,-0.059353556913933736
0.015637231387235537,-0.502388471656806,1.604794089942207,0.9526574847624104,-0.060822882086676355
0.01552108033331523,-0.4999402624739521,1.6006339375281107,0.9520479498125929,-0.062285355062891845
0.015398267301435425,-0.4975546115416223,1.59652545644478,0.9515113511457773,-0.06374028111759367
0.015268924615580728,-0.4952327217932222,1.5924698784231524,0.9510488412147153,-0.06518696552579395
0.015133184599735547,-0.49297579616215736,1.5884684351941658,0.9506615724721591,-0.06662471356250599
0.01499117957788449,-0.490785037581834,1.584522358488758,0.9503506973708601,-0.06805283050274247
0.014843041874012003,-0.488661648985657,1.5806328800378666,0.9501173683635703,-0.06947062162151635
0.014688903812102659,-0.486606833307033,1.57680123157243,0.9499627379030418,-0.07087739219384032
0.014528897716141007,-0.4846217934793673,1.5730286448233857,0.9498879584420259,-0.07227244749472739
0.014363155910111475,-0.4827077324360656,1.5693163515216715,0.949894182433275,-0.07365509279919008
0.014191810717998674,-0.48086585311053387,1.565665583398225,0.9499825623295403,-0.07502463338224163
0.01401499446378722,-0.4790973584361776,1.5620775721839846,0.9501542505835743,-0.07638037451889462
0.013832839471461439,-0.4774034513464026,1.5585535496098872,0.9504103996481287,-0.07772162148416212
0.013645478065005961,-0.4757853347746148,1.5550947474068717,0.950752161975955,-0.07904767955305664
0.013453042568405293,-0.4742442116542199,1.5517023973058754,0.9511806900198053,-0.08035785400059131
0.013255665305643996,-0.47278128491862337,1.548377731037836,0.9516971362324315,-0.08165145010177882
0.01305347860070652,-0.47139775750123114,1.545121980333691,0.952302653066585,-0.08292777313163213
0.01284661477757748,-0.4696576226888105,1.5419363769243795,0.9529983929750183,-0.08418612836516404
0.012635206160241344,-0.46741174377341466,1.5388221525408383,0.9537855084104827,-0.08542582107738728
0.012419385072682698,-0.46473020370539686,1.5357805389140051,0.9546651518257304,-0.08664615654331481
0.012199283838885966,-0.46168308543721537,1.5328127677748182,0.9556384756735131,-0.08784644003795944
0.011975034782835722,-0.45834047192128935,1.5299200708542153,0.9567066324065825,-0.08902597683633384
0.011746770228516557,-0.4547724461100273,1.5271036798831343,0.9578707744776908,-0.09018407221345137
0.01151462249991285,-0.45104909095585555,1.5243648265925125,0.9591320543395894,-0.09132003144432443
0.011278723921009329,-0.44724048941124295,1.5217047427132884,0.9604916244450302,-0.09243315980396577
0.011039206815790362,-0.4437511384366799,1.5191246599764,0.9619506372467658,-0.09352276256738862
0.010796203508240496,-0.44029917814754627,1.516625810112784,0.9635102451975468,-0.09458814500960544
0.01054984632234432,-0.43688442171265224,1.5142094248533793,0.9651716007501258,-0.0956286124056292
0.010300267582086256,-0.4335066822985618,1.5118767359291225,0.9669358563572549,-0.09664347003047297
0.01004759961145095,-0.4301657730718399,1.5096289750709533,0.9688041644716852,-0.09763202315914926
0.009791974734422865,-0.426861507199051,1.507467374009808,0.9707776775461691,-0.09859357706667127
0.00953352527498652,-0.42359369784676004,1.505393164476625,0.9728575480334581,-0.09952743702805134
0.009272383557126396,-0.42036215818153144,1.503407578202342,0.9750449283863041,-0.10043290831830287
0.00900868190482719,-0.41716670136993006,1.5015118469178965,0.9773409710574591,-0.10130929621243823
0.008742552642073256,-0.41400714057852017,1.499707202354227,0.979746828499675,-0.10215590598547053
0.008474128092849212,-0.4108832889738665,1.4979948762422708,0.9822636531657034,-0.10297204291241258
0.008203540581139493,-0.4077949597225341,1.4963761003129656,0.984892597508296,-0.10375701226827705
0.007930922430928716,-0.4047419659910868,1.49485210629725,0.9876348139802054,-0.10451011932807719
0.007656405966201388,-0.40172412094609,1.4934241259260612,0.9904914550341826,-0.10523066936682546
0.0073801235109419855,-0.3987412377541076,1.492093390930337,0.9934636731229797,-0.10591796765953476
0.007102207389135168,-0.395793129581705,1.4908611330410158,0.9965526206993487,-0.10657131948121812
0.006822789924765205,-0.3928796095954461,1.4897285839890342,0.9997594502160414,-0.10719003010688799
0.0065420034418168516,-0.39000049096189615,1.4886969755053316,1.0030853141258096,-0.10777340481155773
0.006259980264274628,-0.3871555868476195,1.4877675393208447,1.006531364881405,-0.10832074887023968
0.00597685271612286,-0.384344710419181,1.4869415071665115,1.0100987549355795,-0.1088313675579472
0.005692753121346317,-0.3815676748431447,1.4862201107732704,1.013788636741085,-0.10930456614969264
0.005407813803929323,-0.3788242932860758,1.4856045818720585,1.0176021627506735,-0.10973964992048912
0.005122167087856455,-0.37611437891453847,1.485096152193814,1.0215404854170966,-0.11013592414534923
0.004835945297112426,-0.37343774489509807,1.4846960534694746,1.0256047571931064,-0.11049269409928619
0.004549280755681534,-0.37079420439431854,1.484405517429978,1.0297961305314545,-0.11080926505731248
0.004262305787548354,-0.3681835705787644,1.4842257758062625,1.0341157578848927,-0.11108494229444144
0.003975152716697489,-0.3656056566150011,1.4841580603292657,1.0385647917061729,-0.11131903108568542
0.003687953867113347,-0.3630602756695922,1.484203602729925,1.0431443844480472,-0.11151083670605733
0.00340084156278056,-0.3605472409091034,1.4843636347391787,1.0478556885632673,-0.11165966443056996
0.0031139481276836745,-0.3580663655000989,1.4846393880879645,1.0526998565045846,-0.11176481953423667
0.002827405885807127,-0.3556174626091426,1.4850320945072202,1.0576780407247515,-0.1118256072920698
0.0025413471611354377,-0.35320034540280043,1.4855429857278832,1.0627913936765196,-0.11184133297908228
0.002255904277653209,-0.3508148270476359,1.4861732934808922,1.0680410678126409,-0.11181130187028698
0.0019712095593449053,-0.3484607207102146,1.4869242494971846,1.0734282155858672,-0.11173481924069661
0.0016873953301950462,-0.34613783955710015,1.487797085507698,1.0789539894489502,-0.1116111903653243
0.0014045939141882346,-0.34384599675485794,1.4887930332433703,1.0846195418546418,-0.11143972051918272
0.0011229376353089349,-0.34158500547005266,1.48991332443514,1.0904260252556937,-0.11121971497728467
0.0008425588175416943,-0.3393546788692481,1.4911591908139434,1.096374592104858,-0.11095047901464306
0.000563589784870977,-0.3371548301190098,1.4925318641107204,1.1024663948548865,-0.1106313179062709
0.00028616286128144153,-0.33498527238590153,1.4940325760564066,1.1087025859585309,-0.11026153692718055
1.0410370757441001e-05,-0.3328458188364889,1.4956625583819414,1.115084317868543,-0.10984044135238547
-0.00026353536271636613,-0.3307362826373358,1.4974230428182622,1.121612743037675,-0.10936733645689778
-0.0005355420151554324,-0.3286564769550076,1.4991196156720754,1.1282890139186788,-0.10884152751573128
-0.0008054772625754048,-0.32660621495606745,1.5005556421188224,1.135114282964305,-0.10826231980389789
-0.0010732087809915969,-0.32458530980708167,1.50173773012461,1.1420897026273071,-0.10762901859641083
-0.0013386042464195724,-0.32259357467461386,1.5026724876555235,1.1492164253604358,-0.10694092916828313
-0.001601531334874673,-0.32063082272522914,1.503366522677645,1.1564956036164438,-0.10619735679452713
-0.0018618577223726007,-0.31869686712549167,1.5038264431570791,1.1639283898480821,-0.10539760675015575
-0.0021194510849285864,-0.3167915210419668,1.5040588570598867,1.1715159365081032,-0.104540984310183
-0.0023741790985582767,-0.31491459764121865,1.5040703723521887,1.1792593960492588,-0.10362679474962011
-0.0026259094392770133,-0.3130659100898115,1.5038675970000472,1.1871599209243004,-0.10265434334348078
-0.002874509783100332,-0.311245271554311,1.5034571389695621,1.1952186635859805,-0.10162293536677725
-0.0031198478060437684,-0.30945249520128043,1.502845606226808,1.2034367764870497,-0.10053187609452374
-0.003361791184122831,-0.3076873941972858,1.5020396067378865,1.2118154120802613,-0.09938047080173118
-0.0036002075933528055,-0.30594978170889087,1.5010457484688953,1.2193848132008611,-0.0981680247634138
-0.0038349647097493667,-0.30423947090266046,1.4998706393858896,1.224997821343436,-0.09689384325458361
-0.004065930209327745,-0.30255627494515963,1.4985208874549887,1.2287902691302293,-0.09555723155025442
-0.004292971768103615,-0.3009000070029519,1.4970031006422637,1.2308979891824947,-0.09415749492543801
-0.004515957062092429,-0.2992704802426033,1.4953238869138055,1.2314568141219695,-0.09269393865514775
-0.004734753767309641,-0.2976675078306774,1.4934898542357011,1.2306025765703055,-0.09116586801439674
-0.004949229559770729,-0.2960909029337391,1.491507610574045,1.228471109148785,-0.08957258827819703
-0.00515925211549112,-0.2945404787183536,1.4893837638949243,1.225198244479401,-0.08791340472156262
-0.00536468911048632,-0.29301604835108425,1.4871249221644138,1.2209198151834642,-0.08618762261950552
-0.005565408220771811,-0.2915174249984972,1.4847376933486132,1.2157716538826548,-0.08439454724703799
-0.0057612771223630455,-0.29004442182715584,1.482228685413606,1.2098895931986533,-0.08253348387917447
-0.005952163491275614,-0.288596852003626,1.4796045063254883,1.203409465752884,-0.08060373779092656
-0.006137935003524719,-0.28717452869447146,1.4768717640503368,1.196467104167084,-0.07860461425730736
-0.0063184593351259255,-0.2857772650662567,1.4740370665542475,1.1891983410625642,-0.07653541855333001
-0.006493604162095046,-0.2844048742855467,1.471107021803304,1.1817390090614026,-0.07439545595400743
-0.0066632371604472,-0.28305716951890597,1.4680882377635935,1.174224940784626,-0.0721840317343514
-0.006827226006198006,-0.2817339639328995,1.4649873224012069,1.1667919688543975,-0.06990045116937593
-0.006985438375362751,-0.2804350706940917,1.4618108836822223,1.1595759258917724,-0.06754401953409417
-0.0071377419439571654,-0.279160302969047,1.4585655295727467,1.1527126445188287,-0.0651140421035179
-0.00728400438799659,-0.27790947392433024,1.4552578680388404,1.146337957356593,-0.06260982415266025
-0.007424093383496422,-0.27668239672650563,1.451894507046628,1.1405876970270015,-0.060030670956533916
-0.007557876606472391,-0.2754788845421386,1.4484820545621666,1.1355976961519332,-0.05737588779015179
-0.007685221732939673,-0.274298750537793,1.4450271185515575,1.131503787352301,-0.054644779928527676
-0.007805996438913887,-0.273141807880034,1.4415363069808826,1.1284418032500412,-0.051836652646673365
-0.00792006840041054,-0.2720078697354262,1.4380162278162345,1.126547576466919,-0.04895081121960221
-0.008027305293445086,-0.27089674927053337,1.4344734890237003,1.125956939624416,-0.04598656092232645
-0.008127574794032921,-0.26980825965192157,1.4309146985693637,1.1268057253440702,-0.04294320702985921
-0.008220744578189665,-0.26874221404615406,1.4273464644193226,1.1292297662471924,-0.03982005481721318
-0.008306682321930603,-0.26769842561979634,1.423775394539648,1.1333648949558892,-0.03661640955940215
-0.00838525570127141,-0.2666767075394129,1.4202080968964506,1.1393469440913009,-0.0333315765314377
-0.008456332392227428,-0.2656768729715679,1.4166511794557923,1.1473117462752498,-0.029964861008333843
-0.00851978007081422,-0.2646987350828267,1.413111250183782,1.156051321616257,-0.026515568265102152
-0.008575466413047128,-0.26374210703975304,1.4095949170464959,1.1645697629510128,-0.0229830035767562
-0.008623259094941715,-0.2628068020089127,1.4061087880100303,1.1728688006039478,-0.01936647221830934
-0.00866302579251349,-0.26189263315686917,1.4026594710404652,1.18095016489987,-0.015665279464773363
-0.008694634181777905,-0.2609994136501878,1.3992535741038878,1.188815586163602,-0.011878730591161624
-0.008717951938750301,-0.26012695665543284,1.395897705166405,1.1964667947199539,-0.008006130872486361
-0.008732846739446298,-0.2592750753391688,1.3925984721940772,1.2039055208937457,-0.004046785583762258
-0.008739186259881404,-0.25844358286796104,1.389362483153004,1.2111334950097934,-2.220446049250313e-16
-0.008736838176070849,-0.25763229240837354,1.386196346009278,1.218152447392912,0.003934761667384379
-0.008725670164030419,-0.2568410171269708,1.3831066687289741,1.2249641083679146,0.0075185742249246346
-0.0087055498997754,-0.2560695701903183,1.380100059278199,1.2315702082596198,0.010760736382518843
-0.0086763450593213,-0.2553177647649798,1.3771831256230236,1.2379724773928409,0.013670546850136134
-0.008637923318683738,-0.2545854140175209,1.3743624757295514,1.244172646092391,0.016257304337706557
-0.008590152353878,-0.25387233111450425,1.3716447175638606,1.2501724446830949,0.0185303075551424
-0.00853289984091965,-0.25317832922249695,1.3690364590920368,1.2559736034897622,0.020498855212412792
-0.008466033455823974,-0.25250322150806237,1.3665443082801723,1.2615778528372106,0.02217224601944423
-0.008389420874606812,-0.2518468211377649,1.364174873094349,1.2669869230502524,0.023559778686156108
-0.008302929773283285,-0.2512089412781696,1.3619347615006632,1.272202544453707,0.024670751922521106
-0.008206427827869067,-0.2505893950958408,1.359830581465193,1.277226447372394,0.025514464438433748
-0.00809978271437961,-0.24998799575734365,1.3578689409540416,1.2820603621311149,0.026100214943863165
-0.007982862108830258,-0.2494045564292423,1.356056447933284,1.2867060190547024,0.026437302148739406
-0.007855533687236849,-0.2488388902781018,1.3543997103690053,1.2911651484679627,0.026535024762985415
-0.007717665125614281,-0.24829081047048596,1.352905336227316,1.2954394806957081,0.02640268149656322
-0.007569124099978619,-0.2477601301729605,1.3515799334742766,1.299530746062767,0.0260495710593851
-0.00740977828634487,-0.2472466625520895,1.3504301100759797,1.303440674893939,0.025484992161395326
-0.007239495360728598,-0.2467502207744372,1.3494624739985248,1.3071709975140546,0.02471824351257368
-0.0070581429991455336,-0.24627061800656924,1.348683633208001,1.3107234442479214,0.023758623822779157
-0.006865588877611073,-0.24580766741504945,1.348100195670483,1.314099745420358,0.022615431801987995
-0.006661700672140558,-0.24536118216644232,1.3477187693520634,1.3173016313561838,0.021297966160155113
-0.006446346058749497,-0.24493097542731368,1.3475459622188417,1.3203308323802023,0.019815525607203455
-0.006219392713453342,-0.24451686036422626,1.3475883822368857,1.3231890788172427,0.018177408853066623
-0.005980708312267657,-0.24411865014374645,1.347852637372295,1.3258781009921075,0.0163929146076498
-0.005730160531207895,-0.24373615793243764,1.3483453355911585,1.328399629229624,0.014471341580936325
-0.005467617046289508,-0.24336919689686554,1.3490730848595653,1.3307553938546057,0.012421988482884672
-0.005192945533527893,-0.2430175802035942,1.3500424931435973,1.332947125191863,0.010254154023357387
-0.004906013668938669,-0.24268112101918726,1.3512601684093433,1.3349765535662188,0.007977136912330707
-0.0046066891285371225,-0.2423596325102113,1.3527327186228888,1.3368454093024802,0.00560023585975955
-0.004294839588338983,-0.24205292784322963,1.3544667517503228,1.3385554227254737,0.003132749575541993
-0.003970332724359482,-0.24176082018480793,1.356468875757745,1.3401083241600027,0.0005839767696471654
-0.0036330362126142934,-0.24148312270150862,1.3587456986112265,1.341505843930892,-0.0020367838479984357
-0.003282817729118759,-0.24121964855989908,1.3613038282768635,1.3427497123629584,-0.004720233567454102
-0.002919544949888331,-0.24097021092654292,1.364149872720759,1.3438416597810088,-0.007457073678793336
-0.0025430855509385175,-0.24073462296800352,1.3672904399089596,1.3447834165098644,-0.010238005472075429
-0.0021533072082848825,-0.2405126978508474,1.3707321378076003,1.3455767128743474,-0.013053730237338357
-0.0017500775979428784,-0.24030424874163803,1.374481574382731,1.346223279199262,-0.015894949264684044
-0.0013332643959281798,-0.24010908880694037,1.377436239477106,1.346724845809426,-0.018752363844171782
-0.000902735278255351,-0.23992703121331915,1.3783736736346555,1.3470831430296633,-0.02161667526581823
-0.000458357920941066,-0.2397578891273383,1.377403180480485,1.3472999011847762,-0.024478584819767946
-2.220446049250313e-16,-0.23960147571556334,1.3746340636393484,1.3473768505995958,-0.02732879379600206
0.0004611283692526613,-0.23945760414455886,1.3701756267366818,1.347315721598922,-0.030158003484608287
0.0009132810572199945,-0.2393260875808887,1.3641371733980918,1.3471182445075938,-0.03295691517567434
0.0013565239001937512,-0.23920673919111823,1.3566280072486165,1.3467861496503968,-0.035716230159252405
0.001790922734467626,-0.2390993721418122,1.3477574319135783,1.3463211673521682,-0.03842664972538046
0.00221654339633498,-0.2390037995995351,1.33763475101847,1.3457250279377204,-0.04107887516414621
0.002633451722087954,-0.2389198347308502,1.326369268188273,1.344999461731863,-0.043663607765630275
0.0030417135480202417,-0.23884729070232413,1.3140702870487644,1.3441461990594137,-0.04617154881985641
0.003441394710424428,-0.23878598068052004,1.300847111224698,1.3431669702451936,-0.048593399616898125
0.003832561045594318,-0.23873571783200387,1.286809044341794,1.342063505614009,-0.05091986144684313
0.0042152783898223856,-0.23869631532333946,1.272065390025375,1.3408375354906816,-0.05314163559972229
0.004589612579401603,-0.2386675863210913,1.2567254519002518,1.339490790200026,-0.05524942336557359
0.004955629450625276,-0.23864934399182414,1.2408985335919738,1.3380250000668656,-0.05723392603454869
0.005313394839786434,-0.23864140150210267,1.224693938726034,1.3364418954160069,-0.05908584489665003
0.005662974583178326,-0.23864357201849162,1.2082209709278118,1.3347432065722558,-0.060795881241915595
0.006004434517093982,-0.23865566870755517,1.1915889338220609,1.3329306638604592,-0.06235473636049704
0.006337840477825707,-0.23867750473585936,1.1749071310346721,1.331005997605395,-0.06375311154238972
0.0066632583016673075,-0.23870889326996747,1.1582848661908542,1.3289709381319064,-0.06498170807762449
0.006980753824911312,-0.238749647476444,1.141831442915361,1.326827215764805,-0.06603122725636013
0.007290392883851526,-0.23879958052185457,1.1256561648341972,1.324576560828893,-0.06689237036857776
0.0075922413147804235,-0.23885850557276256,1.10986833557223,1.3222207036489948,-0.0675558387043651
0.007886364953991032,-0.23892623579573402,1.094577258754839,1.3197613745499286,-0.06801233355381697
0.008172829637776935,-0.23900258435733268,1.07989223800746,1.3172003038565148,-0.06825255620695714
0.008451701202430328,-0.23908736442412293,1.065922576955586,1.3145392218935505,-0.0682672079538591
0.008723045484245184,-0.23918038916267048,1.0527775792239709,1.3117798589858705,-0.06804699008459636
0.008986928319513643,-0.23928147173953918,1.0405665484380506,1.3089239454582824,-0.06758260388922821
0.00924341554452962,-0.23939042532129307,1.0293987882234887,1.3059732116355942,-0.06686475065782815
0.009492572995585424,-0.23950706307449798,1.0193836022054938,1.302929387842637,-0.06588413168044127
0.009734466508975193,-0.23963119816571776,1.0106302940090472,1.2997942044042237,-0.06463144824707712
0.009969161920990566,-0.23976264376151857,1.0032481672594713,1.2965693916451624,-0.06309740164792998
0.010196725067925683,-0.23990121302846168,0.9973465255826568,1.2932566798902716,-0.061272693172924164
0.01041722178607285,-0.2400467191331157,0.9930346726034713,1.2898577994643645,-0.05914802411223263
0.010630717911725707,-0.2401989752420426,0.9904219119468962,1.2863744806922561,-0.056714095755864946
0.010837279281177448,-0.24035779452180783,0.9896175472388222,1.2828084538987756,-0.05396160939387329
0.011036971730719991,-0.24052299013897604,0.9896946280243926,1.2791614494087291,-0.05088126631633827
0.011229861096647586,-0.24069437526011206,0.9896602471922371,1.2754351975469191,-0.04746376781333339
0.01141601321525254,-0.24087176305178004,0.9895156919037413,1.2716314286381998,-0.04369981517491084
0.011595493922828437,-0.24105496668054438,0.989262249320153,1.267751873007338,-0.0395801096911228
0.011768369055668026,-0.24124379931297102,0.9889012066027147,1.2637982609791898,-0.03509535265204278
0.011934704450064615,-0.241438074115623,0.9884338509126556,1.2597723228785416,-0.030236245347772694
0.012094565942310787,-0.2416376042550663,0.9878614694112313,1.2556757890302261,-0.024993489068293684
0.012248019368700014,-0.24184220289786462,0.9871853492596694,1.2515103897590514,-0.019357785103714775
0.012395130565524937,-0.24205168321058323,0.9864067776192229,1.247277855389843,-0.013319834744109471
0.012535965369079416,-0.2422658583597863,0.9855270416511246,1.242979916247407,-0.006870339279515747
0.01267058961565537,-0.24248454151203802,0.9845474285166187,1.2386183026565583,-3.552713678800501e-14
0.012799069141546882,-0.24270754583390364,0.9834692253769415,1.2341947449421262,0.006954383933468478
0.01292146978304648,-0.24293468449194866,0.9822937193933381,1.2297109734289098,0.013737584662340652
0.013037857376447304,-0.24316577065273548,0.9810221977270555,1.2251687184417328,0.020351192123525763
0.01314829775804216,-0.24340061748283115,0.9796559475393227,1.220569710305412,0.02679679625390108
0.01325285676412502,-0.24363903814879828,0.9781962559913993,1.2159156793447625,0.03307598699034919
0.013351600230987248,-0.24388084581720326,0.9766444102445018,1.2112083558845974,0.03919035426974382
0.013444593994923482,-0.24412585365460915,0.9750016974598825,1.2064494702497317,0.04514148802899598
0.013531903892226527,-0.24437387482758188,0.9732694047987884,1.2016407527649786,0.050930978204963395
0.01361359575918858,-0.24462472250268452,0.9714488194224575,1.196783933755171,0.05656041473454643
0.013689735432103611,-0.24487820984648323,0.9695412284921243,1.1918807435451004,0.062031387554633
0.013760388747263985,-0.24513415002554217,0.9675479191690322,1.1869329124595946,0.06734548660210038
0.013825621540963562,-0.2453923562064264,0.965470178614428,1.1819421708234863,0.07250430181382228
0.013885499649494093,-0.24565264155569855,0.9633092939895445,1.1769102489615566,0.07750942312669729
0.013940088909150161,-0.24591481923992609,0.9610665524556303,1.17183887719864,0.08236244047761687
0.013989455156223518,-0.24617870242567097,0.958743241173929,1.1667297858595553,0.08706494380345298
0.014033664227008469,-0.24644410427950025,0.9563406473056606,1.1615847052691173,0.09161852304108997
0.014072781957796598,-0.2467108379679781,0.9538600580120935,1.1564053657521214,0.09602476812741223
0.014106874184882379,-0.24697871665766646,0.9513027604544444,1.1511934976334217,0.10028526899930945
0.014136006744558172,-0.24724755351513283,0.948670041793978,1.1459508312378013,0.10440161559367311
0.014160245473116673,-0.2475171617069416,0.945963189191918,1.140679096890084,0.10837539784736983
0.01417965620685191,-0.2477873543996565,0.943183489809515,1.1353800249150918,0.11220820569730883
0.014194304782055855,-0.24805794475984255,0.9403322308080035,1.1300553456376363,0.11590162908034607
0.014204257035022372,-0.2483287459540633,0.9374106993486286,1.1247067893825324,0.11945725793338191
0.014209578802043765,-0.24859957114888487,0.9344201825926266,1.119336086474604,0.12287668219330072
0.014210335919414008,-0.248870233510871,0.9313619677012532,1.1139449672386608,0.12616149179699043
0.014206594223425295,-0.24914054620658765,0.9282373418357182,1.1085351619995123,0.12931327668133008
0.0141984195503716,-0.2494103224025983,0.9250475921573003,1.1031084010819736,0.13233362678320226
0.014185877736544894,-0.24967937526546669,0.9217940058272109,1.0976664148108757,0.13522413203950734
0.014169034618239262,-0.2499475179617594,0.918477870006706,1.0922109335110193,0.1379863823871048
0.014147956031746789,-0.25021456365803996,0.9151004718570253,1.0867436875072336,0.14062196776288616
0.014122707813361446,-0.25048032552087385,0.9116630985394067,1.0812664071243177,0.14313247810374108
0.01409335579937554,-0.250744616716825,0.9081670372150938,1.075780822687113,0.1455195033465806
0.01405996582608282,-0.25100725041245586,0.9046135750453228,1.0702886645204028,0.14778463342824466
0.014022603729775374,-0.2512680397743354,0.9010039991913334,1.0647916629490215,0.1499294582856301
0.013981335346747392,-0.25152679796902677,0.8973395968143763,1.0592915482977805,0.15195556785563724
0.01393622651329074,-0.25178333816309273,0.8936216550756946,1.0537900508915055,0.15386455207513983
0.013887343065699831,-0.252037473523099,0.889851461136514,1.0482889010549918,0.155658000881024
0.01383475084026653,-0.25228901721561026,0.8860303021580833,1.042789829113076,0.15733750421017412
0.013778515673284364,-0.25253778240719194,0.882159465301644,1.0372945653905674,0.1589046519994799
0.013718703401046306,-0.252783582264408,0.8782402377284377,1.0318048402122706,0.16036103418581327
0.013655379859845773,-0.25302622995382285,0.8742739065997078,1.02632238390302,0.16170824070607104
0.013588610885975627,-0.2532655386420002,0.8702617590766888,1.0208489267876235,0.16294786149715001
0.013518462315728619,-0.2535013214955073,0.8662050823206222,1.015386199190882,0.16408148649590082
0.01344499998539761,-0.25373339168090614,0.8621051634927603,1.0099359314376315,0.16511070563922559
0.01336828973127624,-0.2539615623647635,0.8579632897543341,1.0044998538526801,0.16603710886402645
0.01328839738965748,-0.2541856467136421,0.8537807482665798,0.9990796967608411,0.1668622861071576
0.013205388796833972,-0.2544054578941086,0.8495588261907514,0.9936771904869346,0.16758782730550692
0.013119329789099798,-0.2546208090727258,0.8452988106880834,0.9882940653557704,0.1682153223959908
0.013030286202745933,-0.2548315134160586,0.8410019889198086,0.982932051692174,0.16874636131547227
0.012938323874067903,-0.2550373840906719,0.8366696480471827,0.9775928798209463,0.16918253400082683
0.012843508639356904,-0.2552382342631312,0.8323030752314402,0.9722782800669236,0.16952543038894774
0.012745906334907353,-0.2554338771000002,0.8279035576338227,0.9669899827549031,0.16977664041671758
0.012645582797011112,-0.25562412576784377,0.8234723824155683,0.9617297182097069,0.16993775402102962
0.01254260386196171,-0.25580879343322516,0.8190108367379221,0.956499216756157,0.1700103611387611
0.012437035366052895,-0.2559876932627121,0.8145202077621132,0.9513002087190578,0.16999605170679466
0.012328943145576532,-0.2561606384228672,0.8100017826494117,0.9461344244232421,0.16989641566202351
0.01221839303682648,-0.25632744208025526,0.8054568485610254,0.9410035941935,0.1697130429413285
0.012105450876095047,-0.2564879174014407,0.8008866926582137,0.9359094483546713,0.16944752348159753
0.011990182499676427,-0.2566418775529875,0.796292602102211,0.9308537172315532,0.16910144721970255
0.011872653743862593,-0.2567891357014618,0.7916758640542643,0.9258381311489821,0.1686764040925368
0.011752930444947296,-0.25692950501342837,0.7870377656756062,0.9208644204317515,0.16817398403699002
0.011631078439223508,-0.25706279865545123,0.7823795941274909,0.9159343154046873,0.1675957769899341
0.011507163562983092,-0.25718882979409474,0.777702636571151,0.9110495463926149,0.16694337288827654
0.011381251652521018,-0.25730741159592174,0.7730081801678157,0.9062118437203281,0.16621836166886794
0.011253408544129595,-0.2574183572275017,0.7682975120787496,0.9014229377126668,0.16542233326861577
0.011123700074100795,-0.25752147985539375,0.7635719194651802,0.896684558694421,0.16455687762440974
0.010992192078728924,-0.25761659264616643,0.758832689488349,0.8919984369904341,0.16362358467311822
0.010858950394306732,-0.2577035087663839,0.7540811093094941,0.8873663029255106,0.16262404435163091
0.010724040857127526,-0.2577820413826082,0.7493184660898713,0.8827898868244546,0.16155984659684464
0.010587529303483278,-0.2578520036614056,0.7445460469906866,0.8782709190121025,0.16043258134563487
0.01044948156966885,-0.25791320876934165,0.7397651391732314,0.8738111298132374,0.15924383853488422
0.010309963491975216,-0.25796546987298097,0.7349770297987082,0.8694122495527097,0.15799520810146817
0.010169040906697346,-0.25800860013888594,0.7301830060283852,0.8650760085553237,0.15668827998228352
0.010026779650126882,-0.2580424127336238,0.7253843550234684,0.8608041371458874,0.15532464411420221
0.009883245558557463,-0.25806672082375703,0.7205823639452351,0.85659836564923,0.15390589043413883
0.009738504468281839,-0.2580813375758524,0.7157783199549055,0.8524604243901486,0.15243360887894042
0.009592622215593982,-0.2580860761564714,0.7109735102137158,0.8483920436934724,0.15090938938554288
0.009445664636785978,-0.25808074973218265,0.7061692218829343,0.8443949538840201,0.14933482189077907
0.009297697568151464,-0.25806517146954766,0.7013667421237741,0.8404708852865959,0.14771149633153513
0.00914878684598286,-0.2580391545351324,0.6965673580974876,0.8366215682260325,0.14604100264473985
0.008998998306573358,-0.2580025120955005,0.6917723569653162,0.8328487330271273,0.1443249307672403
0.0088483977862166,-0.25795505731721935,0.6869830258885017,0.8291541100146951,0.1425648706359368
0.008697051121204669,-0.25789660336684905,0.6822006520282855,0.8255394295135687,0.1407624121877049
0.00854502414783187,-0.2578269634109578,0.6774265225458986,0.822006421848549,0.13891914535943428
0.008392382702390289,-0.2577459506161097,0.6726619246025844,0.8185568173444615,0.13703666008800752
0.008239192621173452,-0.257653378148869,0.6679081453595899,0.8151923463261248,0.13511654631030723
0.008085519740474001,-0.25754905917579984,0.6631664719781654,0.8119147391183397,0.13316039396322665
0.007931429896585351,-0.2574328068634659,0.6584381916195419,0.8087257260459246,0.13116979298364484
0.007776988925800032,-0.257304434378435,0.6537245914449485,0.8056270374337196,0.1291463333084586
0.007622262664412349,-0.2571637548872676,0.6490269586156501,0.8026204036065074,0.12709160487451854
0.007467316948713609,-0.25701058155653334,0.6443465802928685,0.7997075548891175,0.1250071976187428
0.007312217614998007,-0.2568447275527914,0.6396847436378579,0.7968902216063753,0.1228947014780033
0.007157030499558514,-0.2566660060426118,0.6350427358118473,0.7941701340830747,0.1207557063891862
0.007001821438688105,-0.25647423019255466,0.6304218439760909,0.7915490226440554,0.11859180228918476
0.006846656268679641,-0.2562692131691868,0.6258233552918178,0.789028617614111,0.11640457911485669
0.006691600825826316,-0.256050768139072,0.6212485569202677,0.7866106493180887,0.11419562680312012
0.006536720946420882,-0.2558187082687762,0.6166987360226948,0.7842968480807535,0.11196653529085054
0.0063820824667567555,-0.2555728467248626,0.6121751797603352,0.7820889442269703,0.10971889451491279
0.006227751223126576,-0.2553129966738972,0.6076791752944217,0.7799886680815256,0.10745429441220722
0.0060737930518239835,-0.25503897128244324,0.6032120097862013,0.7779977499692627,0.10517432491961642
0.005920273789141395,-0.25475058371706627,0.5987749703969136,0.7761179202149755,0.10288057597403011
0.005767259271373448,-0.25444764714432955,0.5943693442878022,0.7743509091434717,0.10057463751232731
0.0056148153348110075,-0.2541299747308008,0.5899964186201068,0.7726984470795877,0.09825809947139419
0.005463007815747933,-0.25379737964304105,0.5856574805550672,0.7711622643481171,0.09593255178810622
0.005311902550477532,-0.25344967504761584,0.5813538172539268,0.7697440912739104,0.09359958439936733
0.005161565375292554,-0.25308667411109287,0.5770867158779289,0.7684456581817471,0.09126078724204234
0.005012062126486749,-0.2527081900000323,0.5728574635883064,0.7672686953964636,0.08891775025303872
0.004863458640352536,-0.25231403588100143,0.568667347546306,0.7662149332428676,0.08657206336919998
0.00471582075318322,-0.2519040249205644,0.5645176549131747,0.7652861020457884,0.08422531652745491
0.004569214301270996,-0.25147797028528585,0.5604096728501453,0.7644839321300196,0.08187909966468965
0.004423705120910282,-0.2510356851417286,0.5563446885184504,0.7638101538203941,0.07953500271775482
0.00427935904839305,-0.2505769826564612,0.5523239890793512,0.7632664974417231,0.07719461562354013
0.004136241920013606,-0.2501016759960457,0.5483488616940697,0.7628546933188183,0.07485952831895304
0.003994419572063035,-0.24960957832704622,0.5444205935238529,0.762576471776498,0.07253133074087259
0.0038539578408365305,-0.2491005028160278,0.5405404717299511,0.7624335631395702,0.07021161282616006
0.0037149225626254,-0.24857426262955507,0.5367097834735972,0.7624276977328712,0.06790196451172292
0.003577379573723727,-0.24803067093419484,0.532929815916031,0.7625606058811947,0.06560397573445087
0.0034413947104243725,-0.24746954089650774,0.5292018562184992,0.7628340179093627,0.06331923643119453
0.003307033809021087,-0.24689068568306194,0.5255271915422384,0.7632496641421902,0.061049336538889776
0.003174362705804512,-0.24629391846042248,0.5219071090484917,0.7638092749045207,0.058795865994365926
0.00304344723707084,-0.24567905239515087,0.5183428958984884,0.7645145805211335,0.056560414734551756
0.002914353239110712,-0.24504590065381215,0.514835839253486,0.7653673113168473,0.054344572696319204
0.002787146548218322,-0.24439427640297273,0.5113872262747314,0.7663691976164984,0.05214992981652955
0.0026618930006863106,-0.24372399280919677,0.5079983441234468,0.767521969744891,0.04997807603210447
0.0025386584328086492,-0.24303486303904798,0.504670479960879,0.7688273580268294,0.04783060127990524
0.0024175086808770896,-0.24232670025909187,0.5014049209482714,0.7702870927871572,0.045709095496814456
0.0022985095811851597,-0.2415993176358926,0.49820295424686023,0.771902904350668,0.04361514861974669
0.0021817269700259434,-0.24085252833601434,0.49506586701789246,0.7736765230421838,0.04155035058553125
0.0020672266836925246,-0.24008614552602303,0.49199494642261854,0.775609679186509,0.039516291331104014
0.001955074558477765,-0.2392999823724833,0.4889914796222534,0.7777041031084835,0.03751456079331916
0.001845336430675415,-0.23849385204195706,0.48605675377805113,0.779961525132908,0.03554674890910192
0.0017380781365776699,-0.23766756770101294,0.4831920560512657,0.7823836755845939,0.03361444561528515
0.0016333655124782798,-0.23682094251621155,0.48039867360311916,0.7849722847883598,0.031719240848772756
0.0015312643946701066,-0.23595378965412195,0.47767789359486557,0.7877290830690384,0.02986272454647576
0.001431840619445346,-0.23506592228130563,0.4750310031877305,0.7906558007514306,0.028046486645237678
0.001335160023098636,-0.23415715356432631,0.4724592895429822,0.7937541681603513,0.026272117081955315
0.0012412884419210624,-0.23322729666975262,0.469964039821825,0.7970259156206119,0.024541205793564558
0.0011502917122079293,-0.23222342754763758,0.4675465411855164,0.8004727734570345,0.022855342716859184
0.0010622356702503222,-0.23113612530300998,0.46520808079532117,0.8040964719944448,0.02121611778878929
0.0009771861523424352,-0.22997541580650704,0.46294994581244353,0.8078987415576364,0.01962512094620905
0.0008952089947775743,-0.22875132492922035,0.4607734233981482,0.8118813124714492,0.01808394212602593
0.000816370033847047,-0.22747387854212775,0.4586798007136643,0.8160459150606769,0.016594171265104762
0.0007407351058454914,-0.22615310251660503,0.4566703649202388,0.8203942796501451,0.015157398300338798
0.0006683700470657694,-0.22479902272377217,0.4547464031791115,0.8249281365646794,0.013775213168628397
0.0005993406938007428,-0.22342166503480598,0.4529092026515258,0.8296492161290843,0.012449205806827734
0.0005337128823428294,-0.2220310553208833,0.4511600504987108,0.834559248668171,0.01118096615182651
0.0004715524489862233,-0.22063721945306725,0.4495002338819205,0.8396599645067724,0.00997208414053219
0.0004129252300231201,-0.2192501833027336,0.44793103996239125,0.8449530939696857,0.008824149709816709
0.00035789706174704783,-0.2178799727409455,0.4464537559013664,0.8504403673817222,0.00773875279656977
0.00030653378045042423,-0.21653661363862398,0.4450696688600786,0.856123515067722,0.006717483337656205
0.00025890122242766545,-0.21523013186734374,0.4437800659997819,0.8620042673524821,0.005761931269987031
0.00021506522396985694,-0.21397055329822479,0.4425862344817091,0.8680843545608354,0.004873686530427079
0.00017509162137163692,-0.21276790380224497,0.44148946146710344,0.874365507017572,0.004054339055869605
0.0001390462509258672,-0.21163220925049586,0.44049103411720125,0.8808494550475459,0.003305478783200755
0.00010699494892496553,-0.2105734955144669,0.43959223959324945,0.887537928975533,0.002628695649310231
7.900355166201578e-05,-0.20960178846516442,0.43879436505649494,0.8944326591263589,0.0020255795910557595
5.513789543076797e-05,-0.20872711397379362,0.43809869766816334,0.9015353758248494,0.0014977205453412523
3.5463816523195746e-05,-0.20795949791127555,0.4375065245895122,0.9088478093958372,0.0010467084490812795
2.004715123438139e-05,-0.20730896614907124,0.43701913298176365,0.9163716901640839,0.0006741332391086985
8.953735854522193e-06,-0.20678554455844278,0.43663781000616453,0.9241087484544508,0.00038158485232742123
2.249406678922483e-06,-0.20639925901025435,0.43636384282397245,0.9320607145917563,0.00017065322562359597
-6.661338147750939e-16,-0.20616013537573963,0.43619851859640946,0.9402293189007978,4.2928295904687275e-05
