oscarkremer/mentor-optimization/data/trajectory_1/adaptative_5_steps/angles.csv
theta1,theta2,theta3,theta4,theta5
0.0,-0.9030865823619687,2.1246196420553805,1.9200589403065884,3.141592
-6.763979934911685e-06,-0.9030458468202541,2.1245761927531266,1.9200256700085092,3.141558964894647
-2.6755298409206217e-05,-0.902925497190212,2.1244466591066344,1.9199263099833537,3.141461311671132
-5.9523023427222814e-05,-0.9027283189644952,2.1242322625063084,1.919761536534744,3.141301218468269
-0.00010461622299330072,-0.9024570976357562,2.1239342243425523,1.9195320259663033,3.141080863424872
-0.00016158396511177912,-0.9021146186966477,2.1235537660057706,1.9192384545816543,3.140802424679756
-0.00022997531778699723,-0.9017036676398222,2.123092108886367,1.9188814986844194,3.1404680803717357
-0.00030933934902329437,-0.9012270299579326,2.1225504743747456,1.9184618345782218,3.1400800086396248
-0.0003992251268250096,-0.9006874911436313,2.121930083861311,1.9179801385666837,3.1396403876222387
-0.0004991817191964822,-0.9000878366895712,2.1212321587364675,1.917437086953428,3.139151395458391
-0.0006087581941420517,-0.8994308520884046,2.1204579203906184,1.9168333560420778,3.1386152102868965
-0.0007275036196660568,-0.8987193228327844,2.119608590214169,1.9161696221362552,3.1380340102465705
-0.0008549670637728367,-0.8979560344153632,2.118685389597523,1.915446561539583,3.1374099734762257
-0.000990697594466731,-0.8971437723287936,2.1176895399310833,1.9146648505556845,3.136745278114678
-0.0011342442797520793,-0.8962853220657281,2.1166222626052558,1.9138251654881817,3.1360421023007414
-0.00128515618763322,-0.8953834691188196,2.115484779010444,1.9129281826406979,3.1353026241732302
-0.0014429823861144926,-0.8944409989807206,2.114278310537052,1.9119745783168551,3.134529021870959
-0.0016072719432002362,-0.8934606971440838,2.113004078575484,1.9109650288202766,3.1337234735327426
-0.0017775739268947903,-0.8924453491015618,2.1116633045161435,1.9099002104545852,3.1328881572973946
-0.001953437405202495,-0.8913977403458073,2.110257209749436,1.9087807995234032,3.1320252513037303
-0.002134411446127687,-0.8903206563694729,2.1087870156657647,1.907607472330353,3.1311369336905646
-0.002320045117674708,-0.889216882665211,2.1072539436555338,1.9063809051790586,3.13022538259671
-0.0025098874878478955,-0.8880892047256747,2.105659215109148,1.9051017743731415,3.1292927761609834
-0.0027034876246515896,-0.8869404080435163,2.1040040514170104,1.9037707562162247,3.1283412925221974
-0.0029003945960901297,-0.8857732781113886,2.102289673969526,1.902388527011931,3.127373109819167
-0.0031001574701678544,-0.8845906004219442,2.1005173041570986,1.9009557630638834,3.1263904061907075
-0.0033023253148891036,-0.8833951604678356,2.098688163370133,1.8994731406757042,3.1253953597756325
-0.0035064471982582165,-0.8821897437417157,2.096803472999033,1.8979413361510162,3.1243901487127563
-0.003712072188279532,-0.8809771357362369,2.0948644544342017,1.896361025793442,3.123376951140894
-0.003918749352957389,-0.879760121944052,2.0928723290660445,1.8947328859066048,3.1223579451988597
-0.004126027760296127,-0.8785414878578136,2.0908283182849656,1.8930575927941269,3.121335309025468
-0.004333456478300085,-0.8773240189701744,2.088733643481368,1.8913358227596309,3.1203112207595334
-0.004540584574973603,-0.8761105007737869,2.086589526045657,1.8895682521067398,3.1192878585398702
-0.00474696111832102,-0.8749037187613038,2.084397187368236,1.8877555571390763,3.118267400505293
-0.004952135176346673,-0.8737064584253779,2.08215784883951,1.885898414160263,3.1172520247946163
-0.005155655817054905,-0.8725215052586615,2.079872731849882,1.8839974994739226,3.1162439095466543
-0.005357072108450053,-0.8713516447538076,2.077543057789757,1.882053489383678,3.1152452329002216
-0.005555933118536456,-0.8701996624034685,2.0751700480495394,1.8800670601931517,3.1142581729941328
-0.005751787915318457,-0.8690683437002971,2.0727549240196317,1.8780388882059664,3.1132849079672025
-0.005944185566800387,-0.867960474136946,2.0702989070904403,1.8759696497257448,3.112327615958245
-0.006132675140986593,-0.8668788392060677,2.0678032186523674,1.8738600210561098,3.1113884751060743
-0.00631680570588141,-0.865826224400315,2.0652690800958187,1.8717106785006838,3.1104696635495053
-0.006496126329489181,-0.8648054152123404,2.062697712811197,1.8695222983630904,3.109573359427353
-0.006670186079814242,-0.8638191971347967,2.0600903381889077,1.867295556946951,3.1087017408784305
-0.006838534024860933,-0.8628703556603364,2.057448177619354,1.865031130555889,3.1078569860415537
-0.007000719232633593,-0.8619587982215019,2.0547724524929403,1.862729695493527,3.1070412730555366
-0.00715629077113656,-0.8610578379484186,2.0520643842000714,1.8603919280634882,3.106256780059193
-0.007304797708374176,-0.8601672675009607,2.0493251941311503,1.8580185045693944,3.105505685191338
-0.007445789112350779,-0.8592868795390023,2.046556103676582,1.8556101013148694,3.1047901665907855
-0.007578814051070712,-0.8584164667224178,2.04375833422677,1.8531673946035347,3.104112402396351
-0.007703421592538302,-0.8575558217110817,2.040933107172119,1.850691060739014,3.1034745707468483
-0.007819160804757903,-0.856704737164868,2.038081643903033,1.8481817760249295,3.102878849781092
-0.007925580755733847,-0.8558630057436513,2.035205165809916,1.845640216764904,3.1023274176378965
-0.008022230513470478,-0.8550304201073058,2.0323048942831727,1.8430670592625602,3.101822452456076
-0.008108659145972124,-0.8542067729157058,2.029382050713206,1.8404629798215209,3.1013661323744457
-0.008184415721243135,-0.8533918568287256,2.0264378564904213,1.8378286547454088,3.1009606355318193
-0.008249049307287846,-0.8525854645062397,2.0234735330052223,1.8351647603378465,3.1006081400670116
-0.008302108972110598,-0.8517873886081221,2.0204903016480134,1.832471972902457,3.100310824118837
-0.00834314378371573,-0.8509974217942475,2.017489383809198,1.8297509687428628,3.10007086582611
-0.008371702810107576,-0.8502153567244901,2.0144720008791808,1.8270024241626863,3.099890443327645
-0.008387335119290483,-0.8494409860587241,2.0114393742483663,1.8242270154655507,3.099771734762257
-0.008389589779268788,-0.8486741024568238,2.0083927253071576,1.8214254189550785,3.0997169182687596
-0.00837801585804683,-0.8479144985786637,2.00533327544596,1.8185983109348927,3.0997281719859675
-0.008352162423628944,-0.8471619670841181,2.002262246055177,1.8157463677086154,3.0998076740526956
-0.008311578544019472,-0.8464163006330612,1.9991808585252127,1.81287026557987,3.0999576026077578
-0.008255813287222753,-0.8456772918853672,1.9960903342464718,1.8099706808522786,3.1001801357899694
-0.008184415721243132,-0.8449447335009109,1.9929918946093577,1.8070482898294646,3.100477451738144
-0.00809693491408494,-0.844218418139566,1.989886761004275,1.80410376881505,3.100851728591096
-0.00799291993375252,-0.8434981384612075,1.9867761548216276,1.801137794112658,3.101305144487641
-0.007871919848250208,-0.8427836871257091,1.98366129745182,1.798151042025911,3.101839877566592
-0.0077334837255823505,-0.8420748567929455,1.9805434102852564,1.7951441888584319,3.1024581059667646
-0.0075771606337532785,-0.8413714401227907,1.9774237147123404,1.7921179109138432,3.103162007826973
-0.007402499640767342,-0.8406732297751196,1.9743034321234763,1.789072884495768,3.1039537612860313
-0.007209049814628863,-0.8399800184098059,1.9711837839090685,1.7860097859078286,3.1048355444827545
-0.0069963602233421955,-0.8392915986867242,1.968065991459521,1.782929291453648,3.105809535555956
-0.006763979934911679,-0.8386077632657487,1.9649512761652381,1.7798320774368488,3.1068779126444515
-0.006511458017341647,-0.837928304806754,1.9618408594166241,1.7767188201610535,3.1080428538870555
-0.006238343538636434,-0.8372530159696142,1.9587359626040823,1.7735901959298854,3.109306537422581
-0.005944185566800382,-0.8365816894142036,1.9556378071180178,1.7704468810469667,3.1106711413898442
-0.005628533169837836,-0.8359141178003967,1.9525476143488345,1.7672895518159202,3.1121388439276583
-0.00529093541575313,-0.8352500937880676,1.9494666056869363,1.7641188845403686,3.113711823174838
-0.0049309413725506165,-0.8345894100370908,1.9463960025227274,1.760935555523935,3.115392257270199
-0.004548100108234608,-0.8339318592073406,1.9433370262466119,1.7577402410702414,3.1171823243525543
-0.004141960690809465,-0.8332772339586911,1.9402908982489941,1.7545336174829111,3.1190842025607184
-0.0037120721882795277,-0.8326253269510169,1.9372588399202784,1.7513163610655664,3.1211000700335068
-0.0032579836686491143,-0.8319759308441923,1.9342420726508682,1.7480891481218306,3.123232104909733
-0.0027792441999225925,-0.8313288382980913,1.9312418178311686,1.7448526549553258,3.1254824853282117
-0.0022754028501042883,-0.8306838419725887,1.928259296851583,1.741607557869675,3.1278533894277576
-0.0017460086871985345,-0.8300407345275584,1.9252957311025158,1.7383545331685006,3.1303469953471854
-0.0011906107792096637,-0.829399308622875,1.922352341974371,1.735094257155426,3.1329654812253094
-0.0006087581941420436,-0.8287593569184128,1.9194303508575532,1.7318274061340733,3.1357110252009432
1.3877787807814457e-17,-0.828120672074046,1.916530979142466,1.7285546564080654,3.1385858054129026
0.0005994258905210464,-0.8274830467496489,1.9136554482195138,1.725276684281025,3.141592000000001
0.0011537049925118975,-0.826846273605096,1.9108049794791009,1.7219941660565747,3.144626688144038
0.0016636014882129985,-0.8262101453002614,1.9079807943116311,1.7187077780383375,3.147592366824948
0.002129879559865072,-0.8255744544950195,1.905184114107509,1.7154181965299358,3.150489545001002
0.0025533033897084667,-0.8249389938492449,1.9024161602571383,1.7121260978349924,3.1533187316304723
0.0029346371599841964,-0.8243035560228115,1.8996781541509233,1.7088321582571302,3.1560804356716283
0.0032746450529323595,-0.8236679336755939,1.8969713171792681,1.7055370540999717,3.158775166082744
0.0035740912507939288,-0.8230319194674661,1.894296870732577,1.7022414616671397,3.1614034318220887
0.0038337399358091273,-0.8223953060583029,1.8916560362012542,1.698946057262257,3.1639657418479348
0.004054355290218886,-0.8217578861079782,1.8890500349757036,1.6956515171889461,3.166462605118553
0.00423670149626354,-0.8211194522763665,1.886480088446329,1.6923585177508298,3.168894530592216
0.004381542736183852,-0.8204797972233423,1.8839474180035358,1.6890677352515309,3.171262027227194
0.004489643192220172,-0.8198387136087797,1.8814532450377268,1.6857798459946718,3.173565603981758
0.004561767046613124,-0.819195994092553,1.878998790939307,1.6824955262838759,3.1758057698141813
0.004598678481603752,-0.8185514313345365,1.87658527709868,1.679215452422765,3.177983033682733
0.004601141679432014,-0.8179048179946045,1.8742139249062506,1.6759403007149625,3.180097904545687
0.004569920822338952,-0.8172559467326316,1.8718859557524221,1.6726707474640912,3.182150891361313
0.004505780092564748,-0.816604610208492,1.8696025910275993,1.669407468973773,3.1841425030878825
0.004409483672350278,-0.8159506010820599,1.867365052122186,1.6661511415476313,3.186073248683668
0.0042817957439359455,-0.8152937120132095,1.8651745604265866,1.6629024414892888,3.1879436371069394
0.004123480489562487,-0.8146337356618155,1.8630323373312052,1.6596620451023676,3.189754177315969
0.003935302091470333,-0.8139704646877521,1.8609396042264457,1.6564306286904913,3.191505378269029
0.003718024731900249,-0.8133036917508936,1.8588975825027125,1.6532088685572819,3.193197748924389
0.003472412593092722,-0.812633209511114,1.8569074935504097,1.6499974410063625,3.1948317982403207
0.0031992298572882105,-0.8119588106282881,1.8549705587599412,1.6467970223413555,3.196408035175098
0.0028992407067275072,-0.81128028776229,1.8530879995217118,1.6436082888658838,3.1979269686869887
0.00257320932365121,-0.8105974335729939,1.851261037226125,1.6404319168835704,3.1993891077342673
0.0022218998902996667,-0.8099100407202744,1.849490893263585,1.6372685826980375,3.200794961275203
0.0018460765889135033,-0.8092179018640058,1.847778789024496,1.634118962612908,3.202145038268068
0.0014465036017334842,-0.8085208096640621,1.8461259458992625,1.6309837329318047,3.2034398476711354
0.0010239451110000963,-0.807818556780318,1.8445335852782885,1.6278635699583504,3.2046798984426728
0.000579165298953771,-0.8071109358726476,1.8430029285519778,1.6247591499961673,3.205865699540955
0.00011292834783546701,-0.8063977396009251,1.8415351971107345,1.6216711493488787,3.2069977599242523
-0.00037400156011455077,-0.8056787606250252,1.8401316123449634,1.618600244320107,3.2080765885508358
-0.0008808602426556011,-0.8049537916048219,1.8387933956450682,1.6155471112134752,3.209102694378977
-0.0014068835175470307,-0.8042226252001896,1.8375217684014533,1.6125124263326058,3.210076586366948
-0.0019513072025483802,-0.8034850540710029,1.8363179520045227,1.6094968659811213,3.210998773473019
-0.0025133671154192183,-0.8027408708771357,1.8351831678446806,1.6065011064626447,3.211869764655462
-0.0030922990739186695,-0.8019898682784625,1.8341186373123308,1.6035258240807986,3.21269006887255
-0.0036873388958061915,-0.8012318389348577,1.8331255817978778,1.600571695139206,3.2134601950825514
-0.004297722398841242,-0.8004665755061957,1.8322052226917258,1.597639395941489,3.2141806522437397
-0.004922685400783167,-0.7996938706523504,1.8313587813842787,1.5947296027912707,3.214851949314385
-0.005561463719391924,-0.7989135170331966,1.8305874792659407,1.5918429919921742,3.2154745952527604
-0.006213293172426082,-0.7981253073086082,1.8298925377271165,1.5889802398478214,3.2160490990171358
-0.006877409577645599,-0.7973290341384599,1.8292751781582093,1.5861420226618357,3.216575969565784
-0.007553048752809766,-0.7965244901826257,1.8287366219496235,1.583329016737839,3.2170557158569744
-0.008239446515677817,-0.7957114681009804,1.828278090491764,1.5805418983794552,3.217488846848981
-0.008935838684009545,-0.7948897605533977,1.827900805175034,1.5777813438903063,3.2178758715000737
-0.009641461075564017,-0.7940591601997524,1.827605987389838,1.5750480295740146,3.218217298768523
-0.010355549508100914,-0.7932194596999186,1.8273948585265805,1.5723426317342035,3.2185136376126016
-0.01107733979937936,-0.7923704517137705,1.827268639975665,1.5696658266744956,3.2187653969905803
-0.011806067767158923,-0.7915119289011828,1.8272285531274965,1.5670182906985133,3.218973085860732
-0.012540969229199339,-0.7906436839220297,1.8272758193724783,1.5644007001098799,3.2191372131813267
-0.01328128000325951,-0.7897655094361852,1.8274116601010146,1.5618137312122171,3.2192582879106357
-0.014026235907099283,-0.788877198103524,1.8276372967035102,1.5592580603091486,3.219336819006931
-0.01477507275847767,-0.7879785425839203,1.8279539505703688,1.5567343637042967,3.2193733154284834
-0.015527026375154462,-0.7870693355372483,1.8281827169745895,1.554243317701284,3.2193682861335655
-0.01628133257488873,-0.7861493696233824,1.8281440180349047,1.5517855986037334,3.219322240080447
-0.017037227175440317,-0.7852184375021971,1.8278430839790039,1.549361882715268,3.2192356862274014
-0.017793945994568294,-0.7842763318335665,1.8272851450345637,1.5469728463395096,3.219109133532698
-0.01855072485003184,-0.783322845277365,1.826475431429265,1.5446191657800814,3.21894309095461
-0.019306799559590915,-0.7823577704934669,1.8254191733907845,1.5423015173406065,3.2187380674514077
-0.020061405941004917,-0.7813809001417464,1.8241216011468042,1.5400205773247073,3.2184945719813616
-0.020813779812032862,-0.7803920268820783,1.8225879449250026,1.5377770220360059,3.2182131135027454
-0.02156315699043465,-0.7793909433743362,1.820823434953057,1.5355715277781257,3.21789420097383
-0.022308773293969186,-0.7783774422783951,1.8188333014586529,1.5334047708546894,3.2175383433528864
-0.023049864540396148,-0.7773513162541288,1.8166227746694634,1.5312774275693195,3.217146049598184
-0.023785666547474937,-0.776312357961412,1.8141970848131703,1.5291901742256386,3.2167178286679974
-0.02451541513296529,-0.7752603600601189,1.811561462117453,1.5271436871272699,3.2162541895205967
-0.025238346114625942,-0.7741951152101236,1.8087211368099907,1.5251386425778357,3.215755641114253
-0.025953695310216518,-0.7731164160713009,1.8056813391184683,1.5231757168809588,3.215222692407238
-0.026660698537496974,-0.7720240553035246,1.8024472992705571,1.5212555863402617,3.214655852357823
-0.027358591614226158,-0.7709178255666691,1.7990242474939402,1.5193789272593679,3.214055629924279
-0.028046610358163915,-0.769797519520609,1.7954174140162946,1.517546415941899,3.21342253406488
-0.028723990587069204,-0.7686629298252188,1.7916320290653025,1.5157587286914787,3.212757073737894
-0.02938996811870187,-0.7675138491403722,1.7876733228686437,1.5140165418117286,3.2120597579015935
-0.03004377877082065,-0.7663500701259441,1.7835465256539997,1.5123205316062727,3.2113310955142502
-0.030684658361185613,-0.7651713854418084,1.7792568676490461,1.5106713743787328,3.2105715955341356
-0.03131184270755616,-0.7639775877478394,1.774809579081463,1.5090697464327323,3.209781766919522
-0.03192456762769169,-0.7627684697039119,1.77020989017893,1.5075163240718932,3.208962118628679
-0.0325220689393515,-0.7615438239698998,1.7654630311691273,1.5060117835998383,3.2081131596198786
-0.033103582460294545,-0.7603034432056777,1.7605742322797342,1.504556801320191,3.2072353988513917
-0.03366834400828078,-0.7590471200711197,1.755548723738431,1.5031520535365732,3.2063293452814925
-0.034215589401069946,-0.7577746472261002,1.7503917357728964,1.5017982165526083,3.2053955078684493
-0.03474455445642055,-0.7564858173304934,1.7451084986108087,1.5004959666719184,3.204434395570535
-0.035254474992093,-0.7551804230441738,1.7397042424798501,1.4992459801981268,3.203446517346019
-0.0357445868258458,-0.7538582570270157,1.7341841976076973,1.4980489334348555,3.2024323821531753
-0.03621412577543892,-0.7525191119388934,1.728553594222034,1.4969055026857279,3.201392498950275
-0.03666232765863153,-0.7511627804396813,1.7228176625505345,1.4958163642543663,3.200327376695589
-0.03708842829318337,-0.7497890551892533,1.716981632820878,1.4947821944443935,3.1992375243473874
-0.03749166349685351,-0.7483977288474842,1.7110507352607485,1.4938036695594326,3.198123450863943
-0.03787126908740146,-0.7469885940742483,1.7050302000978244,1.4928814659031056,3.1969856652035276
-0.038226480882586955,-0.7455614435294199,1.6989252575597833,1.4920162597790356,3.195824676324412
-0.03855653470016884,-0.744116069872873,1.6927411378743065,1.4912087274908452,3.1946409931848674
-0.03886066635790686,-0.7426522657644823,1.6864830712690706,1.4904595453421574,3.1934351247431647
-0.03913811167356074,-0.7411698238641217,1.6801562879717595,1.4897693896365944,3.1922075799575764
-0.03938810646488933,-0.739668536831666,1.6737660182100518,1.4891389366777796,3.190958867786373
-0.03960988654965203,-0.7381481973269892,1.6673174922116232,1.488568862769335,3.1896894971878282
-0.039802687745608356,-0.7366085980099658,1.660815940204154,1.488059844214884,3.1883999771202096
-0.03996574587051893,-0.7350495315404701,1.65426659241533,1.4876125573180485,3.1870908165417915
-0.04009829674214105,-0.7334707905783764,1.647674679072825,1.487227678382452,3.185762524410845
-0.04019957617823566,-0.7318721677835589,1.6410454304043158,1.4869058837117168,3.1844156096856406
-0.040268819996561955,-0.730253455815892,1.634384076637489,1.486647849609466,3.1830505813244496
-0.04030526401487844,-0.7286144473352498,1.627695848000017,1.4864542523793216,3.1816679482855452
-0.040308144050945516,-0.7269549350015072,1.620985974719587,1.4863257683249067,3.1802682195271954
-0.040276695922522254,-0.725274711474538,1.614259687023873,1.4862630737498441,3.1788519040076757
-0.04021015544736861,-0.7235735694142169,1.607522215140552,1.4862668449577563,3.1774195106852554
-0.04010775844324277,-0.721851301480418,1.6007787892973138,1.4863377582522663,3.1759715485182056
-0.03996874072790524,-0.7201067269566903,1.5940346397218352,1.4864764899369969,3.174508526464797
-0.03979233811911498,-0.7183465847274992,1.5872949966417833,1.4866837163155702,3.173030953483304
-0.03957778643463161,-0.716571118947992,1.5805650902848445,1.4869601136916093,3.1715393385319963
-0.039324321492214986,-0.7147805737733139,1.5738501508787044,1.4873063583687371,3.1700341905691443
-0.03903117910962317,-0.7129751933586113,1.5671554086510433,1.4877231266505757,3.1685160185530195
-0.03869759510461601,-0.7111552218590285,1.5604860938295264,1.4882110948407488,3.1669853314418948
-0.03832280529495424,-0.7093209034297114,1.553847436641849,1.4887709392428783,3.165442638194042
-0.03790604549839571,-0.7074724822258058,1.547244667315681,1.4894033361605872,3.1638884477677314
-0.03744655153270182,-0.7056102024024564,1.5406830160787086,1.4901089618974976,3.1623232691212335
-0.036943559215629085,-0.7037343081148093,1.534167713158606,1.4908884927572332,3.1607476112128206
-0.03639630436493935,-0.7018450435180095,1.5277039887830544,1.4917426050434162,3.1591619830007645
-0.03580402279839068,-0.6999426527672026,1.5212970731797295,1.4926719750596695,3.157566893443337
-0.035165950333743146,-0.6980273800175338,1.514952196576317,1.4936772791096156,3.155962851498809
-0.034481322788756597,-0.6960994694241488,1.5086745892004956,1.4947591934968771,3.1543503661254495
-0.033749375981188656,-0.694159165142193,1.50246948127994,1.4959183945250774,3.1527299462815335
-0.032969345728800725,-0.692206711326812,1.4963421030423394,1.4971555584978384,3.151102100925332
-0.032140467849351095,-0.6902423521331507,1.4902976847153564,1.4984713617187833,3.149467339015115
-0.03126197816059939,-0.6882663317163553,1.4843414565266855,1.4998664804915347,3.1478261695091536
-0.030333112480306124,-0.6862788942315704,1.4784786487040051,1.5013415911197148,3.1461791013657203
-0.029353106626228698,-0.6842802838339419,1.4727144914749921,1.5028973699069474,3.1445266435430863
-0.028321196416128513,-0.6822707446786151,1.467054215067316,1.5045344931568538,3.1428693049995235
-0.027236617667762975,-0.6802505209207355,1.4615030497086714,1.5062536371730584,3.141207594693302
-0.026098606198893037,-0.6782198567154485,1.4560662256267296,1.5080554782591826,3.1395420215826944
-0.024906397827277882,-0.6761789962178995,1.4507489730491745,1.5099406927188492,3.1378730946259705
-0.02365922837067691,-0.6741281835832341,1.4455565222036793,1.5119099568556815,3.1362013227814045
-0.02235633364684886,-0.6720676629665974,1.4404941033179313,1.513963946973302,3.134527215007265
-0.020996949473553794,-0.669997678523135,1.435566946619609,1.5161033393753336,3.132851280261826
-0.019580311668550898,-0.6679184744079925,1.4307802823363822,1.5183288103653985,3.1311740275033553
-0.01810565604959935,-0.6658302947763153,1.4261393406959417,1.5206410362471197,3.1294959656901282
-0.016572218434458996,-0.6637333837832486,1.4216493519259608,1.5230406933241198,3.1278176037804144
-0.01497923464088946,-0.6616279855839377,1.4173155462541196,1.5255284579000215,3.1261394507324853
-0.013325940486649923,-0.6595143443335286,1.4131431539081003,1.528105006278448,3.1244620155046112
-0.011611571789499564,-0.6573927041871664,1.409137405115585,1.5307710147630216,3.1227858070550654
-0.009835364367197341,-0.6552633092999965,1.405303530104245,1.533527159657365,3.12111133434212
-0.007996554037504211,-0.6531264038271644,1.4016467591017605,1.5363741172651006,3.1194391063240436
-0.006094376618178021,-0.6509822319238152,1.398172322335821,1.5393125638898517,3.11776963195911
-0.00412806792697884,-0.6488310377450952,1.3948854500340921,1.5423431758352406,3.1161034202055875
-0.0020968637816662916,-0.646673065446149,1.3917913724242634,1.5454666294048907,3.114440980021751
0.0,-0.6445085591821221,1.3888953197340133,1.5486836009024234,3.1127828203658714
0.002101645773614158,-0.6423377631081603,1.3862025221910184,1.5519947666314629,3.111129450196218
0.004155828748651058,-0.6401609213794087,1.383718210022952,1.5554008028956312,3.109481378471063
0.0061629361973255525,-0.6379782781510132,1.3814476134575102,1.5589023859985507,3.107839114148679
0.008123355391845277,-0.6357900775781186,1.379395962722361,1.5625001922438444,3.1062031661873366
0.010037473604422531,-0.6335965638158709,1.3775684880451848,1.5661948979351352,3.104574043545308
0.011905678107267281,-0.6313979810194152,1.3759704196536706,1.5699871793760456,3.1029522551808633
0.013728356172592493,-0.6291945733438971,1.3746069877754827,1.5738777128701984,3.1013383100522747
0.015505895072606912,-0.6269865849444619,1.3734834226383121,1.5778671747212165,3.0997327171178126
0.017238682079522172,-0.6247742599762549,1.3726049544698213,1.5819562412327222,3.098135985335751
0.01892710446554846,-0.6225578425944219,1.3719768134977137,1.5861455887083382,3.0965486236643587
0.0205715495028973,-0.6203375769541081,1.3716042299496554,1.590435893451688,3.094971141061907
0.022172404463780326,-0.6181137072104591,1.3714924340533265,1.5948278317663933,3.0934040464866692
0.023730056620407503,-0.6158864775186196,1.3716466560364076,1.5993220799560774,3.091847848896916
0.025244893244988464,-0.6136561320337361,1.372072126126577,1.6039193143243629,3.090303057250919
0.026717301609736843,-0.6114229149109537,1.3727740745515202,1.6086202111748722,3.0887701805069483
0.02814766898686094,-0.6091870703054176,1.3737577315389125,1.6134254468112286,3.087249727623276
0.02953638264857328,-0.6069488423722732,1.3750283273164285,1.6183356975370546,3.085742207558174
0.030883829867083934,-0.604708475266666,1.376591092111756,1.6233516396559724,3.084248129269915
0.03219039791460476,-0.6024662131437416,1.3784512561525712,1.628473949471605,3.082768001716768
0.0334564740633454,-0.6002223001586453,1.3806140496665513,1.633703303287576,3.081302333857004
0.03468244558551725,-0.5979769804665224,1.3830847028813729,1.6390403774075064,3.0798516346488967
0.0358686997533304,-0.5957304982225188,1.3858684460247268,1.6444858481350202,3.078416413050717
0.03701562383899715,-0.5934830975817799,1.3889705093242863,1.65004039177374,3.0769971780207355
0.03812360511472779,-0.5912350226994502,1.3920793732649983,1.655704684627288,3.0755944385172245
0.03919303085273329,-0.5889865177306757,1.3949100118703228,1.6614794029992874,3.074208703498453
0.040224288325222846,-0.5867378268306018,1.3974660307401443,1.6673652231933607,3.0728404819226953
0.041217764804409196,-0.5844891941543745,1.3997510354743206,1.6733628215131306,3.071490282748223
0.04217384756250353,-0.5822408638571387,1.4017686316727698,1.6794728742622198,3.070158614933305
0.04309292387171504,-0.5799930800940403,1.4035224249353782,1.685696057744251,3.0688459874362133
0.04397538100425624,-0.5777460870202238,1.4050160208620142,1.6920330482628472,3.067552909215221
0.04482160623233611,-0.5755001287908353,1.4062530250525764,1.6984845221216303,3.0662798892285994
0.04563198682816805,-0.5732554495610196,1.407237043106937,1.705051155624224,3.065027436434618
0.04640691006396125,-0.5710122934859232,1.407971680624998,1.71173362507425,3.063796059791549
0.04714676321192535,-0.5687709047206903,1.408460543206651,1.7185326067753326,3.062586268257664
0.04785193354427486,-0.5665315274204679,1.4087072364517699,1.7254487770310927,3.061398570791235
0.04852280833321698,-0.5642944057404004,1.408715365960255,1.732482812145154,3.060233476350533
0.04915977485096468,-0.562059783835633,1.4084885373319729,1.7396353884211389,3.059091493893829
0.049763220369728245,-0.5598279058613115,1.408030356166826,1.7469071821626707,3.057973132379395
0.050333532161717986,-0.5575990159725807,1.4073444280647092,1.7542988696733712,3.0568789007655006
0.05087109749914598,-0.5553733583245873,1.406434358625484,1.7618111272568642,3.0558093080104216
0.05137630365422208,-0.5531511770724762,1.405303753449072,1.7694446312167706,3.0547648630724256
0.05184953789915725,-0.5509327163713921,1.4039562181353347,1.7772000578567153,3.0537460749097836
0.05229118750616357,-0.5487182203764822,1.4023953582841653,1.7850780834803197,3.0527534524807685
0.052701639747450235,-0.5465079332428899,1.4006247794954394,1.7930793843912067,3.0517875047436522
0.05308128189522865,-0.5443020991257616,1.3986480873690628,1.8012046368929993,3.050848740656707
0.05343050122170956,-0.5421009621802423,1.396468887504927,1.8094545172893197,3.0499376691782007
0.05374968499910504,-0.5399047665614781,1.3940907855028897,1.8178297018837914,3.0490547992664068
0.0540392204996234,-0.5377137564246138,1.3915173869628603,1.826330866980036,3.0482006398795973
0.05429949499547804,-0.535528175924795,1.388752297484741,1.8349586888816776,3.0473756999760435
0.05453089575888037,-0.5333482692171684,1.3857991226683843,1.8437138438923377,3.0465804885140177
0.05473381006203781,-0.5311742804568771,1.3826614681137013,1.8525970083156393,3.0458155144517884
0.05490862517716466,-0.5290064537990682,1.3793429394205639,1.8616088584552062,3.0450812867476276
0.05505572837646988,-0.5268450333988863,1.375847142188876,1.8707500706146594,3.044378314359809
0.05517550693216311,-0.5246902634114774,1.372177682018492,1.8800213210976227,3.0437071062466017
0.05526834811645909,-0.5225423879919866,1.368338164509339,1.889423286207719,3.0430681713662793
0.05533463920156545,-0.5204016512955594,1.3643321952612855,1.8989566422485697,3.0424620186771114
0.05537476745969472,-0.518268297477342,1.3601633798742334,1.9086220655237984,3.041889157137369
0.05538912016305608,-0.5161425706924783,1.3558353239480425,1.9184202323370283,3.0413500957053263
0.05537808458386273,-0.5140247150961146,1.351351633082622,1.9283518189918818,3.040845343339252
0.055342047994324295,-0.5119149748433962,1.3467159128778476,2.087718832306564,3.0403754089974195
0.05528139766665108,-0.5098135940894688,1.3419317689335983,2.095804801705876,3.039940801638098
0.05519652087305427,-0.5077208169894774,1.3370028068497852,2.1036858141688057,3.0395420302195606
0.05508780488574394,-0.5056368876985677,1.331932632226291,2.11136517580983,3.0391796037000796
0.054955636976934175,-0.5035620503718856,1.3267248506629805,2.1188461558381686,3.038854031037924
0.05480040441883238,-0.5014965491645751,1.3213830677597755,2.126132023463086,3.0385658211913653
0.054622494483649975,-0.4994406282317829,1.3159108891165303,2.133226047893812,3.038315483118677
0.054422294443599695,-0.4973945317286539,1.3103119203331346,2.140131498339578,3.038103525778128
0.054200191570890954,-0.4953585038103343,1.304589767009496,2.146851644009633,3.037930458127993
0.05395657313773561,-0.4933327886319687,1.2987480347454863,2.1533897541132223,3.037796789126541
0.053691826416342625,-0.49131763034870257,1.2927903291410168,2.1597490978595673,3.0377030277320416
0.05340633867892364,-0.48931327311568173,1.286720255795938,2.1659329444579107,3.0376496829027717
0.05310049719769161,-0.4873199610880514,1.2805414203101542,2.1719445631175063,3.037637263596998
0.0527746892448544,-0.4853379384209562,1.274257428283562,2.1777872230475737,3.0376662787729938
0.052429302092624974,-0.48336744926954345,1.267871885316044,2.1834641934573646,3.037737237389031
0.0520647230132123,-0.4814087377889573,1.2613883970074724,2.1889787435561203,3.037850648403378
0.0516813392788289,-0.4794620481343428,1.2548105689577582,2.1943341425530463,3.0380070207743093
0.0512795381616864,-0.4775276244608473,1.2481420067667521,2.1995336596574298,3.0382068634600965
0.050859706933993554,-0.4756057109236138,1.2413863160343865,2.204580564078505,3.0384506854190096
0.05042223286796066,-0.4736965516777889,1.2345471023605121,2.209478125025477,3.038738995609318
0.04996750323580157,-0.4718003908785182,1.227627971345047,2.2142296117076192,3.0390723029892976
0.049495905309724364,-0.46991747268094697,1.2206325285878563,2.2188382933341337,3.0394511165172187
0.049007826361941564,-0.46804804124022015,1.213564379688826,2.223307439114297,3.039875945151351
0.04850365366466347,-0.46619234071148385,1.2064271302478602,2.2276403182573326,3.0403472978499644
0.04798377449010127,-0.46435061524988375,1.1992243858648273,2.231840199972474,3.040865683571334
0.047448576110466156,-0.4625231090105639,1.1919597521396206,2.2359103534689595,3.0414316112737296
0.046898445797968424,-0.4607100661486718,1.1846368346721405,2.2398540479560296,3.042045589915423
0.04633377082481793,-0.4589117308193511,1.1772592390622485,2.2436745526429362,3.0427081284546844
0.04575493846322631,-0.4571283471777472,1.169830570909859,2.2473751367389028,3.043419735849787
0.04516233598540431,-0.45536015937900665,1.1623544358148514,2.250959069453181,3.0441809210590005
0.044556350663566224,-0.453607411578274,1.1548344393770833,2.254429619995001,3.0449921930405988
0.04393736976991569,-0.4518703479306956,1.1472741871964907,2.257790057573615,3.045854060752851
0.04330578057667145,-0.4501492125914166,1.1396772848729313,2.2610436513982464,3.0467670331540284
0.0426619703560398,-0.4484442497155814,1.1320473380063092,2.2641936706781394,3.0477316192024024
0.04200632638023061,-0.4467557034583367,1.124387952196475,2.267243384622539,3.0487483278562477
0.04133923592145683,-0.4450838179748273,1.116702733043354,2.270196062440661,3.0498176680738327
0.040661086251930545,-0.4434288374201989,1.1089952861468149,2.273054973341779,3.050940148813428
0.03997226464386161,-0.4417910059495964,1.1012692171067577,2.275823386535123,3.052116279033307
0.039273158369458105,-0.440170567718166,1.0935281315230583,2.2785045712299024,3.05334656769174
0.038564154700935216,-0.4385677668810528,1.085775634995617,2.28110179663539,3.0546315237470005
0.0378456409104988,-0.43698284759340145,1.0780153331243056,2.2836183319608203,3.0559716561573564
0.03711800427036538,-0.4354160540103591,1.0702508315090036,2.2860574464154197,3.0573674738810825
0.03638163205274303,-0.43386763028706943,1.0624857357496182,2.2884224092084295,3.0588194858764464
0.035636911529843385,-0.4323378205786792,1.0547236514460359,2.2907164895490872,3.0603282011017243
0.0348842299738763,-0.43082686904033274,1.0469681841981426,2.2929429566466517,3.061894128515185
0.03412397465705164,-0.42933501982717637,1.0392229396058212,2.295105079710325,3.0635177770750985
0.03335653285158369,-0.42786251709435574,1.0314915232689472,2.29720612794938,3.0651996557397387
0.032582291829678756,-0.4264096049970152,1.0237775407874317,2.299249370573058,3.0669402734673743
0.03180163886355336,-0.4249765276903008,1.0160845977611466,2.3012380767905576,3.068740139216281
0.031014961225413362,-0.4235635293293567,1.008416299789971,2.303175515811162,3.070599761944726
0.030222646187470392,-0.42217085406933075,1.0007762524738126,2.3050649568440917,3.072519650610984
0.029425081021937416,-0.42079874606536705,0.9931680614125469,2.30690966909858,3.074500314173324
0.028622653001025622,-0.41944744947261103,0.9855953322060529,2.308712921783872,3.0765422615900175
0.027815749396942646,-0.41811720844620814,0.9780616704542417,2.310477984109223,3.078646001819338
0.027004757481903674,-0.41680826714130426,0.9705706817569819,2.312208125283842,3.080812043819554
0.026190064528115453,-0.4155208697130439,0.9631259717141702,2.313906614516984,3.08304089654894
0.025372057807788728,-0.41425526031657256,0.9557311459256788,2.3155767210178873,3.0853330689657654
0.024551124593140017,-0.41301168310703695,0.9483898099914221,2.317221713995796,3.0876890700283015
0.02372765215637429,-0.41179038223958164,0.9411055695112438,2.318844862659944,3.0901094086948206
0.022902027769704514,-0.41059160186935206,0.9338820300850692,2.3204494362195476,3.092594593923594
0.022074638705342764,-0.40941558615149387,0.9267227973127845,2.3220387038838837,3.0951451346728933
0.02124587223549712,-0.4082625792411514,0.9196314767942582,2.323615934862165,3.0977615399009895
0.020416115632381437,-0.4071328252934723,0.9126116741293764,2.3251843983636675,3.1004443185661525
0.019585756168204238,-0.4060265684635991,0.9056669949180502,2.3267473635975833,3.1031939796266577
0.0187551811151776,-0.40494405290668056,0.8988010447601447,2.328308099773178,3.1060110320407714
0.017924777745510045,-0.4038855227778595,0.8920174292555423,2.3298698760996857,3.1088959847667708
0.017094933331418094,-0.402851222232282,0.8853197540041613,2.3314359617863474,3.111849346762921
0.016266035145106272,-0.4018413954250941,0.8787116246058666,2.333009626042397,3.114871626987499
0.015438470458789766,-0.4008562865114409,0.8721966466605444,2.3345941380770654,3.1179633343987723
0.014612626544677543,-0.39989613964646686,0.8657784257680596,2.336192767099604,3.121124977955014
0.013788890674980347,-0.39896119898531923,0.8594605675283589,2.337808782319268,3.124357066614496
0.01296765012190848,-0.398051708683143,0.8532466775412821,2.339445452945263,3.1276601093354897
0.012149292157674907,-0.39716791289508313,0.8471403614067512,2.341106048186841,3.1310346150762642
0.011334204054492147,-0.3963100557762842,0.8411452247246061,2.3427938372532537,3.1344810927950935
0.01052277308456473,-0.3954783814818925,0.8352648730947685,2.344512089353735,3.1380000514502484
0.009715386520106506,-0.3946731341670544,0.8295029121171034,2.346264073697487,3.1415919999999993
0.008912431633329554,-0.393894557986914,0.8238629473915289,2.3480530594938216,3.1450622606414242
0.008114295696446394,-0.39314289709661665,0.8183485845179064,2.349882315951927,3.1481651167971165
0.007321365981664663,-0.39241839565130876,0.8129634290961505,2.3517551122810225,3.150912785368206
0.00653402976119466,-0.39172129780613485,0.8077110867261155,2.353674717690403,3.1533174832564015
0.005752674307248906,-0.39105184771624124,0.8025951630077088,2.355644401389277,3.155391427363327
0.004977686892039923,-0.39041028953677337,0.7976192635407884,2.3576674325868865,3.157146834590719
0.004209454787776679,-0.3897968674228749,0.792786993925283,2.359747080492472,3.1585959218402024
0.003448365266668141,-0.38921182552969213,0.7881019597610575,2.3618866143152886,3.159750906013457
0.002694805600928163,-0.38865540801237275,0.7835677666480123,2.364089303264535,3.1606240040121776
0.0019491630627666012,-0.3881278590260595,0.7791880201859982,2.366358416549488,3.1612274327381584
0.0012118249243955326,-0.3876294227258983,0.7749663259749653,2.368697223379378,3.1615734090927816
0.0004831784580212606,-0.3871603432670354,0.770906289614743,2.3711089929634355,3.1616741499780545
-0.0002363890641388089,-0.38667249804872306,0.7670115167052316,2.37359699451088,3.161541872295331
-0.0009464903698770399,-0.3861169120253827,0.7632856128463388,2.3761644972309846,3.161188792946561
-0.0016467381869831321,-0.38549487807028093,0.7597321836379436,2.378814770333001,3.160627128833241
-0.0023367452432481173,-0.3848076890567125,0.7563548346799038,2.381551083026128,3.1598690968571503
-0.0030161242664545895,-0.3840566378579684,0.7531571715721483,2.3843767045196245,3.1589269139199274
-0.003684487984395801,-0.383243017347338,0.7501427999145704,2.387294904022731,3.1578127969232526
-0.00434144912486456,-0.3823681203980982,0.7473153253070137,2.390308950744682,3.156538962768778
-0.004986620415643461,-0.3814332398835454,0.7446783533493857,2.393422113894701,3.1551176283582265
-0.005619614584526644,-0.38043966867697243,0.7422354896415797,2.3966376626820676,3.1535610105932648
-0.006240044359297592,-0.3793886996516722,0.7399903397834535,2.399958866315984,3.1518813263754026
-0.006847522467750444,-0.3782816256809092,0.737946509374936,2.4033889940057023,3.150090792606619
-0.007441661637673569,-0.3771197396379886,0.736107604015892,2.4069313149604525,3.148201626188367
-0.008022074596855333,-0.37590433439620696,0.7344772293062434,2.4105890983894867,3.146226044022441
-0.008588374073084992,-0.37463670282882866,0.7330589908458265,2.4143656135020564,3.1441762630103653
-0.009140172794148249,-0.37331813780915724,0.7318564942345205,2.4182641295073424,3.142064500053948
-0.009677083487841465,-0.37194993221048556,0.7308733450722684,2.4222879156146533,3.1399029720548697
-0.010198718881947677,-0.3705333789060994,0.7301131489589281,2.426440241033198,3.1377038959147967
-0.010704691704257918,-0.3690697707692827,0.7295795114943857,2.4307243749722147,3.1354794885352533
-0.011194614682564996,-0.36756040067330353,0.7292760382785275,2.4351435866409474,3.133241966818076
-0.011668100544652837,-0.366006561491492,0.7292063349112468,2.439701145248634,3.131003547664932
-0.012124762018308921,-0.3644095460971215,0.7293740069924368,2.4444003200044975,3.128776447977401
-0.012564211831329608,-0.36277064736345643,0.7297826601219626,2.4492443801178183,3.1265728846572927
-0.012986062711500601,-0.3610911581638234,0.7304358998997174,2.4542365947978055,3.124405074606159
-0.013389927386606715,-0.3593723713714727,0.7313373319256158,2.4593372041150587,3.1222852347257515
-0.013775418584446086,-0.3576155798597167,0.732490561799537,2.464543695357328,3.120225581917765
-0.014142149032798201,-0.3558220765018394,0.7338991951213174,2.4698524429619795,3.118238333083724
-0.014489731459460309,-0.35399315417111943,0.7352876892517628,2.475259821366656,3.116335705125408
-0.014817778592216335,-0.352130105740871,0.7363696835735993,2.4807622050088867,3.114529914944626
-0.0151259031588582,-0.350234224084355,0.7371520482278413,2.486355968326315,3.11283317944293
-0.015413717887171607,-0.34830680207486076,0.7376416533554107,2.4920374857564482,3.1112577155219014
-0.015680835504947588,-0.346349132585706,0.7378453690975846,2.497803131736987,3.109815740083235
-0.015926868739980726,-0.3443625084901427,0.7377700655952566,2.503649280705446,3.108519470028682
-0.016151430320053173,-0.34234822266147624,0.7374226129895618,2.509572307099397,3.1073811222600796
-0.016354132972952407,-0.34030756797299944,0.7368098814214648,2.5155685853564407,3.1064129136788097
-0.0165345894264739,-0.3382418372979856,0.7359387410320437,2.521634489914213,3.1056270611867376
-0.016692412408405133,-0.3361523235097508,0.7348160619623485,2.5277663952102145,3.105035781685359
-0.01682721464653092,-0.33404031948154866,0.7334487143534005,2.5339606756820885,3.104651292076511
-0.016938608868645844,-0.33190711808669704,0.7318435683463633,2.5402137057674494,3.1044858092617744
-0.017026207802537385,-0.32975401219845324,0.730007494082102,2.5465218599038195,3.104551550142986
-0.0170896241759948,-0.32758229469013145,0.7279473617017942,2.5528815125288418,3.1048607316216703
-0.017128470716804678,-0.3253932584350103,0.725670041346433,2.559289038080067,3.1054255705994933
-0.017142360152757163,-0.32318819630639695,0.723182403157125,2.5657408109950097,3.1062582839781214
-0.017130905211644176,-0.3209684011775451,0.7204913172748206,2.57223320571142,3.10737108865942
-0.017093718621254084,-0.3187351659217583,0.7176036538406265,2.5787625966667704,3.1087762015448277
-0.01703041310937259,-0.3164897834123366,0.7145262829955925,2.585325358298718,3.110485839536153
-0.01694060140379161,-0.3142335465225585,0.7112660748807969,2.5919178650447705,3.1125122195350343
-0.016823896232302182,-0.31196774812571704,0.7078298996371757,2.598536491342543,3.114867558443194
-0.016679910322686453,-0.3096936810950979,0.7042246274058215,2.6051776116296352,3.1175640731621854
-0.01650825640274256,-0.30741263830397614,0.7004571283279262,2.6118376003435984,3.120613980593845
-0.016308547200251766,-0.3051259126256518,0.6965342725442554,2.618512831922132,3.1240294976396683
-0.016080395443009543,-0.3028347969334213,0.6924629301962,2.6251996808026874,3.127822841201521
-0.015823413858800706,-0.30054058410056683,0.6882499714245114,2.6318945214229004,3.132006228180927
-0.015537215175413621,-0.29824456700036706,0.6839022663704242,2.638593728220364,3.1365918754796382
-0.01522141212064465,-0.29594803850611484,0.6794266851748461,2.645293675632665,3.1415919999993775
-0.01487561742227772,-0.2936522914911066,0.6748300979788979,2.6519907380974104,3.1466498559623517
-0.014499443808097645,-0.29135861882863523,0.6701193749236296,2.6586812900521437,3.15135588814843
-0.01409250400589901,-0.2890683133919758,0.6653013861500767,2.6653617059344583,3.1557194370131754
-0.013654410743469292,-0.2867826680544141,0.6603830017992891,2.6720283601819617,3.1597498430105304
-0.01318477674860219,-0.2845029756892572,0.6553710920123308,2.678677627232254,3.1634564465948074
-0.012683214749082516,-0.28223052916976243,0.6502725269301664,2.6853058815228863,3.166848588220205
-0.012149337472696864,-0.2799666213692511,0.6450941766940161,2.6919094974914515,3.169935608341035
-0.011582757647239816,-0.27771254516100186,0.6398429114447026,2.698484849575543,3.172726847411525
-0.010983088000497965,-0.27546959341829336,0.6345256013233609,2.7050283122127396,3.175231645885674
-0.01034994126026234,-0.2732390590144149,0.6291491164712255,2.7115362598406776,3.1774593442179366
-0.009682930154315983,-0.2710222348226665,0.6237203270290337,2.7180050668968434,3.1794192828625114
-0.008981667410452587,-0.2688204137163268,0.618246103138091,2.724431107818937,3.18112080227354
-0.008245765756464962,-0.26663488856868867,0.6127333149392769,2.730810757044466,3.182573242905164
-0.007474837920135258,-0.2644669522530272,0.607188832573641,2.7371403890110386,3.183785945211838
-0.00666849662925717,-0.26231789764264946,0.6016195261823611,2.743416378156276,3.184768249647675
-0.00582635461161729,-0.2601890176108519,0.5960322659064587,2.7496350989177003,3.1855294966668453
-0.004948024595004874,-0.25808160503089184,0.5904339218867705,2.755792925732898,3.186079026723746
-0.004033119307213617,-0.2559969527760657,0.5848313642646872,2.7618862330395544,3.1864261802723775
-0.0030812514760256704,-0.25393635371968415,0.5792314631809603,2.7679113952751564,3.186580297767023
-0.0020920338292356178,-0.25190110073501515,0.5736410887768102,2.7738647868773256,3.186550719662023
-0.001065079094628274,-0.24989248669535513,0.568067111193173,2.7797427822836553,3.186346786411491
8.881784197001252e-16,-0.24791180447398276,0.5625164005711554,2.7855417559317175,3.185977838469597
0.0010405497395424845,-0.2459603469442051,0.556995827051793,2.791258082259091,3.185453216290796
0.0019701277756922764,-0.2440394069792866,0.5515122607761924,2.7968881357034263,3.1847822603290012
0.002793294589352513,-0.24215027745254147,0.5460725718852473,2.802428290702224,3.183974311038696
0.0035146106615684403,-0.2402942512372377,0.5406836305201068,2.8078749216930845,3.183038708874051
0.004138636473228985,-0.23847262120665746,0.5353523068219346,2.813224403113658,3.1819847942892068
0.00466993250533676,-0.23668668023411854,0.5300854709315246,2.8184731094014737,3.1808219077383626
0.005113059238851747,-0.23493772119289247,0.5248899929901967,2.823617414994125,3.179559389675859
0.005472577154677083,-0.233227036956265,0.5197727431386738,2.828653694329219,3.178206580555866
0.0057530467338864355,-0.23155592039752548,0.5147405915183185,2.8335783218443567,3.176772820832525
0.0059590284573545205,-0.22992566438996676,0.5098004082700527,2.838387671977074,3.1752674509602343
0.006095082806027108,-0.22833756180686748,0.504959063534784,2.8430781191649785,3.1736998113931065
0.006165770260935233,-0.2267929055215383,0.5002234274538182,2.847646037845635,3.1720792425853688
0.006175651303038876,-0.22529298840724366,0.4956003701680345,2.852087802456694,3.170415084991248
0.006129286413241175,-0.2238391033372693,0.4910967618184685,2.8563997874356915,3.1687166790649997
0.006031236072573165,-0.22243254318493655,0.48671947254626957,2.860578367220242,3.1669933652607654
0.005886060761952194,-0.22107460082350983,0.4824753724924449,2.864619916247918,3.165254484032886
0.005698320962309822,-0.21976656912626424,0.47837133179804425,2.868520808956262,3.163509375835446
0.005472577154691294,-0.218509740966514,0.4744142206041033,2.872277419782918,3.161767381122786
0.005213389820013958,-0.21730540921754837,0.4706109090516293,2.875886123165486,3.1600378403491334
0.0049253194392235855,-0.2161548667526283,0.46696826728168617,2.8793432935414955,3.158330093968715
0.004612926493294367,-0.2150594064450715,0.46349316543535224,2.882645305348575,3.1566534824355585
0.004280771463243127,-0.2140203211681282,0.46019247365373417,2.885788533024325,3.155017346204147
0.00393341482991616,-0.2130389037951339,0.4570730620777681,2.888769351006246,3.1534310257284517
0.0035754170743871327,-0.21211644719933886,0.4541418008485323,2.8915841337320387,3.151903861463012
0.0032113386775733943,-0.2112542442540608,0.451405560107105,2.894229255639189,3.1504451938618274
0.002845740120449136,-0.2104535878325713,0.44887120999445074,2.896701091165383,3.1490643633790683
0.0024831818839317066,-0.20971577080817383,0.4465456206517331,2.898996014748093,3.147770710469217
0.0021282244490663516,-0.20904208605412933,0.444435662219945,2.9011104008250186,3.1465735755862454
0.0017854282966851542,-0.20843382644375197,0.44254820484010793,2.9030406238336752,3.1454822991844935
0.001459353907890204,-0.2078922848502991,0.44089011865338534,2.9047830582116205,3.1445062217181317
0.0011545617635704275,-0.2074187541471133,0.4394682738005997,2.90633407839654,3.143654683641529
0.0008756123447284381,-0.20701452720742708,0.4382895404230851,2.9076900588259775,3.142937025408571
0.000627066132281584,-0.20668089690455815,0.4373607886615787,2.9088473739374763,3.1423625874739116
0.0004134836072324788,-0.20641915611178163,0.4366888886573861,2.9098023981686794,3.1419407102913794
0.00023942525048425978,-0.2062305977023975,0.4362807105513866,2.9105515059571303,3.1416807343155426
0.00010945154306796212,-0.20611651454968083,0.4361431244846301,2.9110910717404437,3.141592000000486
