oscarkremer/mentor-optimization/notebooks/traject_2/3_steps/angles_0.csv
theta1,theta2,theta3,theta4,theta5
3.1415926535,-0.9030865823619687,2.1246196420553805,1.9200595938963783,8.979318433952318e-11
3.1415717425417933,-0.8967268612279962,2.124333751984598,1.9200063272125707,5.443996510540454e-06
3.1415091451291413,-0.8784805935037713,2.1234824195984014,1.9198470651612196,2.193360622493628e-05
3.141405064454999,-0.8495971227058331,2.122075151636013,1.919582614742434,4.9705753279863046e-05
3.1412597037123184,-0.8113257923507211,2.1201214548366565,1.9192137829563212,8.899727201881198e-05
3.1410732660940544,-0.764915945954974,2.117630835939555,1.9187413768029895,0.0001400449967852743
3.1408459547931593,-0.7116169270351314,2.114612801683933,1.9181662032825473,0.00020308576192274122
3.1405779730025882,-0.652678079107732,2.1110768588090143,1.9174890693951028,0.00027835640177470406
3.140269523915293,-0.5893487456893153,2.1070325140540205,1.9167107821407638,0.00036609375068465393
3.1399208107242287,-0.5228782702964203,2.1024892741581773,1.9158321485196386,0.000466534642996082
3.139532036622348,-0.45451599644558616,2.0974566458607073,1.9148539755318357,0.0005799159130524798
3.139103404802605,-0.38551126765335203,2.0919441359008335,1.9137770701774626,0.0007064743951973382
3.138635118457953,-0.3171134274362571,2.08596125101778,1.912602239456628,0.0008464469237741486
3.138127380781346,-0.2505718193108405,2.079517497950771,1.9113302903694398,0.0010000703331264022
3.1375803949657364,-0.1871357867936415,2.072622383439029,1.909962029916006,0.0011675814575975907
3.136994364204079,-0.12805467340119914,2.0652854142217776,1.908498265096435,0.0013492171315312045
3.136369491689327,-0.0745778226500523,2.0575160970382402,1.906939802910835,0.001545214189270735
3.1357059806144343,-0.02795457805674051,2.0493239386276416,1.905287450359314,0.0017558094651596737
3.1350040341723537,0.01056571686219665,2.040718445729204,1.9035420144419801,0.0019812397935415112
3.1342638555560396,0.039733718590221345,2.0317091250821515,1.9017043021589417,0.002221742008759741
3.1334856479584445,0.058300083610792974,2.0223054834257077,1.8997751205103066,0.002477552945157851
3.132669614572523,0.0650154684073736,2.012517027499096,1.8977552764961834,0.0027489094370793344
3.1318159585912286,0.06538807476180866,2.002353264041539,1.8956455771166796,0.003036048318867682
3.1309248832075145,0.06575786126136642,1.991823699792262,1.893446829371904,0.003339206424866385
3.1299965916143346,0.06612483646650039,1.9809378414904877,1.8911598402619643,0.0036586205894189347
3.1290312870046417,0.06648900893766464,1.969705195875439,1.8887854167869689,0.003994527646868824
3.1280291725713907,0.06685038723531324,1.9581352696863403,1.886324365947026,0.0043471644315595396
3.1269904515075337,0.06720897991990026,1.946237569662415,1.8837774947422434,0.004716767777834577
3.1259153270060254,0.06756479555187975,1.9340216025428862,1.8811456101727295,0.005103574520037428
3.124804002259819,0.0679178426917058,1.921496875066978,1.8784295192385927,0.005507821492511578
3.1236566804618686,0.06826812989983243,1.9086728939739133,1.8756300289399404,0.005929745529600525
3.122473564805126,0.06861566573671374,1.895559166002916,1.8727479462768815,0.006369583465647755
3.1212548584825472,0.0689604587628038,1.88216519789321,1.8697840782495239,0.006827572134996763
3.120000764687084,0.06930251753855664,1.868500496384018,1.8667392318579754,0.007303948371991041
3.1187114866116907,0.06964185062442635,1.854574568214564,1.8636142141023448,0.0077989490109740735
3.117387227449321,0.06997846658086701,1.8403969201240715,1.8604098319827398,0.00831281088628936
3.116028190392928,0.07031237396833266,1.825977058851764,1.8571268924992685,0.008845770832280383
3.1146345786354654,0.07064358134727737,1.8113244911368653,1.8537662026520394,0.009398065683290643
3.1132065953698875,0.07097209727815519,1.7964487237185987,1.8503285694411604,0.009969932273663627
3.111744443789147,0.07129793032142022,1.7813592633361874,1.8468147998667397,0.010561607437742824
3.1102483270861976,0.07162108903752651,1.7660656167288553,1.8432257009288855,0.01117332800987173
3.108718448453993,0.07194158198692811,1.7505772906358257,1.839562079627706,0.01180533082439383
3.1071550110854873,0.07225941773007911,1.7349037917963224,1.835824742963309,0.012457852715652622
3.1055582181736328,0.07257460482743357,1.719054626949569,1.832014497935803,0.013131130517991594
3.1039282729113844,0.07288715183944551,1.703039302834789,1.828132151545296,0.013825401065754233
3.102265378491695,0.07319706732656907,1.6868673261912055,1.8241785107918962,0.01454090119328404
3.1005697381075183,0.07350435984925827,1.6705482037580426,1.8201543826757118,0.015277867734924495
3.0988415549518082,0.07380903796796716,1.6540914422745236,1.816060574196851,0.0160365375250191
3.097081032217518,0.07411111024314986,1.6375065484798714,1.8118978923554219,0.016817147397911333
3.095288373097601,0.07441058523526037,1.620803029113311,1.8076671441515322,0.017619934187944705
3.093463780785011,0.0747074715047528,1.6039903909140647,1.8033691365852906,0.01844513472946269
3.091607458472702,0.0750017776120812,1.5870781406213563,1.7990046766568053,0.019292985856808782
3.0897196093536268,0.07529351211769963,1.5700757849744094,1.794574571366184,0.020163724404326476
3.087800436620739,0.07558268358206216,1.5529928307124476,1.7900796277135353,0.021057587206359273
3.085850143466993,0.07586930056562288,1.5358387845746944,1.7855206526989669,0.021974811097250635
3.0838689330853426,0.07615337162883583,1.5186231533003731,1.7808984533225876,0.022915632911344082
3.0818570086687402,0.07643490533215506,1.5013554436287078,1.7762138365845046,0.0238802894829831
3.07981457341014,0.07671391023603467,1.4840451622989215,1.7714676094848267,0.02486901764651117
3.0777418305024953,0.0769903949009287,1.466701816050238,1.7666605790236622,0.02588205423627178
3.07563898313876,0.07726436788729121,1.4493349116218806,1.761793552201119,0.02691963608660845
3.073506234511887,0.07753583775557629,1.4319539557530732,1.7568673360173048,0.027982000031864636
3.071343787814831,0.07780481306623799,1.4145684551830389,1.7518827374723285,0.02906938290638384
3.069151846240545,0.07807130237973038,1.3971879166510015,1.7468405635662978,0.030182021544509562
3.0669306129819818,0.07833531425650751,1.3798218468961843,1.741741621299321,0.0313201527805853
3.0646802912320967,0.07859685725702348,1.362479752657811,1.7365867176715062,0.03248401344895452
3.062401084183842,0.0788559399417323,1.3451711406751052,1.7313766596829618,0.03367384038396073
3.0600931950301713,0.07911257087108808,1.3279055176872903,1.7261122543337954,0.03488987041994743
3.057756826964039,0.07936675860554489,1.31069239043359,1.7207943086241158,0.03613234039125808
3.0553921831783977,0.07961851170555675,1.2935412656532277,1.7154236295540304,0.0374014871322362
3.0529994668662015,0.0798678387315778,1.276461650085427,1.7100010241236483,0.038697547477225265
3.0505788812204044,0.08011474824406202,1.259463050469411,1.7045272993330767,0.04002075826056879
3.048130629433959,0.08035924880346351,1.242554973544404,1.6990032621824243,0.041371356316610236
3.0456549146998197,0.08060134897023633,1.225746926049629,1.693429719671799,0.0427495784796931
3.0431519402109397,0.08084105730483458,1.2090484147243101,1.6878074788013093,0.044155661584160906
3.040621909160272,0.08107838236771228,1.1924689463076699,1.682137346571063,0.0455898424643571
3.0380650247407717,0.08131333271932352,1.1760180275389325,1.6764201299811683,0.0470523579546252
3.0354814901453913,0.08154591692012235,1.1597051651573214,1.6706566360317332,0.0485434448893087
3.032871508567084,0.08177614353056284,1.1435398659020601,1.6648476717228664,0.05006334010275107
3.030235283198805,0.08200402111109907,1.1275316365123724,1.6589940440546755,0.051612280429295804
3.027573017233506,0.08222955822218508,1.111689983727481,1.6530965600272691,0.053190502703286416
3.0248849138641414,0.08245276342427496,1.0960244142866107,1.6471560266407548,0.05479824375906639
3.022171176283665,0.08267364527782275,1.0805444349289837,1.6411732508952412,0.056435740430979195
3.0194320076850305,0.08289221234328255,1.0652595523938246,1.6351490397908366,0.05810322955336834
3.0166676112611905,0.08310847318110838,1.050179273420356,1.6290842003276484,0.05980094796057733
3.0138781902050997,0.08332243635175435,1.0353131047478028,1.6229795395057856,0.06152913248694962
3.0110639477097108,0.08353411041567449,1.0206705531153868,1.6168358643253555,0.06328801996682873
3.008225086967978,0.08374350393332287,1.0062611252623324,1.610653981786467,0.06507784723455814
3.005361811172855,0.08395062546515356,0.9920943279278636,1.6044346988892277,0.06689885112448135
3.0024743235172946,0.08415548357162064,0.9781796678512029,1.598178822633746,0.06875126847094183
2.9995628271942505,0.08435808681317815,0.9645266517715745,1.5918871600201303,0.0706353361082831
2.996627525396677,0.08455844375028018,0.9511447864282023,1.5855605180484884,0.07255129087084865
2.993668621317527,0.08475656294338077,0.938043578560309,1.5791997037189287,0.07449936959298194
2.990686318149755,0.08495245295293401,0.9252325349071182,1.5728055240315588,0.07647980910902648
2.9876808190863136,0.08514612233939395,0.9127211622078544,1.5663787859864875,0.07849284625332578
2.984652327320157,0.08533757966321465,0.9005189672017397,1.5599202965838226,0.08053871786022329
2.9816010460442377,0.08552683348485018,0.8886354566279988,1.5534308628236724,0.08261766076406253
2.97852717845151,0.08571389236475463,0.8770801372258541,1.546911291706145,0.08472991179918697
2.9754309277349287,0.08589876486338202,0.8658625157345308,1.5403623902313486,0.08687570779994017
2.972312497087445,0.08608145954118647,0.8549920988932509,1.533784965399391,0.0890552856006655
2.969172089702014,0.08626198495862199,0.8444783934412388,1.5271798242103807,0.09126888203570654
2.9660099087715897,0.08644034967614264,0.8343309061177175,1.520547773664426,0.0935167339394068
2.9628261574891246,0.08661656225420256,0.8245591436619106,1.5138896207616348,0.09579907814610966
2.959621039047572,0.08679063125325574,0.8151726128130419,1.5072061725021153,0.09811615149015875
2.9563947566398867,0.08696256523375628,0.8061808203103351,1.500498235885975,0.10046819080589747
2.9531475134590215,0.08713237275615823,0.7975932728930129,1.4937666179133233,0.10285543292766933
2.9498795126979305,0.08730006238091567,0.7894194773003,1.4870121255842677,0.10527811468981783
2.946590957549567,0.08746564266848267,0.7816689402714188,1.4802355658989166,0.10773647292668648
2.9432820512068836,0.08762912217931326,0.7743511685455933,1.473437745857377,0.11023074447261869
2.9399529968628357,0.08779050947386156,0.7674756688620479,1.466619472459759,0.11276116616195805
2.9366039977103755,0.08794981311258158,0.7610519479600044,1.4597815527061693,0.11532797482904802
2.9332352569424573,0.08810704165592739,0.755089512578687,1.4529247935967162,0.11793140730823205
2.929846977752035,0.08826220366435311,0.74959786945732,1.4460500021315084,0.12057170043385368
2.9264393633320607,0.08841530769831275,0.7445865253351265,1.4391579853106538,0.12324909104025641
2.9230126168754893,0.0885663623182604,0.7400649869513289,1.4322495501342605,0.12596381596178366
2.9195669415752734,0.0887153760846501,0.7360427610451539,1.4253255036024362,0.128716112032779
2.916102540624368,0.08886235755793596,0.7325293543558216,1.4183866527152902,0.1315062160875859
2.912619617215726,0.089007315298572,0.7295342736225567,1.4114338044729295,0.1343343649605478
2.9091183745423,0.0891502578670123,0.7270670255845828,1.404467765875463,0.13720079548600825
2.9055990157970446,0.08929119382371095,0.7251371169811232,1.3974893439229985,0.14010574449831076
2.9020617441729133,0.08943013172912198,0.7237540545514021,1.390499345615644,0.14304944883179868
2.8985067628628594,0.08956708014369946,0.7229273450346434,1.383498577953508,0.1460321453208157
2.894934275059837,0.08970204762789746,0.7226664951700688,1.3764878479366986,0.14905407079970512
2.8913444839567988,0.08983504274217007,0.7229810116969033,1.3694679625653234,0.15211546210281063
2.8877375927466993,0.08996607404697132,0.72388040135437,1.3624397288394916,0.1552165560644756
2.8841138046224915,0.09009515010275529,0.7253741708816923,1.3554039537593106,0.15835758951904347
2.880473322777129,0.09022227946997603,0.7274718270180931,1.3483614443248886,0.16153879930085788
2.8768163504035655,0.09034747070908765,0.7301828765027989,1.3413130075363338,0.16476042224426224
2.8731430906947546,0.09047073238054416,0.7331564440223474,1.3342594503937544,0.16802269518359997
2.86945374684365,0.09059207304479965,0.7360765196902634,1.3272015798972585,0.17132585495321467
2.8657485220432055,0.09071150126230818,0.7389433485086861,1.3201402030469545,0.17467013838744985
2.862027619486374,0.09082902559352382,0.7417571754797553,1.31307612684295,0.17805578232064884
2.8582912423661093,0.09094465459890064,0.7445182456056102,1.3060101582853538,0.18148302358715535
2.8545395938753657,0.09105839683889269,0.7472268038883906,1.2989431043742736,0.1849520990213127
2.8507728772070955,0.09117026087395406,0.7498830953302361,1.291875772109818,0.1884632454574644
2.846991295554253,0.09128025526453877,0.7524873649332867,1.2848089684920945,0.19201669972995405
2.8431950521097917,0.09138838857110093,0.7550398576996821,1.2777435005212117,0.19561269867312508
2.839384350066666,0.0914946693540946,0.7575408186315614,1.2706801751972774,0.1992514791213209
2.8355593926178275,0.09159910617397382,0.7599904927310648,1.2636197995204004,0.20293327790888516
2.8317203829562314,0.09170170759119267,0.7623891250003316,1.256563180490688,0.2066583318701612
2.827867524274831,0.09180248216620521,0.7647369604415015,1.2495111251082491,0.21042687783949263
2.8240010197665795,0.09190143845946551,0.7670342440567145,1.2424644403731915,0.2142391526512229
2.820121072624431,0.09199858503142763,0.76928122084811,1.2354239332856232,0.2180953931396954
2.8162278860413386,0.09209393044254564,0.7714781358178278,1.2283904108456527,0.22199583613925378
2.812321663210256,0.09218748325327361,0.7736252339680072,1.2213646800533877,0.22594071848424147
2.808402607324137,0.09227925202406559,0.7757227603007882,1.214347547908937,0.22993027700900187
2.804470921575935,0.09236924531537567,0.7777709598183103,1.207339821412408,0.23396474854787863
2.8005268091586033,0.09245747168765787,0.7797700775227135,1.2003423075639095,0.23804436993521522
2.796570473265096,0.09254393970136632,0.7817203584161372,1.1933558133635493,0.24216937800535493
2.7926021170883666,0.09262865791695503,0.783622047500721,1.1863811458114357,0.24634000959264152
2.788621943821368,0.09271163489487806,0.7854753897786044,1.1794191119076767,0.2505565015314184
2.784630156657055,0.09279287919558955,0.7872806302519275,1.1724705186523805,0.2548190906560288
2.78062695878838,0.09287239937954347,0.7890380139228297,1.1655361730456555,0.2591280138008167
2.7766125534082975,0.09295020400719395,0.7907477857934506,1.158616882087609,0.2634835078001252
2.7725871437097602,0.09302630163899503,0.7924101908659302,1.1517134527783504,0.2678858094882979
2.768550932885722,0.09310070083540076,0.7940254741424078,1.1448266921179868,0.27233515569967826
2.7645041241291373,0.09317341015686526,0.7955938806250231,1.137957407106627,0.2768317832686099
2.7604469206329583,0.09324443816384251,0.7971156553159161,1.1311064047443788,0.2813759290294362
2.7563795255901398,0.09331379341678665,0.798591043217226,1.1242744920313505,0.2859678298165007
2.752302142193634,0.09338148447615174,0.8000202893310928,1.1174624759676501,0.2906077224641468
2.748214973636396,0.09344751990239178,0.8014036386596561,1.110671163553386,0.29529584380671814
2.7441182231113785,0.09351190825596092,0.8027413362050553,1.1039013617886662,0.3000324306785581
2.7400120938115355,0.09357465809731313,0.8040336269694306,1.0971538776735987,0.3048177199140102
2.73589678892982,0.09363577798690259,0.8052807559549209,1.090429518208292,0.309651948347418
2.731772511659186,0.09369527648518325,0.8064829681636666,1.083729090392854,0.31453535281312495
2.727639465192587,0.09375316215260929,0.8076405085978069,1.077053401227393,0.31946817014547435
2.7234978527229767,0.09380944354963465,0.8087536222594816,1.0704032577120168,0.32445063717880995
2.7193478774433086,0.09386412923671351,0.8098225541508307,1.063779466846834,0.3294829907474753
2.715189742546536,0.09391722777429987,0.8108475492739934,1.0571828356319524,0.33456546768581347
2.7110236512256125,0.09396874772284779,0.8118288526311092,1.0506141710674803,0.33969830482816843
2.7068498066734925,0.09401869764281137,0.8127667092243183,1.044074280153526,0.3448817390088834
2.7026684120831286,0.09406708609464465,0.8136613640557602,1.0375639698901975,0.35011600706230184
2.698479670647475,0.09411392163880171,0.8145130621275741,1.0310840472776026,0.3554013458227675
2.694283785559485,0.09415921283573658,0.8153220484419001,1.02463531931585,0.36073799212462354
2.6900809600121116,0.0942029682459034,0.816088568000878,1.0182185930050478,0.36615673182544917
2.68587139719831,0.09424519642975616,0.8168128658066471,1.0118346753453036,0.37166512472353574
2.681655300311032,0.094285905947749,0.8174951868613474,1.0054843733367265,0.37726251797878085
2.6774328725432324,0.09432510536033585,0.8181357761671183,0.9991684939794238,0.3829482587510805
2.673204317087864,0.09436280322797093,0.8187348787260997,0.9928878442735037,0.3887216942003321
2.668969837137881,0.09439900811110821,0.8192927395404309,0.9866432312190752,0.39458217148643215
2.6647296358862365,0.09443372857020182,0.8198096036122519,0.9804354618162453,0.40052903776927584
2.6604839165258847,0.09446697316570578,0.8202857159437023,0.9742653430651226,0.40656164020876173
2.656232882249778,0.09449875045807414,0.8207213215369216,0.9681336819658155,0.41267932596478574
2.6519767362508713,0.094529069007761,0.8211166653940496,0.9620412855184323,0.41888144219724366
2.647715681722117,0.0945579373752204,0.8214719925172262,0.9559889607230805,0.4251673360660333
2.6434499218564693,0.09458536412090644,0.8217875479085901,0.9499775145798687,0.4315363547310509
2.6391796598468824,0.09461135780527315,0.8220635765702822,0.9440077540889045,0.43798784535219226
2.6349050988863087,0.09463592698877464,0.8223003235044415,0.9380804862502969,0.44452115508935564
2.630626442167703,0.0946590802318649,0.8224980337132075,0.9321965180641537,0.45113563110243604
2.6263438928840173,0.09468082609499807,0.8226569521987201,0.9263566565305826,0.4578306205513314
2.6220576542282066,0.09470117313862814,0.8227773239631193,0.9205617086496926,0.4646054705959368
2.617767929393224,0.0947201299232093,0.8228593940085441,0.914812481421591,0.47145952839615046
2.6134749215720228,0.09473770500919547,0.8229034073371349,0.9091097818463864,0.4783921411118679
2.6091788339575563,0.09475390695704079,0.8229096089510306,0.903454416924187,0.48540265590298626
2.6048798697427795,0.09476874432719933,0.8228782438523717,0.8978471936551005,0.49249041992940246
2.600578232120645,0.09478222568012512,0.8228095570432972,0.8922889190392358,0.4996547803510125
2.596274124284106,0.09479435957627225,0.8227037935259469,0.8867804000767001,0.5068950843277131
2.5919677494261166,0.09480515457609477,0.8225611983024602,0.8813224437676022,0.5142106790194009
2.5876593107396304,0.09481461924004676,0.8223820163749773,0.8759158571120504,0.5216009115859723
2.5833490114176008,0.09482276212858229,0.8221664927456379,0.8705614471101528,0.5290651291873248
2.5790370546529813,0.09482959180215543,0.8219148724165812,0.8652600207620165,0.5366026789833547
2.574723643638726,0.09483511682122017,0.8216274003899471,0.8600123850677512,0.5442129081339577
2.5704089815677875,0.09483934574623071,0.821304321667875,0.8548193470274636,0.5518951637990306
2.5660932716331204,0.094842287137641,0.820945881252505,0.8496817136412633,0.5596487931384714
2.561776717027678,0.09484394955590514,0.8205523241459768,0.844600291909257,0.567473143312176
2.5574595209444135,0.09484434156147721,0.8201238953504295,0.8395758888315543,0.5753675614800405
2.553141886576281,0.09484347171481128,0.8196608398680033,0.8346093114082622,0.5833313948019613
2.5488240171162335,0.09484134857636137,0.8191634027008371,0.8297013666394888,0.5913639904378363
2.544506115757225,0.09483798070658156,0.8186318288510714,0.824852861525343,0.5994646955475609
2.5401883856922094,0.09483337666592595,0.8180663633208451,0.8200646030659331,0.6076328572910329
2.535871030114139,0.09482754501484858,0.8174672511122992,0.8153373982613663,0.6158678228281477
2.531554252215969,0.09482049431380354,0.8168347372275722,0.8106720541117514,0.6241689393188024
2.5272382551906514,0.09481223312324485,0.816169066668804,0.8060693776171963,0.6325355539228941
2.522923242231141,0.09480277000362665,0.8154704844381344,0.8015301757778099,0.6409670138003181
2.518609416530391,0.0947921135154029,0.8147392355377026,0.7970552555936989,0.6494626661109735
2.5142969812813547,0.09478027221902771,0.813975564969649,0.7926454240649725,0.6580218580147541
2.5099861396769865,0.09476725467495517,0.8131797177361124,0.7883014881917387,0.6666439366715577
2.505677094910239,0.09475306944363937,0.8123519388392335,0.7840242549741054,0.675328249241282
2.501370050174066,0.0947377250855343,0.811492473281151,0.7798145314121805,0.6840741428838217
2.497065208661421,0.09472123016109406,0.8106015660640051,0.7756731245060733,0.6928809647590737
2.492762773565259,0.09470359323077272,0.809679462189935,0.7716008412558906,0.7017480620269361
2.4884629480785314,0.09468482285502432,0.808726406661081,0.7675984886617411,0.7106747818473051
2.4841659353941927,0.09466492759430295,0.807742644479583,0.7636668737237338,0.7196604713800758
2.4798719387051973,0.09464391600906268,0.8067284206475795,0.7598068034419752,0.7287044777851468
2.475581161204497,0.09462179665975758,0.8056839801672104,0.7560190848165744,0.7378061482224132
2.471293806085047,0.09459857810684168,0.8046095680406165,0.7523045248476394,0.7469648298517726
2.4670100765398004,0.09457426891076909,0.8035054292699364,0.7486639305352785,0.756179869833121
2.4627301757617106,0.0945488776319938,0.8023718088573102,0.7450981088796,0.7654506153263556
2.458454306943731,0.09452241283096996,0.8012089518048773,0.7416078668807109,0.7747764134913715
2.454182673278816,0.09449488306815157,0.8000171031147776,0.7381940115387211,0.7841566114880671
2.4499154779599186,0.09446629690399276,0.7987965077891503,0.7348573498537376,0.7935905564763395
2.4456529241799916,0.09443666289894755,0.7975474108301358,0.7315986888258694,0.803077595616084
2.4413952151319895,0.09440598961347002,0.7962700572398728,0.7284188354552232,0.812617076067196
2.437142554008866,0.09437428560801422,0.7949646920205019,0.7253185967419085,0.8222083449895754
2.432895144003575,0.0943415594430342,0.7936315601741623,0.7222987796860325,0.8318507495431156
2.428653188309069,0.09430781967898408,0.7922709067029944,0.7193601912877043,0.8415436368877163
2.424416890118302,0.09427307487631788,0.7908829766091365,0.7165036385470311,0.8512863541832718
2.4201864526242276,0.0942373335954897,0.7894680148947291,0.7137299284641221,0.8610782485896766
2.4159620790197995,0.09420060439695359,0.788026266561912,0.7110398680390844,0.870918667266833
2.4117439724979715,0.0941628958411636,0.7865579766128248,0.7084342642720269,0.8808069573746338
2.4075323362516965,0.09412421648857379,0.7850633900496062,0.7059139241630576,0.8907424660729768
2.403327373473929,0.09408457489963823,0.7835427518743974,0.7034796547122841,0.9007245405217574
2.3991292873576215,0.09404397963481101,0.7819963070893364,0.7011322629198147,0.9107525278808755
2.3949382810957287,0.0940024392545462,0.7804243006965644,0.6988725557857585,0.9208257753102242
2.390754557881203,0.09395996231929782,0.7788269776982203,0.6967013403102222,0.9309436299696996
2.386578320906999,0.09391655738951998,0.7772045830964434,0.694619423493315,0.9411054390192022
2.38240977336607,0.09387223302566672,0.7755573618933745,0.6926276123351451,0.9513105496186263
2.378249118451369,0.09382699778819209,0.7738855590911521,0.6907267138358197,0.9615583089278672
2.37409655935585,0.09378086023755017,0.7721894196919166,0.6889175349954486,0.9718480641068239
2.369952299272467,0.09373382893419505,0.7704691886978076,0.6872008828141378,0.9821791623153913
2.3658165413941723,0.09368591243858078,0.7687251111109642,0.6855775642919977,0.9925509507134687
2.361689488913921,0.09363711931116142,0.7669574319335267,0.6840483864291345,1.0029627764609483
2.3575713450246663,0.09358745811239103,0.7651663961676343,0.6826141562256567,1.013413986717732
2.353462312919361,0.09353693740272366,0.763352248815427,0.6812756806816738,1.0239039286437113
2.34936259579096,0.09348556574261342,0.7615152348790439,0.6800337667972924,1.034431949398786
2.345272396832415,0.09343335169251434,0.7596555993606257,0.6788892215726217,1.044997396142853
2.3411919192366812,0.09338030381288048,0.7577735872623113,0.6778428520077691,1.055599616035806
2.337121366196712,0.09332643066416596,0.7558694435862404,0.6768954651028432,1.0662379562375437
2.33306094090546,0.09327174080682478,0.7539434133345526,0.676047867857952,1.0769117639079637
2.32901084655588,0.09321624280131104,0.7519957415093877,0.6753008672732046,1.0876203862069613
2.3249712863409244,0.09315994520807877,0.7500266731128858,0.6746552703487068,1.0983631702944316
2.320942463453547,0.09310285658758206,0.7480364531471859,0.6741118840845688,1.1091394633302738
2.3169245810867025,0.093044985500275,0.7460253266144281,0.6736715154808983,1.1199486124743838
2.312917842433343,0.09298634050661163,0.7439935385167515,0.673334971537803,1.1307899648866577
2.3089224506864237,0.092926930167046,0.7419413338562963,0.6731030592553917,1.1416628677269929
2.3049386090388966,0.09286676304203222,0.7398689576352024,0.6729765856337713,1.1525666681552846
2.3009665206837164,0.09280584769202428,0.7377766548556087,0.6729563576730515,1.1635007133314308
2.297006388813836,0.09274419267747631,0.7356646705196551,0.67304318237334,1.1744643504153283
2.293058416622209,0.09268180655884234,0.7335332496294814,0.6732378667347445,1.185456926566872
2.2891228073017893,0.09261869789657648,0.7313826371872276,0.673541217757373,1.19647778894596
2.2851997640455304,0.09255487525113275,0.7292130781950327,0.6739540424413344,1.2075262847124884
2.281289490046386,0.09249034718296525,0.7270248176550369,0.6744771477867364,1.2186017610263535
2.277392188497309,0.092425122252528,0.7248181005693792,0.6751113407936868,1.2297035650474522
2.2735080625912536,0.09235920902027508,0.7225931719402001,0.6758574284622951,1.2408310439356827
2.2696373155211735,0.09229261604666059,0.7203502767696386,0.6767162177926682,1.2519835448509382
2.265780150480022,0.09222535189213857,0.7180896600598347,0.6776885157849146,1.2631604149531204
2.2619367706607525,0.09215742511716309,0.7158115668129282,0.678775129439142,1.2743610014021196
2.2581073792563195,0.09208884428218819,0.7135162420310583,0.6799768657554592,1.2855846513578366
2.2542921794596755,0.09201961794766798,0.7112039307163647,0.6812945317339736,1.2968307119801676
2.250491374463774,0.09194975467405646,0.7088748778709879,0.6827289343747944,1.3080985304290085
2.2467051674615695,0.09187926302180777,0.7065293284970662,0.6842808806780294,1.3193874538642558
2.242933761646015,0.09180815155137595,0.7041675275967402,0.6859511776437865,1.3306968294458068
2.239177360210064,0.09173642882321506,0.7017897201721495,0.6877406322721735,1.3420260043335568
2.2354361663466706,0.0916641033977791,0.699396151225433,0.6896500515632993,1.3533743256874051
2.231710383248788,0.09159118383552223,0.6969870657587315,0.6916802425172719,1.3647411406672445
2.2280002141093695,0.09151767869689847,0.6945627087741848,0.6938320121341985,1.3761257964329743
2.224305862121369,0.09144359654236192,0.6921233252739307,0.6961061674141886,1.3875276401444903
2.2206275304777403,0.09136894593236661,0.6896691602601104,0.6985035153573493,1.3989460189616914
2.2169654223714375,0.0912937354273666,0.6872004587348639,0.7010248629637901,1.4103802800444711
2.2133197409954124,0.09121797358781603,0.6847174657003298,0.7036710172336167,1.4218297705527263
2.20969068954262,0.09114166897416881,0.6822204261586474,0.7064427851669408,1.4332938376463553
2.2060784712060135,0.09106483014687916,0.6797095851119579,0.7093409737638665,1.4447718284852527
2.2024832891785464,0.09098746566640108,0.6771851875623998,0.7123663900245054,1.4562630902293159
2.1989053466531723,0.09090958409318861,0.6746474785121133,0.7155198409489634,1.4677669700384421
2.195344846822845,0.09083119398769585,0.6720967029632376,0.7188021335373498,1.47928281507253
2.1918019928805177,0.09075230391037695,0.6695331059179135,0.7222140747897727,1.4908099724914727
2.188276988019145,0.09067292242168579,0.6669569323782785,0.7257564717063403,1.5023477894551664
2.1847700354316784,0.09059305808207654,0.6643684273464745,0.72943013128716,1.5138956131235095
2.1812813383110736,0.09051271945200329,0.6617678358246402,0.7332358605323401,1.5254527906564004
2.1778110998502833,0.09043191509192003,0.6591554028149151,0.737174466441989,1.5370186692137322
2.174359523242261,0.09035065356228089,0.6565313733194391,0.7412467560162153,1.5485925959554052
2.1709268116799603,0.0902689434235399,0.6538959923403516,0.7454535362551269,1.5601739180413094
2.1675131683563347,0.0901867932361512,0.6512495048797924,0.7497956141588307,1.5717619826313491
2.1641187964643382,0.09010421156056872,0.6485921559399017,0.7542737967274373,1.5833561368854165
2.160743899196924,0.09002120695724664,0.6459241905228179,0.7588888909610532,1.5949557279634132
2.157388679747046,0.08993778798663893,0.6432458536306818,0.7636417038597862,1.606560103025227
2.154053341307657,0.0898539632091997,0.640557390265633,0.7685330424237442,1.6181686092307643
2.1507380870717117,0.08976974118538304,0.637859045429811,0.7735637136530387,1.6297805937399135
2.147443120232163,0.08968513047564303,0.6351510641253555,0.7787345245477741,1.6413954037125742
2.1441686439819643,0.0896001396404337,0.6324336913544053,0.7840462821080592,1.6530123863086459
2.1409148615140703,0.08951477724020906,0.629707172119101,0.7894997933340031,1.664630888688023
2.1376819760214327,0.08942905183542327,0.6269717514215813,0.795095865225715,1.6762502580106
2.134470190697007,0.08934297198653032,0.6242276742639878,0.8008353047833001,1.6878698414362772
2.131279708733746,0.08925654625398433,0.6214751856484593,0.8067189190068689,1.6994889861249485
2.128110733324603,0.08916978319823941,0.618714530577134,0.812747514896528,1.7111070392365124
2.124963467662531,0.0890826913797495,0.6159459540521521,0.8189218994523877,1.7227233479308643
2.1218381149404855,0.08899527935896874,0.613169701075656,0.8252428796745521,1.7343372593679
2.118734878351418,0.08890755569635114,0.610386016649781,0.8317112625631342,1.7459481207075194
2.115653961088284,0.08881952895235082,0.6075951457766697,0.8383278551182407,1.7575552791096154
2.1125955663440354,0.08873120768742193,0.6047973334584622,0.8450934643399775,1.7691580817340875
2.1095598973116267,0.08864260046201825,0.6019928246972961,0.8520088972284539,1.7807558757408297
2.1065471571840115,0.08855371583659419,0.5991818644953113,0.8590749607837793,1.7923480082897432
2.1035575491541425,0.0884645623716036,0.5963646978546484,0.8662924620060615,1.8039338265407157
2.100591276414975,0.08837514862750058,0.5935415697774475,0.873662207895407,1.8155126776536554
2.0976485421594604,0.08828548316473925,0.5907127252658462,0.8811850054519255,1.827083908788448
2.0947295495805536,0.08819557454377362,0.5878784093219867,0.8888616616757243,1.8386468671049974
2.091834501871208,0.08810543132505783,0.5850388669480076,0.8966929835669122,1.8502008997631991
2.0889636022243776,0.08801506206904583,0.5821943431460477,0.9046797781255975,1.861745353922947
2.0861170538330147,0.08792447533619176,0.5793450829182469,0.9128228523518871,1.8732795767441415
2.083295059890074,0.08783367968694966,0.5764913312667463,0.9211230132458912,1.8848029153866732
2.080497823588509,0.08774268368177363,0.5736333331936847,0.9295810678077165,1.896314717010446
2.0777255481212733,0.08765149588111767,0.5707713337012008,0.9381978230374708,1.9078143287753542
2.0749784366813193,0.08756012484543596,0.5679055777914352,0.9469740859352633,1.9193010978412888
2.072256692461602,0.08746857913518244,0.5650363104665281,0.9559106635012018,1.9307743713681562
2.0695605186550745,0.08737686731081123,0.5621637767286187,0.9650083627353929,1.9422334965158417
2.0668901184546904,0.08728499793277639,0.5592882215798458,0.9742679906379479,1.953677820444252
2.0642456950534034,0.08719297956153195,0.5564098900223498,0.9836903542089717,1.9651066903132781
2.061627451644166,0.08710082075753205,0.5535290270582705,0.9932762604485754,1.976519453282818
2.059035591419934,0.08700853008123074,0.5506458776897476,1.003026516356865,1.98791545651277
2.0564703175736594,0.08691611609308209,0.5477606869189209,1.0129419289339507,1.9992940471630272
2.053931833298295,0.08682358735354007,0.544873699747928,1.0230233051799367,2.0106545723934914
2.051420341786797,0.08673095242305881,0.5419851611789122,1.0332714520949358,2.021996379364052
2.0489360462321162,0.08663821986209237,0.5390953162140097,1.0436871766790539,2.0333188152346144
2.046479149827208,0.08654539823109486,0.5362044098553631,1.0542712859323995,2.0446212271650666
2.044049855765025,0.08645249609052028,0.5333126871051097,1.0650245868550794,2.0559029623153116
2.0416483672385213,0.08635952200082275,0.5304203929653903,1.075947886447203,2.067163367845243
2.0392748874406506,0.08626648452245629,0.5275277724383447,1.0870419917088805,2.0784017909147563
2.036929619564366,0.08617339221587497,0.5246350705261122,1.098307709640217,2.0896175786837494
2.0346127668026206,0.08608025364153288,0.521742532230832,1.1097458472413217,2.100810078312123
2.0323245323483694,0.08598707735988405,0.5188504025546445,1.1213572115123016,2.1119786369597664
2.030065119394565,0.08589387193138256,0.5159589264996893,1.1331426094532668,2.1231226017865827
2.027834731134161,0.08580064591648248,0.513068349068106,1.145102848064325,2.134241319952464
2.0256335707601116,0.08570740787563799,0.5101789152620337,1.157238734345583,2.1453341386173097
2.02346184146537,0.08561416636930291,0.5072908700836125,1.169551075297151,2.1564004049410137
2.0213197464428894,0.08552092995793145,0.5044044585349821,1.182040677919134,2.167439466083474
2.019207488885624,0.08542770720197769,0.5015199256182834,1.194708349211643,2.1784506692045875
2.0171252719865276,0.08533450666189565,0.49863751633565356,1.2075548961747877,2.1894333614642543
2.0150732989385522,0.08524133689813947,0.4957574756892331,1.220581125808672,2.200386890022365
2.013051772934653,0.08514820647116311,0.4928800486811624,1.2337878451134037,2.211310602038818
2.0110608971677832,0.08505512394142072,0.49000548031358115,1.2471758610890964,2.222203844673512
2.009100874830896,0.08496209786936627,0.4871340155886288,1.2607459807358534,2.2330659650863405
2.007171909116945,0.08486913681545391,0.4842658995084441,1.274499011053785,2.2438963104372016
2.0052742032188844,0.08477624934013765,0.4814013770751695,1.288435759042999,2.2546942278859934
2.0034079603296675,0.08468344400387157,0.47854069329094107,1.3025570317036035,2.265459064592611
2.0015733836422465,0.08459072936710979,0.4756840931578994,1.3168636360357064,2.2761901677169503
1.9997706763495773,0.08449811399030638,0.4728318216781855,1.3313563790394154,2.286886884418913
1.9980000416446126,0.08440560643391526,0.46998412385393795,1.3460360677148406,2.297548561858389
1.9962616827203052,0.08431321525839063,0.4671412446872969,1.3609035090620871,2.308174547195277
1.9945558027696095,0.08422094902418649,0.464303429180402,1.3759595100812652,2.3187641875894744
1.9928826049854784,0.08412881629175696,0.4614709223353932,1.3912048777724824,2.329316830200878
1.9912422925608664,0.08403682562155605,0.45864396915440864,1.4066404191358464,2.3398318221893843
1.9896350686887265,0.0839449855740379,0.4558228146395895,1.4222669411714666,2.350308510714891
1.9880611365620124,0.0838533047096565,0.4530077037930753,1.4380852508794515,2.360746242937288
1.986520699373678,0.08376179158886594,0.4501988816170055,1.4540961552599079,2.371144366016483
1.9850139603166757,0.08367045477212028,0.44739659311351954,1.4703004613129433,2.381502227112364
1.9835411225839605,0.08357930281987361,0.4446010832847569,1.4866989760386673,2.3918191733848335
1.9821023893684848,0.08348834429257992,0.4418125971328588,1.5032925064371874,2.402094551993782
1.9806979638632034,0.08339758775069345,0.439031379659963,1.520081859508612,2.4123277100991087
1.9793280492610683,0.08330704175466806,0.4362576758682093,1.53706784225305,2.422517994860713
1.9779928487550356,0.0832167148649579,0.43349173075973857,1.5542512616706077,2.43266475343849
1.9766925655380558,0.08312661564201704,0.4307337893366898,1.5716329247613947,2.442767332992333
1.9754274028030847,0.08303675264629953,0.42798409660120207,1.5892136385255187,2.4528250806821426
1.9741975637430749,0.08294713443825949,0.42524289755541567,1.6069942099630872,2.462837343667813
1.9730032515509806,0.0828577695783509,0.4225104372014701,1.6249754460742096,2.472803469109243
1.9718446694197544,0.08276866662702795,0.4197869605415061,1.6431581538589946,2.482722804166328
1.9707220205423506,0.08267983414474457,0.4170727125776619,1.6615431403175487,2.4925946959989655
1.969635508111723,0.08259128069195483,0.4143679383120773,1.6801312124499796,2.5024184917670507
1.9685853353208247,0.08250301482911286,0.4116728827468932,1.6989231772563969,2.5121935386304806
1.9675717053626096,0.08241504511667276,0.4089877908842485,1.717919841736908,2.5219191837491515
1.9665948214300308,0.08232738011508849,0.4063129077262819,1.7371220128916223,2.531594774282964
1.9656548867160422,0.08224002838481423,0.4036484782751337,1.7565304977206457,2.5412196573918067
1.9647521044135976,0.08215299848630392,0.4009947475329434,1.7761461032240886,2.5507931802355825
1.9638866777156498,0.0820662989800117,0.3983519605018522,1.7959696364020568,2.560314689974188
1.9630588098151538,0.08197993842639162,0.39572036218399775,1.8160019042546596,2.5697835337675174
1.9622687039050617,0.08189392538589774,0.39310019758152004,1.83624371378201,2.5791990587754654
1.9615165631783276,0.08180826841898413,0.39049171169656116,1.8566958719842068,2.5885606121579343
1.9608025908279054,0.08172297608610488,0.38789514953125703,1.8773591858613647,2.597867541074817
1.960126990046748,0.08163805694771406,0.38531075608774934,1.8982344624135896,2.607119192686011
1.9594899640278096,0.08155351956426567,0.38273877636817843,1.9193225086409909,2.6163149141514133
1.958891715964044,0.08146937249621383,0.38017945537468156,1.9406241315436725,2.625454052630918
1.9583324490484042,0.08138562430401254,0.3776330381094013,1.9621401381217494,2.6345359552844245
1.9578123664738438,0.08130228354811592,0.37509976957447577,1.9838713353753272,2.6435599692718306
1.9573316714333164,0.08121935878897805,0.3725798947720431,2.00581853030451,2.6525254417530295
1.9568905671197756,0.08113685858705302,0.37007365870424636,2.0279825299094094,2.6614317198879185
1.9564892567261758,0.08105479150279477,0.36758130637322406,2.0503641411901343,2.6702781508363973
1.9561279434454693,0.08097316609665746,0.3651030827811148,2.0729641711467925,2.679064081758356
1.9558068304706104,0.08089199092909517,0.36263923293005673,2.0957834267794917,2.6877888598136996
1.9555261209945525,0.08081127456056186,0.36019000182219285,2.1188227150883376,2.69645183216232
1.955286018210249,0.08073102555151175,0.35775563445966174,2.1420828430734415,2.705052345964111
1.9550867253106539,0.08065125246239879,0.3553363758446033,2.1652554277130776,2.7135897483789737
1.9549284454887204,0.08057196385367713,0.3529324709791557,2.187906124242275,2.7220633865668074
1.9548113819374016,0.0804931682858007,0.3505441648654606,2.210040869424276,2.7304726076875028
1.9547357378496528,0.0804148743192236,0.3481717025056561,2.2316656000218558,2.738816758900959
1.9547017164184264,0.08033709051440005,0.3458153289018826,2.2527862527979465,2.7470951873670675
1.9547095208366754,0.08025982543178399,0.3434752890562782,2.27340876451548,2.7553072402457364
1.9547593542973543,0.08018308763182948,0.3411518279709833,2.2935390719374453,2.7634522646968502
1.9548514199934166,0.08010688567499062,0.3388451906481409,2.313183111826646,2.7715296078803187
1.9549859211178156,0.08003122812172149,0.3365556220898869,2.3323468209461424,2.779538616956023
1.955163060863505,0.07995612353247604,0.3342833672983603,2.351036136058781,2.7874786390838695
1.9553830424234384,0.07988158046770848,0.3320286712757037,2.3692569939275216,2.7953490214237524
1.955646068990569,0.07980760748787284,0.32979177902405654,2.3870153313153395,2.803149111135575
1.9559523437578514,0.07973421315342322,0.327572935545557,2.404317084985024,2.810878255379219
1.9563020699182374,0.07966140602481347,0.32537238584234496,2.421168191699735,2.8185358013145922
1.9566954506646828,0.0795891946624979,0.3231903749165599,2.4375745882221764,2.8261210961015895
1.9571326891901393,0.07951758762693044,0.32102714777034214,2.4535422113153658,2.8336334869001085
1.9576139886875614,0.07944659347856525,0.31888294940583206,2.4690769977422633,2.8410723208700386
1.9581395523499028,0.0793762207778563,0.3167580248251678,2.484184884265815,2.84843694517129
1.958709583370116,0.07930647808525779,0.3146526190304897,2.4988718076488396,2.8557267069637398
1.959324284941156,0.07923737396122364,0.3125669770239359,2.513143704654425,2.862940953407305
1.9599838602559756,0.07916891696620793,0.3105013438076485,2.527006512045247,2.8700790316618754
1.9606885125075286,0.07910111566066487,0.30845596438376655,2.5404661665845367,2.877140288887338
1.9614384448887687,0.07903397860504831,0.30643108375442996,2.553528605034998,2.884124072243603
1.9622338605926486,0.07896751435981253,0.30442694692177685,2.5661997641597054,2.891029728890551
1.963074962812124,0.07890173148541141,0.30244379888794803,2.578485580721434,2.897856605988098
1.963961954740146,0.07883663854229919,0.3004818846550821,2.590391991483358,2.904604050696129
1.9648950395696692,0.07877224409092978,0.29854144922532067,2.601924933208167,2.9112714101745407
1.9658744204936474,0.07870855669175725,0.2966227376008006,2.613090342658893,2.9178580315832328
1.9669003007050336,0.07864558490523575,0.29472599478366535,2.6238941565984533,2.9243632620821014
1.967972883396782,0.07858333729181936,0.29285146577605126,2.63434231178978,2.930786448831041
1.9690923717618456,0.07852182241196211,0.29099939558009824,2.6444407449957907,2.93712693898995
1.9702589689931789,0.07846104882611812,0.289170029197948,2.65419539297946,2.9433840797187294
1.971472878283734,0.0784010250947413,0.2873636116317386,2.663612192503706,2.9495572181772616
1.972734302826467,0.0783417597782858,0.28558038788361007,2.672697080331332,2.9556457015254605
1.9740434458143286,0.0782832614372057,0.2838206029557031,2.6814559932254554,2.9616488769232117
1.9754005104402736,0.07822553863195507,0.28208450185015543,2.6898948679488655,2.9675660915304203
1.9768056998972559,0.07816859992298793,0.28037232956910874,2.698019641264594,2.97339669250697
1.9782592173782283,0.07811245387075846,0.27868433111470114,2.7058362499355297,2.97914002701277
1.9797612660761459,0.07805710903572055,0.27702075148907346,2.7133506307245625,2.9847954422077123
1.98131204918396,0.07800257397832841,0.2753818356943625,2.7205687203947235,2.99036228525169
1.982911769894626,0.07794885725903608,0.273767828732713,2.7274964557087884,2.99583990330461
1.9845606314010964,0.07789596743829752,0.2721789756062596,2.7341397734298027,3.0012276435263523
1.9862588368963268,0.0778439130765669,0.2706155213171444,2.74050461032067,3.0065248530768294
1.988006589573268,0.07779270273429834,0.2690777108675082,2.746596903144365,3.011730879115932
1.9898040926248748,0.07774234497194579,0.26756578925948915,2.7524225886636486,3.0168450688035566
1.991651549244101,0.07769284834996329,0.26608000149522626,2.757987603641709,3.0218667692995975
1.9935491626239,0.07764422142880498,0.26462059257686077,2.7632978848412364,3.0267953277639528
1.9954971359572253,0.0775964727689249,0.2631878075065286,2.7683593690253616,3.031630091356522
1.9974956724370312,0.07754961093077714,0.26178189128637586,2.7731779929568603,3.0363704072372
1.9995449752562697,0.07750364447481575,0.26040308891853625,2.7777596933986644,3.0410156225658778
2.0016452476078967,0.07745858196149483,0.25905164540515413,2.782110407113805,3.0455650845024653
2.0037966926848627,0.07741443195126835,0.2577278057483645,2.786236070865158,3.0500181402068467
2.005999513680122,0.07737120300459041,0.25643181495031087,2.7901426214157112,3.0543741368389217
2.008253913786632,0.07732890368191517,0.25516391801313265,2.7938359955282692,3.05863242155859
2.0105600961973424,0.07728754254369655,0.25392435993896534,2.79732212996592,3.0627923415257428
2.012918264105207,0.07724712815038876,0.25271338572995283,2.800606961491411,3.0668532439002867
2.0153286207031806,0.07720766906244575,0.2515312403882355,2.8036964268678446,3.0708144758421074
2.0177913691842173,0.07716917384032163,0.25037816891594833,2.806596462857925,3.0746753845111083
2.0203067127412684,0.0771316510444705,0.24925441631523437,2.8093130062249116,3.0784353170671803
2.0228748545672888,0.07709510923534629,0.24816022758823397,2.811851993731466,3.082093620670225
2.019546924315364,0.07705955697340328,0.24709584773708215,2.8142193621406193,3.0856496424801367
2.0047928073636285,0.07702500281909541,0.24606152176392548,2.8164210482152328,3.0891027296568154
1.979368755224641,0.07699145533287666,0.2450574946708981,2.8184629887183377,3.0924522293601537
1.9440310194077028,0.0769589230752013,0.24408401146014214,2.820351120412809,3.095697488750048
1.899535851443943,0.07692741460652319,0.24314131713379705,2.822091380061565,3.0988378549863995
1.8466395028335683,0.07689693848729656,0.24222965669400143,2.8236897044276077,3.1018726752290995
1.7860982251058886,0.07686750327797534,0.24134927514289561,2.8251520302737276,3.104801296638044
1.7186682697647484,0.07683911753901368,0.24050041748261908,2.826484294363027,3.107623066373142
1.645105888332182,0.07681178983086559,0.23968332871531217,2.8276924334582816,3.110337331594275
1.5661673323284049,0.07678552871398525,0.23889825384311258,2.8287823843225226,3.1129434394613416
1.4826088532590802,0.07676034274882662,0.23814543786816245,2.829760083718611,3.1154407371342465
1.3951867026371474,0.07673624049584374,0.237425125792603,2.8306314684095355,3.1178285717728826
1.3046571320010116,0.0767132305154907,0.2367375626185675,2.8314024751581996,3.1201062905371426
1.2117763928363274,0.07669132136822165,0.2360829933482007,2.8320790407275496,3.1222732405869316
1.117300736688776,0.07667052161449064,0.23546166298364213,2.8326671018804745,3.1243287690821404
1.0219864150458307,0.0766508398147516,0.23487381652702943,2.8331725953799207,3.1262722231826583
0.9265896794349828,0.07663228452945875,0.23431969898050298,2.83360145798882,3.1281029500483957
0.8318667813800857,0.07661486431906603,0.23379955534620311,2.8339596264701044,3.129820296839247
0.7385739723777078,0.07659858774402756,0.2333136306262693,2.834253037586734,3.1314236107150997
0.6474675039698923,0.07658346336479746,0.23286216982283925,2.834487628101499,3.132912238835857
0.5593036276532075,0.07656949974182967,0.23244541793805507,2.834669334777601,3.1342855283614153
0.47483859494786884,0.07655670543557833,0.23206361997405534,2.834804094377745,3.1355428264516707
0.39482865737772954,0.07654508900649754,0.2317170209329813,2.834897843664905,3.1366834802665196
0.32003006643753906,0.07653465901504139,0.23140586581696887,2.8349565194020556,3.1377068369658563
0.2511990736638836,0.07652542402166385,0.23113039962816373,2.8349860583521007,3.1386122437095807
0.18909193056606455,0.076517392586819,0.23089086736870001,2.8349923972779294,3.1393990476575873
0.1344648886442883,0.07651057327096092,0.23068751404071897,2.8349814729425304,3.1400665959697776
0.08807419944969297,0.07650497463454367,0.23052058464636094,2.834959222108793,3.140614235806039
0.0506761144642951,0.0765006052380213,0.2303903241877654,2.8349315815397915,3.1410413143262836
0.023026885215585935,0.076497473641848,0.2302969776670709,2.8349044879981875,3.141347178690385
0.005882763231056742,0.07649558840647766,0.23024079008641962,2.834883878247183,3.1415311760582583
0.0,0.07649495809236442,0.2302220064479492,2.8348756890494258,3.141592653589795
